ZJU-PLP/Project_IFAC_2020/src/custom_codes/csv_files/joint_traj_2_APF.csv
Index Joint1 Joint2 Joint3 Joint4 Joint5 Joint6
0 0.0 -1.5707 0.0 -1.5707 -1.5707 -1.5707
1 -0.000744545500242411 -1.5696388460237731 0.020033832476018778 -1.5636862366742197 -1.5741247950334047 -1.5676514152659855
2 -0.001495789604976352 -1.5685767501497403 0.04011227858435803 -1.556709879154552 -1.5784594877860398 -1.5634641870052803
3 -0.002252404428050232 -1.5675138162447004 0.06022842311246687 -1.549773151667656 -1.5826832736876715 -1.5591542306870512
4 -0.003014651343979708 -1.5664502054127372 0.08037405211256786 -1.5428782851880787 -1.5868205581299537 -1.5546882665309831
5 -0.003782755989056038 -1.5653860838011584 0.10054057556578005 -1.5360275800933343 -1.5908723328118033 -1.5500564265495975
6 -0.004556944616090099 -1.5643216243893174 0.12071898403375297 -1.5292234168294763 -1.5948352054510808 -1.5452531418110649
7 -0.005337450926070731 -1.5632570078889647 0.14089982242132693 -1.5224682607428812 -1.598704276327792 -1.5402742618344685
8 -0.006124518407545672 -1.5621924235751299 0.1610731655663185 -1.5157646663908408 -1.6024739230155087 -1.5351162801443754
9 -0.006918401404602502 -1.5611280701556676 0.18122859387301493 -1.5091152817935396 -1.6061380874901956 -1.529776063822328
10 -0.007719365665873357 -1.560064156705912 0.20135516878634346 -1.5025228526542966 -1.609690403600878 -1.5242507475535365
11 -0.008527688603425742 -1.5590009036760346 0.22144140831043982 -1.4959902264815024 -1.6131242633777416 -1.5185376935805064
12 -0.009343659336942926 -1.5579385439713034 0.24147526297420718 -1.4895203565028279 -1.6164328573920015 -1.5126344826742768
13 -0.010167578542816254 -1.5568773241005174 0.2614440928048994 -1.4831163052275282 -1.619609203815358 -1.5065389219757508
14 -0.010999758103901459 -1.555817505383168 0.28133464602968034 -1.4767812474771607 -1.6226461730905481 -1.5002490633757048
15 -0.011840520544137248 -1.5547593652006064 0.3011330403964511 -1.4705184726666876 -1.6255365118823377 -1.4937632293742036
16 -0.01269019822629401 -1.5537031982703613 0.3208247481917644 -1.4643313860765883 -1.628272868500871 -1.4870800448286263
17 -0.01354913228837041 -1.552649317915618 0.34039458623363855 -1.458223508813038 -1.6308478212658526 -1.4801984736736546
18 -0.01441767129374169 -1.551598057293696 0.3598267123252674 -1.4521984761090132 -1.6332539108962774 -1.4731178599840338
19 -0.015296169571913274 -1.5505497705382414 0.3791046298630105 -1.4462600335767928 -1.6354836777802249 -1.4658379728287567
20 -0.01618498523077768 -1.5495048337599937 0.3982112024854388 -1.4404120309851263 -1.6375297048108466 -1.4583590543152696
21 -0.017084477827870682 -1.5484636458407792 0.4171286808116597 -1.4346584131068185 -1.6393846663181086 -1.4506818700849229
22 -0.017995005697552288 -1.5474266289453993 0.435838743423716 -1.4290032071701542 -1.6410413834509585 -1.442807761319074
23 -0.01891692294350659 -1.546394228667165 0.45432255427178586 -1.4234505064570073 -1.6424928861517534 -1.4347386970655227
24 -0.019850576121505828 -1.5453669137160042 0.47256083859062326 -1.4180044496288287 -1.6437324816013572 -1.4264773254134713
25 -0.020796300655804616 -1.5443451750546522 0.4905339791777335 -1.4126691954363242 -1.6447538286927177 -1.418027021751192
26 -0.021754417053254385 -1.5433295243898604 0.5082221344662123 -1.4074488925861368 -1.6455510177130792 -1.4093919320582946
27 -0.02272522700125848 -1.542320491933335 0.5256053792021308 -1.4023476447029481 -1.6461186539882553 -1.400577008943871
28 -0.02370900945755342 -1.541318623362614 0.5426638676940176 -1.3973694705395836 -1.6464519437838 -1.3915880379779029
29 -0.024706016859571356 -1.5403244759363168 0.5593780185452477 -1.3925182598475834 -1.6465467802947307 -1.382431651814063
30 -0.025716471596524057 -1.5393386137515284 0.5757287185389807 -1.3877977256167748 -1.6463998271247369 -1.3731153297045757
31 -0.02674056289590524 -1.5383616021728983 0.5916975419796436 -1.3832113537080961 -1.646008596302609 -1.363647380293059
32 -0.027778444275535528 -1.5373940015116736 0.6072669803961936 -1.3787623512156137 -1.6453715176571568 -1.3540369060578323
33 -0.02883023170079503 -1.536436360085269 0.6224206761999739 -1.3744535951718988 -1.6444879963197594 -1.3442937484658368
34 -0.029896002563447065 -1.5354892068399717 0.6371436528018826 -1.3702875834229915 -1.6433584552845524 -1.3344284137620501
35 -0.030975795563859647 -1.534553043765908 0.6514225329708397 -1.3662663896132599 -1.6419843603519628 -1.3244519803109167
36 -0.032069611534344615 -1.5336283383691371 0.6652457369820718 -1.362391624210432 -1.6403682254101062 -1.314375989450444
37 -0.03317741519104607 -1.532715516485793 0.6786036524447432 -1.3586644033515747 -1.6385135968409839 -1.304212322824079
38 -0.034299137749733415 -1.5318149557239853 0.6914887686416781 -1.3550853270011485 -1.6364250168173298 -1.2939730700215204
39 -0.03543468029197767 -1.5309269797990375 0.703895769718207 -1.351654467498557 -1.634107966301594 -1.283670390995709
40 -0.03658391772736637 -1.53005185398739 0.715821583012154 -1.3483713690668548 -1.6315687895781403 -1.2733163780592478
41 -0.03774670316862621 -1.5291897818673446 0.7272653810547489 -1.345235058300746 -1.628814603050091 -1.262922922262277
42 -0.038922872522284074 -1.5283409034460758 0.73822853808982 -1.342244065101234 -1.6258531917331787 -1.2525015886173134
43 -0.04011224909850197 -1.527505294698539 0.7487145441468043 -1.3393964530258482 -1.6226928973243275 -1.242063504005359
44 -0.04131464805883345 -1.5266829684719831 0.7587288815757992 -1.3366898576189588 -1.6193425018874692 -1.2316192607438186
45 -0.042529880547201734 -1.525873876645941 0.7682788703711814 -1.3341215310048695 -1.6158111110906745 -1.221178837812129
46 -0.043757757383723124 -1.525077913386619 0.7773734894969598 -1.331688390879852 -1.612108040582919 -1.2107515407125244
47 -0.044998092239046175 -1.5242949192993862 0.7860231817694452 -1.329387072025038 -1.6082427085720095 -1.2003459599800692
48 -0.04625070424481965 -1.5235246862644163 0.7942396496957885 -1.3272139785639285 -1.604224537024139 -1.1899699475186574
49 -0.047515420030582727 -1.5227669627374625 0.8020356490978355 -1.325165335380942 -1.6000628632174332 -1.179630609274672
50 -0.048792075206570196 -1.52202145930793 0.8094247864812463 -1.3232372373712744 -1.59576686270636 -1.1693343122887796
51 -0.05008051533442714 -1.5212878543266786 0.8164213250581076 -1.3214256954776988 -1.5913454841376737 -1.1590867038876442
52 -0.05138059644333071 -1.5205657994429345 0.8230400032072231 -1.3197266787604143 -1.5868073958330822 -1.1488927406726326
53 -0.05269218515794046 -1.5193578679951742 0.8435807432794759 -1.3163182288178978 -1.5821280958929922 -1.1387567250020623
54 -0.054023143523154155 -1.5183020284789912 0.8596371511783801 -1.3136631002079675 -1.5771194649633458 -1.1286619174429904
55 -0.0553704072950855 -1.5173672462718957 0.8721417670457735 -1.311591398667727 -1.571861924944139 -1.1186380454657652
56 -0.05673208914669965 -1.5165283069844488 0.8818461414720031 -1.3099728470915526 -1.5664183469867963 -1.1086994854408163
57 -0.05810705164597412 -1.515764972885109 0.8893493933941133 -1.3087077586599074 -1.5608372702533604 -1.0988516414335785
58 -0.05949461461169999 -1.5150611250253263 0.8951260192815838 -1.3077198286026206 -1.5551559728824955 -1.0890950025960728
59 -0.06089436623587474 -1.5144039873232762 0.8995503609921206 -1.3069505574912745 -1.5494030431126338 -1.0794275869608934
60 -0.06230604597127727 -1.5137834645373829 0.9029170730788992 -1.3063550042569942 -1.5436004087446078 -1.0698463475475375
61 -0.06372947416625642 -1.513191595399102 0.9054577794318599 -1.3058985727547667 -1.5377648960828454 -1.0603479428955693
62 -0.06516451104730868 -1.5126221093642591 0.9073544192503187 -1.305554582953426 -1.531909414446689 -1.0509291320691188
63 -0.0666110336516878 -1.512070071453412 0.9087498447779655 -1.305302431611226 -1.5260438542583983 -1.041586954950062
64 -0.06806892349864084 -1.5115315996887195 0.9097561930925917 -1.3051261945658374 -1.5201757696700224 -1.032318794331128
65 -0.06953806053882068 -1.5110036412882168 0.9104614797339888 -1.3050135603366546 -1.514310899875922 -1.0231223763388824
66 -0.07101832067014319 -1.5104837959011046 0.9109347830540397 -1.304955013214973 -1.5084535694331567 -1.0139957414965823
67 -0.07250957519753297 -1.5099701762512066 0.9112303166889266 -1.3049432051214094 -1.5026069973617033 -1.0049372043417717
68 -0.07401169128280857 -1.5094612984025852 0.9113906270403466 -1.3049724710058523 -1.4967735370111543 -0.9959453111033387
69 -0.07552453283682263 -1.5089559954184701 0.9114491031623021 -1.305038453926846 -1.4909548630129583 -0.9870188001221836
70 -0.07704796154936547 -1.508453349462079 0.9114319467248735 -1.3051378143031798 -1.4851521175214408 -0.9781565670048543
71 -0.07858183789625992 -1.5079526384191935 0.9113597181712576 -1.3052680040100386 -1.4793660249459017 -0.9693576350476436
72 -0.08012602204660176 -1.5074532939468637 0.9112485502659888 -1.3054270905930558 -1.4735969821712105 -0.9606211307323261
73 -0.0816803746402949 -1.5069548685078575 0.911111100619165 -1.305613620323527 -1.467845129629025 -0.9519462637617332
74 -0.083244757431617 -1.5064570094691616 0.9109572993615469 -1.305826511422529 -1.4621104073567803 -0.9433323109906958
75 -0.08481903380748268 -1.505959438752443 0.9107949360489191 -1.3060649707602874 -1.4563925992551148 -0.9347786036096675
76 -0.08640306919475306 -1.5054619368472877 0.910630120382674 -1.3063284288485892 -1.450691368047482 -0.9262845169944052
77 -0.08799673137260369 -1.504964330252316 0.9104676438873461 -1.306616489104197 -1.4450062829021402 -0.917849462712178
78 -0.08959989070551659 -1.504466481609377 0.9103860003570382 -1.3063309961524479 -1.439386738410601 -0.909414845069551
79 -0.09121180076824353 -1.5039701828645182 0.910255817975761 -1.3061010080569593 -1.4337735241997482 -0.9010438227041843
80 -0.09283238877328118 -1.5034748599520986 0.9100934231991257 -1.305924205463586 -1.4281673486378674 -0.8927355068368901
81 -0.09446158039253111 -1.5029800624967027 0.9099115902390663 -1.3057987984095332 -1.4225686288096813 -0.8844891030297806
82 -0.09609930056720688 -1.502485436949716 0.9097203151932463 -1.3057234059102694 -1.4169775542660492 -0.8763038938416187
83 -0.09774547415747731 -1.5019907055793649 0.9095274209577505 -1.3056969625224095 -1.4113941371059366 -0.8681792248580724
84 -0.09940002645332749 -1.5014956500356147 0.9093390300456766 -1.305718645792029 -1.405818251353567 -0.8601144935007585
85 -0.10106288356864225 -1.50100009849119 0.9091599342552977 -1.3057878198970323 -1.4002496639369078 -0.8521091400945926
86 -0.10273397273894719 -1.5005039155785032 0.9089938837639117 -1.3059039918609974 -1.3946880590677935 -0.8441626407535093
87 -0.10441322254079281 -1.5000069945129144 0.9088438132636487 -1.3060667775355568 -1.3891330574324914 -0.83627450172054
88 -0.10610056304809536 -1.4995092509259813 0.9087120188902944 -1.3062758751790025 -1.3835842312972801 -0.8284442548654286
89 -0.10779592593818924 -1.4990106180363982 0.9086002966826641 -1.3065310449452632 -1.378041116396428 -0.8206714541002534
90 -0.10949924455805267 -1.4985110428675938 0.908510050959565 -1.306832092973505 -1.3725032212845518 -0.8129556725211905
91 -0.11121045395919224 -1.4980104832844343 0.9084423791673375 -1.307178859059885 -1.3669700346900984 -0.8052965001235826
92 -0.11292949090801216 -1.4975089056710782 0.9083981383193712 -1.3075712071189116 -1.3614410312927216 -0.7976935419690598
93 -0.11465629387712381 -1.4970062831107889 0.9083779970311863 -1.3080090178173096 -1.355915676257786 -0.7901464167088085
94 -0.11639080302193354 -1.496502593958809 0.9083824762815836 -1.3084921828996519 -1.3503934287907764 -0.7826547553873081
95 -0.11813296014594317 -1.4959978207230842 0.9084119813482519 -1.30902060083112 -1.344873744918945 -0.7752182004669238
96 -0.11988270865747251 -1.495491949186145 0.9084668268331416 -1.3095941734653398 -1.339356079663824 -0.767836405026455
97 -0.12163999351993349 -1.494984967715944 0.9085472562762151 -1.3102128035095693 -1.3338398887337914 -0.7605090320967867
98 -0.12340476119732398 -1.4944768667247736 0.908653457530372 -1.3108763926096483 -1.3283246298387117 -0.7532357541047036
99 -0.1251769595962435 -1.4939676382442588 0.908785574815543 -1.3115848399162031 -1.322809763707234 -0.7460162524021605
100 -0.1269565380054427 -1.4934572755913558 0.9089437181706314 -1.3123380410240777 -1.3172947548704177 -0.7388502168631991
101 -0.12874344703368973 -1.4929457731057203 0.9091279708660348 -1.3131358872007395 -1.311779072261996 -0.7317373455345506
102 -0.13053763854655512 -1.4924331259430623 0.9093383952174501 -1.3139782648379634 -1.3062621896750406 -0.7246773443289872
103 -0.13233906560257502 -1.4919193299124285 0.9095750371461441 -1.3148650550755727 -1.3007435861064662 -0.7176699267528518
104 -0.1341476823891398 -1.4914043813479663 0.9098379297561037 -1.315796133557322 -1.295222746014227 -0.7107148136610596
105 -0.13596344415836703 -1.4908882770077643 0.9101270961399287 -1.316771370287826 -1.2896991595068623 -0.7038117330343189
106 -0.13778630716314857 -1.4903710139939614 0.9104425515794873 -1.3177906295663326 -1.2841723224809412 -0.6969604197744628
107 -0.139616228593507 -1.489852589689574 0.9107843052714402 -1.3188537699785097 -1.2786417367187095 -0.6901606155146766
108 -0.1414531665133542 -1.4893330017084703 0.9111523616796144 -1.319960644431623 -1.2731069099556784 -0.6834120684421072
109 -0.14329707979771159 -1.4888122478556929 0.9115467215941654 -1.3211111002217553 -1.2675673559258664 -0.676714533130888
110 -0.14514792807042506 -1.4882903260959344 0.9119673829601995 -1.3223049791242782 -1.262022594390806 -0.6700677703840409
111 -0.14700567164238845 -1.4877672345284396 0.9124143415249946 -1.3235421175007915 -1.2564721511571622 -0.6634715470830529
112 -0.14887027145027226 -1.4872429713669872 0.9128875913423499 -1.3248223464172943 -1.2509155580868057 -0.6569256360441861
113 -0.15074168899574364 -1.486717534923886 0.9133871251642822 -1.3261454917695825 -1.245352353102401 -0.6504298158807823
114 -0.1526198862851531 -1.4861909235971549 0.9139129347437649 -1.3275113744128029 -1.2397820801909405 -0.6439838708709849
115 -0.1545048257696572 -1.4856631358602335 0.9144650110670965 -1.3289198102928452 -1.2342042894071643 -0.6375875908304217
116 -0.15639647028574027 -1.4851341702537082 0.9150433445304799 -1.3303706105778217 -1.228618536878423 -0.6312407709894922
117 -0.15829478299609465 -1.4846040253786523 0.9156479250722429 -1.3318635817883395 -1.2230243848122277 -0.624943211874973
118 -0.16019972733081614 -1.484072699891263 0.9162787422696753 -1.3333985259256125 -1.2174214015074936 -0.6186947191957173
119 -0.16211126692886832 -1.4835401924985463 0.9169357854075125 -1.3349752405967399 -1.2118091613702946 -0.612495103732266
120 -0.16402936557976894 -1.4830065019548557 0.9176190435235864 -1.336593519136679 -1.2061872449348017 -0.606344181230225
121 -0.1659539871654498 -1.4824716270591303 0.9183285054359679 -1.3382531507266113 -1.20055523888995 -0.6002417722972878
122 -0.16788509560224155 -1.481935566652711 0.9190641597549932 -1.3399539205085205 -1.1949127361123046 -0.5941877023038049
123 -0.16982265478293412 -1.4813983196176423 0.9198259948828288 -1.3416956096959003 -1.1892593357055095 -0.5881818012868163
124 -0.17176662851886362 -1.4808598848753836 0.9206139990026562 -1.3434779956805867 -1.1835946430466626 -0.5822239038574752
125 -0.17371698048197695 -1.4803202613858715 0.9214281600591016 -1.345300852135758 -1.1779182698399113 -0.5763138491118015
126 -0.17567367414682536 -1.4797794481468896 0.92226846573118 -1.3471639491152012 -1.172229834177528 -0.5704514805447092
127 -0.17763667273243872 -1.4792374441937066 0.9231349033987446 -1.3490670531489644 -1.1665289606087135 -0.5646366459672584
128 -0.17960593914403303 -1.4786942485989591 0.9240274601032045 -1.3510099273355445 -1.1608152802163476 -0.5588691974270863
129 -0.18158143591450404 -1.478149860472753 0.9249461225031095 -1.352992331430777 -1.155088430701899 -0.5531489911319741
130 -0.1835631251456607 -1.47760427896297 0.9258908768250537 -1.3550140219336093 -1.1493480564786978 -0.5474758873765103
131 -0.18555096844915275 -1.4770575032557656 0.9268617088102454 -1.3570747521689406 -1.1435938087737711 -0.5418497504718114
132 -0.1875449268870478 -1.4765095325762485 0.9278586036570032 -1.3591742723677278 -1.1378253457384366 -0.5362704486782631
133 -0.1895449609120138 -1.4759603661893346 0.9288815459593676 -1.361312329744554 -1.1320423325678488 -0.5307378541412472
134 -0.191551030307064 -1.4754100034007707 0.9299305196419653 -1.3634886685728596 -1.126244441629698 -0.5252518428298169
135 -0.19356309412482178 -1.4748584435583254 0.931005507891216 -1.3657030302580382 -1.1204313526022591 -0.5198122944782883
136 -0.19558111062626465 -1.4743056860531438 0.9321064930829378 -1.3679551534085992 -1.1146027526219962 -0.5144190925307124
137 -0.19760503721890668 -1.4737517303212655 0.933233456706375 -1.3702447739055978 -1.1087583364409266 -0.5090721240881945
138 -0.19963483039438037 -1.4731965758453078 0.9343863792846533 -1.372571624970532 -1.1028978065939605 -0.5037712798590278
139 -0.2016704456653799 -1.4726402221563133 0.9356177498328715 -1.374515360902066 -1.097100985454476 -0.49835233454031164
140 -0.20371129462783144 -1.4720841259325816 0.9368348885494284 -1.3764942297499354 -1.0912806400653023 -0.4929792672249479
141 -0.2057573531822011 -1.4715279814802542 0.9380462810023824 -1.3785073636394491 -1.0854375573802493 -0.48765190992080826
142 -0.20780859366309448 -1.4709715489363722 0.9392585648414591 -1.3805541281158011 -1.0795722802344754 -0.48237015336943756
143 -0.20986498542935075 -1.4704146397508628 0.9404769379291797 -1.3826340710242055 -1.0736851616359833 -0.47713393657883535
144 -0.21192649532468108 -1.4698571053553884 0.9417054766683013 -1.3847468828233682 -1.0677764074330358 -0.4719432385623536
145 -0.21399308803114342 -1.4692988283226123 0.9429473842114539 -1.3868923657759926 -1.0618461098635519 -0.46679807184039207
146 -0.21606472633501764 -1.4687397154709092 0.9442051839380581 -1.389070410034871 -1.0558942739522854 -0.4616984773438018
147 -0.21814137132168726 -1.4681796924882857 0.9454808702188328 -1.391280975087107 -1.0499208382985903 -0.45664452042773973
148 -0.22022298251331085 -1.4676186997422893 0.9467760258566723 -1.3935240753625964 -1.043925691466026 -0.45163628776272186
149 -0.22230951796054624 -1.4670566890154997 0.9480919135352397 -1.3957997690791784 -1.0379086849250174 -0.4466738849170686
150 -0.22431977752940735 -1.466526602074394 0.9492697203606522 -1.3981550113262018 -1.0318149932288936 -0.4417574344833265
151 -0.22633780517596389 -1.4659931488131943 0.950519665748777 -1.400536879246775 -1.0257097997454865 -0.4368863833361538
152 -0.22836312205164402 -1.4654568609012313 0.9518302541384526 -1.402947062870476 -1.0195908777706966 -0.4320611786179575
153 -0.2303953532168196 -1.4649181370079905 0.9531928309166238 -1.405386885418954 -1.0134564750494128 -0.4272822043987513
154 -0.2324342027767408 -1.4643772747413444 0.95460089098573 -1.407857394040417 -1.0073052037934818 -0.4225497997255767
155 -0.2344794348585184 -1.4638344949211521 0.9560495546116192 -1.410359428648409 -1.001135956756782 -0.4178642722021621
156 -0.23653085905364032 -1.4632899600263192 0.9575351702626723 -1.4128936740998972 -0.9949478432786283 -0.4132259082299032
157 -0.2385883192741912 -1.4627437882116658 0.9590550138134464 -1.4154606997139687 -0.9887401406172269 -0.40863498074542953
158 -0.24065168521813518 -1.4621960639562361 0.9606070608384384 -1.418060989182951 -0.9825122569831817 -0.4040917550757087
159 -0.24272084582797088 -1.4616468461506111 0.9621898143150998 -1.420694963199619 -0.9762637035211091 -0.39959649337468206
160 -0.24479570427160713 -1.4610961742377049 0.9638021743098316 -1.4233629965671835 -0.9699940731318425 -0.39514945798946793
161 -0.24687617408493054 -1.4605440728746395 0.9654433394559709 -1.4260654311336505 -0.9637030245226318 -0.39075091401790374
162 -0.24732664986216366 -1.4606983063168284 0.9639568260661121 -1.4296767329517726 -0.9563072643312137 -0.38640113125468245
163 -0.24785220134590047 -1.4607922227535275 0.9635203639385677 -1.433198486742618 -0.949129085717046 -0.3820882619865791
164 -0.24843721426613177 -1.4608423493270069 0.9638621486098126 -1.4366645466696109 -0.9421176001119461 -0.37781928424258865
165 -0.24906969312870933 -1.4608609591142458 0.9647813181425385 -1.440100293919946 -0.9352346673971002 -0.37359896433274314
166 -0.24974050245875262 -1.4608571385815041 0.9661298109742905 -1.4435245733448403 -0.9284518854637113 -0.36943059221224683
167 -0.25044271663080936 -1.4608376022997842 0.9677986829917828 -1.4469512664709399 -0.9217482099559193 -0.3653164543693171
168 -0.251171093093536 -1.460807306304607 0.9697078777363553 -1.4503905263731731 -0.9151081162555638 -0.36125814421366303
169 -0.2519216589481504 -1.460769906233954 0.971798621136499 -1.4538497266476091 -0.9085202007649898 -0.35725676989795363
170 -0.25269139277392927 -1.460728097898033 0.9740277888958759 -1.457334180477474 -0.9019761265634422 -0.3533130959790538
171 -0.2534779828481612 -1.4606838696760607 0.9763637462718463 -1.460847680224267 -0.8954698337895423 -0.34942764145891503
172 -0.2542796449968361 -1.4606386891687078 0.9787832817977244 -1.4643928995315476 -0.8889969510176944 -0.3456007484725772
173 -0.2550949862034545 -1.4605936410069553 0.9812693511554518 -1.467971691427632 -0.8825543579850852 -0.34183263086634774
174 -0.2559229029361772 -1.4605495284618617 0.9838094195846214 -1.4715853084468107 -0.8761398616320843 -0.33812340879023983
175 -0.25676250561200253 -1.4605069482744415 0.9863942456433658 -1.4752345646490006 -0.8697519566214836 -0.3344731334459292
176 -0.2576130626275481 -1.4604663457024905 0.9890169898933326 -1.4789199545538971 -0.863389648636795 -0.33088180484031915
177 -0.25847395897663794 -1.4604280549713926 0.9916725624565133 -1.4826417402406507 -0.8570523242136655 -0.32734938453473994
178 -0.2593446657073587 -1.4603923289682879 0.9943571459551201 -1.486400014993593 -0.8507396549883415 -0.323875804795219
179 -0.26022471741337005 -1.4603593610177088 0.997067847064414 -1.490194749708838 -0.8444515273540235 -0.320460975145047
180 -0.26111369566778575 -1.4603293008341574 0.9998024422716992 -1.4940258266547686 -0.8381879908422014 -0.3171047870374769
181 -0.2620112168447919 -1.4603022661970326 1.0025591925620396 -1.4978930639715442 -0.8319492202815618 -0.3138071171655552
182 -0.2614541182361205 -1.4609306611103106 1.0025202463820724 -1.5025157324535936 -0.8247930197600336 -0.3105678297825943
183 -0.26100512414854626 -1.461483773702096 1.0035046534341867 -1.5070396233616192 -0.8179236615584226 -0.30738106905889595
184 -0.2606384756012196 -1.4619844739472776 1.0052116627662893 -1.5115035657979445 -0.8112752138571596 -0.30425142893645213
185 -0.26033522880699694 -1.462449055642131 1.0074279860453643 -1.515935283225402 -0.8048006184777321 -0.3011816518276531
186 -0.2600815983919688 -1.4628890668550976 1.010002913310163 -1.5203542889048525 -0.7984665292766313 -0.29817330306251727
187 -0.2598676042345948 -1.4633126641668566 1.0128302060362204 -1.5247741366582928 -0.7922494486606239 -0.29522718178809804
188 -0.2596860285525488 -1.4637255953285817 1.0158350826450404 -1.5292041072293212 -0.7861328997555986 -0.29234357837423297
189 -0.2595316379439808 -1.46413190427555 1.0189649375064265 -1.5336504437495027 -0.780105384685157 -0.28952243977787034
190 -0.25940061454307867 -1.46453443339337 1.0221827576230904 -1.5381172438439081 -0.7741589233952232 -0.2867634780473998
191 -0.2592901454329113 -1.4649351796592842 1.0254624708189009 -1.54260709749484 -0.7682880142440163 -0.28406624272202957
192 -0.25919812889139054 -1.4653355463120243 1.0287856684252856 -1.5471215399441278 -0.7624888978157981 -0.2814301697606907
193 -0.25912296554237235 -1.465736520226233 1.03213930184202 -1.5516613716022343 -0.7567590371968612 -0.27885461492367275
194 -0.25906341056271665 -1.466138796650924 1.0355140668540976 -1.5562268831053732 -0.75109675199697 -0.27633887670668467
195 -0.2590184694722977 -1.4665428667649185 1.0389032723743954 -1.5608180131201757 -0.7455009611543857 -0.2738822121804123
196 -0.25898732486691417 -1.4669490790275106 1.0423020496471986 -1.565434458675723 -0.7399710024784971 -0.27148384797693365
197 -0.25896928502976857 -1.4673576820988041 1.0457068002755385 -1.57007575210194 -0.7345065061882581 -0.26914298793963254
198 -0.2589637479620417 -1.4677688548211871 1.0491148114896391 -1.5747413145451297 -0.7291073063617975 -0.266858818471802
199 -0.25897017625094165 -1.4681827271324315 1.0525239883447002 -1.5794304930947287 -0.7237733789523304 -0.264630512294726
200 -0.258988079537398 -1.4685993946331553 1.055932667551213 -1.5841425864683498 -0.7185047983873795 -0.2624572311052162
201 -0.2590170023019843 -1.4690189287206306 1.0593394882163887 -1.5888768627255456 -0.7133017071456706 -0.2603381274712214
202 -0.25905651536553526 -1.4694413836293958 1.0627433022091428 -1.59363257143955 -0.7081642943829508 -0.25827234619990735
203 -0.25910620997980355 -1.4698668013169833 1.0661431120773828 -1.5984089520241747 -0.7030927808581937 -0.25625902534062667
204 -0.25916569372087656 -1.4702952148505968 1.0695380281005635 -1.6032052393994958 -0.6980874082406657 -0.25429729693541864
205 -0.25923458763520085 -1.4707266507524799 1.0729272386164432 -1.6080206678204785 -0.693148431459592 -0.2523862875952101
206 -0.2593125242543878 -1.4711611306230092 1.076309989546097 -1.6128544734414672 -0.6882761131650262 -0.2505251189560231
207 -0.2593991462114189 -1.471598672263571 1.0796855702862336 -1.6177058960142334 -0.6834707196528589 -0.24871290805296667
208 -0.2594941052722563 -1.4720392904535768 1.0830533040049566 -1.6225741799952058 -0.6787325178052867 -0.2469487676383413
209 -0.2595970616536528 -1.472482997488774 1.0864125409801864 -1.6274585752525972 -0.6740617727362833 -0.2452318064622586
210 -0.2597076835375256 -1.4729298035551435 1.0897626540388754 -1.632358337505174 -0.6694587459277513 -0.243561129528684
211 -0.2598256467197872 -1.4733797169898306 1.0931030354457598 -1.6372727285834987 -0.6649236937088173 -0.241935838336002
212 -0.25995063435065724 -1.4738327444646928 1.096433094791741 -1.6422010165761187 -0.660456865977042 -0.24035503110855516
213 -0.26008233673675285 -1.4742888911170349 1.0997522575713319 -1.6471424759035553 -0.656058505092379 -0.23881780302376546
214 -0.2602204511844595 -1.4747481606444897 1.1030599642349181 -1.6520963873493684 -0.6517288448968748 -0.2373232464381541
215 -0.2603646818704564 -1.4752105553757227 1.1063556695680694 -1.6570620380681973 -0.6474681098283863 -0.23587045111466748
216 -0.26051473972968114 -1.4756760763249914 1.1096388422960033 -1.6620387215841952 -0.6432765141071027 -0.23445850445306785
217 -0.26067034235406905 -1.4761447232360791 1.1129089648428856 -1.667025737788804 -0.6391542609808719 -0.23308649172468174
218 -0.2608312138975114 -1.4766164946193747 1.1161655331974014 -1.672022392943732 -0.6351015420202564 -0.23175349631245493
219 -0.2609970849839354 -1.477091387784682 1.1194080568509754 -1.6770279996928548 -0.6311185364575862 -0.23045859995700607
220 -0.2611676926164193 -1.4775693988715077 1.1226360587853006 -1.6820418770852956 -0.6272054105665295 -0.22920088300917266
221 -0.26134278008595463 -1.4780505228780114 1.1258490754928834 -1.687063350610914 -0.6233623170801995 -0.2279794246893855
222 -0.26152209687895545 -1.4785347536894073 1.1290466570191655 -1.6920917522487289 -0.6195893946467949 -0.22679330335407916
223 -0.2617053985829513 -1.4790220841063353 1.1322283670181068 -1.6971264205283072 -0.6158867673223873 -0.2256415967692371
224 -0.2618924467901398 -1.479512505873531 1.1353937828154048 -1.7021667006038137 -0.6122545441008441 -0.22452338239107666
225 -0.26208300899864057 -1.4800060097089973 1.1385424954751067 -1.7072119443401714 -0.6086928184810723 -0.22343773765379596
226 -0.26227685851141097 -1.4805025853337848 1.1416741098664573 -1.7122615104106225 -0.6052016680718579 -0.22238374026422913
227 -0.26247377433286845 -1.4810022215024314 1.1447882447285926 -1.7173147644048634 -0.6017811542345765 -0.22136046850318986
228 -0.26267354106332536 -1.4815049060340628 1.1478845327312173 -1.7223710789468465 -0.5984313217639999 -0.22036700153321923
229 -0.2628759487913856 -1.482010625844125 1.1509626205297934 -1.7274298338212897 -0.5951521986073447 -0.2194024197123975
230 -0.2630807929844844 -1.4825193669767036 1.1540221688140382 -1.7324904161079038 -0.5919437956215896 -0.21846580491382617
231 -0.2632878743777758 -1.483031114637362 1.157062852348742 -1.7375522203223233 -0.5888061063689721 -0.21755624085033887
232 -0.26349699886158745 -1.4835458532264254 1.16008436000607 -1.742614648562723 -0.5857391069504415 -0.21667281340395506
233 -0.26370797736767615 -1.484063566372628 1.1630863947886467 -1.7476771106611033 -0.5827427558767077 -0.21581461095955135
234 -0.2639206257545217 -1.4845842369670377 1.1660686738428225 -1.7527390243382315 -0.5798169939763926 -0.21498072474219007
235 -0.2641347646919027 -1.4851078471971664 1.1690309284616147 -1.757799815361247 -0.5769617443406605 -0.214170249157513
236 -0.26435021954499904 -1.4856343785811787 1.171972904076898 -1.7628589177029532 -0.574176912303571 -0.21338228213458252
237 -0.26456682025826306 -1.4861638120021046 1.1748943602404898 -1.7679157737018474 -0.5714623854572847 -0.21261592547052954
238 -0.26478440123930114 -1.4866961277419661 1.1777950705938516 -1.7729698342219673 -0.5688180337011309 -0.2118702851763503
239 -0.2650028012429997 -1.4872313055157327 1.1806748228261856 -1.7780205588116638 -0.5662437093234483 -0.21114447182317977
240 -0.2652218632561259 -1.4877693245050139 1.1835334186207762 -1.783067415860447 -0.5637392471150079 -0.21043760088836164
241 -0.2654414343826239 -1.488310163391408 1.186370673589479 -1.7881098827530935 -0.5613044645127468 -0.20974879310062816
242 -0.26566136572981996 -1.4888538003894267 1.189186417195323 -1.793147446020239 -0.5589391617724597 -0.2090771747837038
243 -0.26588151229573875 -1.4894002132789173 1.1919804926632447 -1.7981796014847284 -0.5566431221690332 -0.20842187819764899
244 -0.2661017328577245 -1.48994937943691 1.1947527568790237 -1.8032058544030387 -0.5544161122227508 -0.20778204187726723
245 -0.26632188986254723 -1.4905012758688232 1.1975030802765456 -1.808225719601135 -0.5522578819501498 -0.2071568109669098
246 -0.26654184931816405 -1.491055879238959 1.2002313467135572 -1.8132387216041732 -0.5501681651378775 -0.20654533755102616
247 -0.2667614806872924 -1.491613165900235 1.2029374533361321 -1.8182443947595046 -0.5481466796379678 -0.20594678097982558
248 -0.2669806567829409 -1.4921731119230914 1.2056213104321019 -1.8232422833524948 -0.5461931276829435 -0.2053603081894356
249 -0.26719925366602854 -1.4927356931235312 1.2082828412737483 -1.8282319417147108 -0.5443071962191426 -0.2047850940159664
250 -0.26741715054521237 -1.4933008850902416 1.2109219819500876 -1.8332129343240853 -0.5424885572566703 -0.20422032150291544
251 -0.26763422967903056 -1.4938686632107632 1.2135386811891127 -1.8381848358967152 -0.5407368682343876 -0.20366518220137467
252 -0.26785037628045427 -1.4944390026966679 1.2161329001703844 -1.843147231469996 -0.5390517723983643 -0.2031188764625324
253 -0.2680654784239302 -1.4950118786077191 1.218704612328393 -1.8480997164768476 -0.537432899192255 -0.2025806137219934
254 -0.26827942695498375 -1.4955872658749874 1.2212538031471354 -1.8530418968108293 -0.5358798646580805 -0.20204961277547331
255 -0.2684921154024408 -1.4961651393229018 1.2237804699463626 -1.8579733888819863 -0.5343922718459433 -0.20152510204545843
256 -0.26870343989331397 -1.4967454736902244 1.2262846216599887 -1.862893819663317 -0.5329697112312434 -0.20100631983845552
257 -0.26891329907039085 -1.49732824364993 1.228766278607145 -1.8678028267277922 -0.5316117611380128 -0.20049251459249295
258 -0.2691215940125477 -1.497913423827993 1.231225472256384 -1.8727000582758917 -0.5303179881670356 -0.1999829451145696
259 -0.2693282281578059 -1.4985009888210714 1.23366224498355 -1.877585173153672 -0.5290879476274809 -0.1994768808077844
260 -0.26953310722913737 -1.4990909132130936 1.2360766498238254 -1.8824578408614059 -0.527921183970831 -0.19897360188791505
261 -0.2697361391630163 -1.4996831715907506 1.2384687502184755 -1.887317741552876 -0.5268172312259493 -0.19847239958925017
262 -0.26993723404070735 -1.5002777385579014 1.240838619756805 -1.8921645660254292 -0.5257756134341975 -0.19797257635951412
263 -0.2701363040222725 -1.5008745887489057 1.243186341913848 -1.8969980157009372 -0.5247958450835729 -0.19747344604375813
264 -0.2703332632832726 -1.5014736968408948 1.2455120097842936 -1.9018178025978276 -0.5238774315409024 -0.19697433405712508
265 -0.27052802795413117 -1.5020750375650007 1.2478157258131577 -1.9066236492943829 -0.523019869481198 -0.1964745775464275
266 -0.27072051606212555 -1.5026785857165608 1.250097601523691 -1.9114152888835192 -0.5222226473133394 -0.1959735255405098
267 -0.27091064747596216 -1.5032843161643217 1.2523577572430094 -1.9161924649192859 -0.5214852456013166 -0.19547053908939632
268 -0.2710983438528902 -1.5038922038586662 1.2545963218259168 -1.9209549313553416 -0.5208071374803291 -0.19496499139225448
269 -0.2712835285883023 -1.504502223838887 1.2568134323773847 -1.9257024524756756 -0.5201877890671022 -0.19445626791423112
270 -0.27146612676776827 -1.5051143512395386 1.2590092339741261 -1.9304348028178662 -0.5196266598638365 -0.19394376649224443
271 -0.27164606512144424 -1.505728561295893 1.261183879385698 -1.935151767089169 -0.5191232031552763 -0.19342689742983907
272 -0.27182327198079664 -1.5063448293485309 1.2633375287955435 -1.9398531400757495 -0.5186768663984282 -0.19290508358123457
273 -0.2719976772375784 -1.5069631308470997 1.2654703495223698 -1.9445387265453733 -0.5182870916045289 -0.19237776042471785
274 -0.2721692123049927 -1.507583441353272 1.2675825157422413 -1.9492083411438792 -0.5179533157129017 -0.19184437612555033
275 -0.27233781008097796 -1.5082057365429342 1.2696742082117467 -1.953861808285764 -0.5176749709564062 -0.19130439158857773
276 -0.2725034049135466 -1.508829992207643 1.2717456139925845 -1.9584989620392104 -0.5174514852182193 -0.19075728050074695
277 -0.27458448308619315 -1.5085480989461135 1.27783053249694 -1.9624154722463845 -0.5182063221966005 -0.19020252936374876
278 -0.2765031857811528 -1.5083886053268092 1.282349167905721 -1.9665278507377513 -0.5186835706739088 -0.18964251575558475
279 -0.2783060356940738 -1.5083140453839847 1.285812956020315 -1.9707680210071241 -0.5189840386209812 -0.1890738788235401
280 -0.2818809423392856 -1.50739561527712 1.2924635443613275 -1.9744176027027909 -0.5200664967342137 -0.18849421065656466
281 -0.285282971807882 -1.5066033235442207 1.2972169737927814 -1.9783097124615265 -0.5207844191508892 -0.1879047458460154
282 -0.28856037947293195 -1.5058981414696553 1.3006733570345776 -1.9823661144443048 -0.521254220421798 -0.18730144721212336
283 -0.29174590942466694 -1.5052528431709915 1.3032441104621737 -1.9865338723023829 -0.5215566205631044 -0.18668139015771257
284 -0.2948619203242787 -1.5046485037165047 1.305210870243783 -1.9907770592502796 -0.5217473326306517 -0.18604250081856838
285 -0.2979236853599061 -1.5040720191019414 1.3067660693650827 -1.9950712592381483 -0.5218646628951377 -0.1853833259815451
286 -0.3009416015454889 -1.5035143503871842 1.3080409315863768 -1.9993998725239126 -0.5219348674632289 -0.18470285237973993
287 -0.3039227021730308 -1.502969283946223 1.3091247736136813 -2.0037516138114997 -0.5219759002001837 -0.184000372983851
288 -0.3068717016460351 -1.5024325608541529 1.3100782853763304 -2.008118811456644 -0.5220000178260075 -0.18327539157109213
289 -0.3097917187581455 -1.5019012691825224 1.3109426424967758 -2.0124962495946837 -0.5220155804527404 -0.18252755619668404
290 -0.3126847769040204 -1.5013734221362027 1.3117457424883012 -2.0168803797601 -0.5220282903112753 -0.18175661356009454
291 -0.3155521493318419 -1.5008476665480661 1.3125064624886447 -2.021268784351531 -0.5220420408224461 -0.1809623780699028
292 -0.3183945969065503 -1.5003230822147426 1.3132375602218198 -2.0256598117912725 -0.5220594968578226 -0.18014471106247737
293 -0.3212125314741856 -1.4997990442091 1.313947646962551 -2.0300523286872667 -0.5220824903287423 -0.17930350694690197
294 -0.3240061278417023 -1.4992751286790544 1.3146425271894446 -2.0344455516681665 -0.5221122893207747 -0.17843868403150623
295 -0.3267754003370596 -1.4987510485819264 1.315326106872482 -2.0388389334214363 -0.5221497808668741 -0.17755017849300325
296 -0.3295202550003138 -1.4982266099742765 1.316001008459701 -2.0432320855670283 -0.522195594873101 -0.17663794044365536
297 -0.33224052504316964 -1.4977016823843592 1.3166689867683434 -2.047624726533403 -0.5222501880263353 -0.1757019313927334
298 -0.33493599485015707 -1.4971761788103284 1.317331209948313 -2.052016646380627 -0.5223139005412333 -0.1747421226308499
299 -0.337606416159865 -1.4966500422803262 1.3179884491556373 -2.0564076830928086 -0.5223869945085311 -0.17375849422275896
300 -0.34025151893540984 -1.4961232368708575 1.318641206564694 -2.06079770661945 -0.5224696798049169 -0.17275103439963435
301 -0.3428710186533589 -1.4955957417408245 1.319289801802671 -2.06518660814254 -0.5225621316110736 -0.1717197392122231
302 -0.3454646212013641 -1.495067547193177 1.319934430394714 -2.0695742928612177 -0.5226645022795582 -0.1706646123530337
303 -0.34621915809233095 -1.4955111275671955 1.31712017244352 -2.0745202222696286 -0.5219984532860661 -0.16958566508664133
304 -0.34713566671213936 -1.4958192279628093 1.3157692612926346 -2.0792660105606444 -0.5216743894618271 -0.16848779401704378
305 -0.34814623303908204 -1.4960439467313689 1.3153428474087654 -2.083880788312789 -0.5215778770739778 -0.16737249551570516
306 -0.3492078077791762 -1.4962180095154676 1.3155003629249864 -2.0884086332241356 -0.5216372289246767 -0.16624046779192403
307 -0.3502929941084072 -1.49636211185866 1.3160260222946705 -2.092877598934635 -0.5218072955804638 -0.1650920089515685
308 -0.3513843637691389 -1.4964893725319264 1.3167830253911355 -2.0973054916070892 -0.5220595626246577 -0.16392721139338584
309 -0.3524708597688845 -1.4966081082614713 1.3176846731780685 -2.1017035757918934 -0.5223759919542065 -0.16274606048712795
310 -0.3535454994279499 -1.4967235841537347 1.3186760603241203 -2.106078948990206 -0.5227451564317163 -0.16154848624218274
311 -0.3525655003104183 -1.4979233205698905 1.3159032145626457 -2.111048153441128 -0.5223201756866795 -0.16033439099585928
312 -0.351817751283612 -1.49894629413083 1.3148493203760183 -2.1157691473135163 -0.5223079709298923 -0.15911321180528543
313 -0.35121790980465484 -1.499858395870061 1.314868555658769 -2.1203267707890796 -0.522571866646978 -0.1578848221726769
314 -0.3507118751558108 -1.5007011247991275 1.3155541608059793 -2.1247750510254004 -0.5230266674714833 -0.1566487161398607
315 -0.3502652553760711 -1.5015005337324263 1.3166506578325488 -2.129148138653372 -0.5236190856170542 -0.15540429498525823
316 -0.34985630976123794 -1.5022729408918274 1.317997904798127 -2.1334675221123387 -0.5243156391747028 -0.15415096566147746
317 -0.34947133295214117 -1.5030285518257696 1.3194956676264369 -2.1377466858422394 -0.525095153166702 -0.152888170357862
318 -0.3491016894872694 -1.5037737423002862 1.3210812924885191 -2.141994078870108 -0.5259441071710803 -0.1516153918852377
319 -0.34874193016159843 -1.5045124916558126 1.3227156763650878 -2.1462149920908753 -0.5268537460218061 -0.15033215140479111
320 -0.34838860376809144 -1.5052472807448967 1.324374467018309 -2.150412740051927 -0.5278182838817935 -0.14903800440393206
321 -0.34803951059968646 -1.5059796537444081 1.3260425485003766 -2.1545894029113244 -0.5288337871509154 -0.14773253685763368
322 -0.3476932346220533 -1.5067105694268716 1.3277105873138706 -2.158746291503518 -0.5298974792422803 -0.146415362074575
323 -0.3473488506998263 -1.5074406207182636 1.3293728697355753 -2.1628842385449754 -0.5310073077308832 -0.14508611823979933
324 -0.3470057415132021 -1.5081701719111693 1.3310259477397854 -2.167003780839868 -0.5321616747742777 -0.1437444665284864
325 -0.3466634831080959 -1.508899444414529 1.3326677911864038 -2.1711052732089247 -0.5333592691809995 -0.14239008965036287
326 -0.3463217733555909 -1.5096285703441041 1.3342972569528748 -2.175188959671111 -0.5345989617828665 -0.14102269070597828
327 -0.3459803872267392 -1.510357626016996 1.3359137564866503 -2.1792550178692776 -0.5358797402415421 -0.13964199226414664
328 -0.34563914882216473 -1.5110866528877835 1.3375170475837144 -2.1833035867516397 -0.537200668424755 -0.13824773559460252
329 -0.34529791387023334 -1.5118156706359733 1.3391071039479292 -2.1873347837760195 -0.538560861092703 -0.13683968000920335
330 -0.3449565587666818 -1.512544685347684 1.3406840334552292 -2.191348715559333 -0.5399594681254104 -0.13541760227919777
331 -0.3446149737025134 -1.5132736946306606 1.342248026918922 -2.195345484427367 -0.5413956646958067 -0.13398129610620016
332 -0.3442730583476407 -1.514002690812038 1.343799325958197 -2.1993251924014876 -0.5428686451477595 -0.1325305716315963
333 -0.3439307191328143 -1.5147316629373095 1.345338202832684 -2.2032879435841193 -0.5443776191823492 -0.1310652549740027
334 -0.34358786753157317 -1.5154605980196334 1.3468649477735455 -2.207233845545054 -0.5459218094817342 -0.12958518778775746
335 -0.3432444189683277 -1.5161894818202761 1.3483798610119562 -2.2111630100854374 -0.5475004502278725 -0.12809022683770424
336 -0.34290029211886136 -1.5169182993357724 1.3498832477518283 -2.215075553615299 -0.5491127861778026 -0.1265802435870768
337 -0.3425554084571202 -1.5176470351015985 1.3513754149887116 -2.2189715972922373 -0.5507580720846323 -0.12505512379633155
338 -0.34220969195688455 -1.518375673381034 1.3528566694870667 -2.222851267013599 -0.552435572332856 -0.12351476713147354
339 -0.3418630688911227 -1.5191041982821698 1.3543273164850727 -2.226714693319896 -0.5541445607061627 -0.12195908678088789
340 -0.3415154676932025 -1.5198325938299386 1.3557876588570739 -2.230562011245532 -0.5558843202367938 -0.12038800907999758
341 -0.34116681885750444 -1.520560844009993 1.3572379965645816 -2.2343933601393533 -0.5576541431047611 -0.1188014731432746
342 -0.34081705486533614 -1.5212889327949615 1.3586786262898867 -2.238208883469034 -0.5594533305672456 -0.11719943050326655
343 -0.3404661101272766 -1.52201684415968 1.3601098411858885 -2.2420087286179977 -0.5612811929059722 -0.1155818447563896
344 -0.3401139209363505 -1.5227445620895375 1.3615319307005105 -2.245793046680235 -0.5631370493850221 -0.11394869121529722
345 -0.33976042542848006 -1.52347207058453 1.3629451804495905 -2.249561992256313 -0.565020228214434 -0.11229995656767114
346 -0.33940556354794854 -1.5241993536606577 1.3643498721218421 -2.253315723252549 -0.5669300665167609 -0.1106356385413065
347 -0.3390492770164137 -1.5249263953496903 1.3657462834055745 -2.25705440068452 -0.5688659102948593 -0.10895574557537774
348 -0.3386915093045167 -1.525653179697952 1.3671346879306525 -2.2607781884855656 -0.5708271143998864 -0.10726029649778286
349 -0.33833220560545324 -1.5263796907645393 1.3685153552215836 -2.2644872533206284 -0.5728130424989077 -0.10554932020846963
350 -0.3379713128100752 -1.527105912619232 1.369888550659091 -2.2681817644055746 -0.5748230670417814 -0.10382285536865173
351 -0.33760877948322077 -1.5278318293402662 1.3712545354484786 -2.271861893332021 -0.5768565692271426 -0.10208095009582563
352 -0.3372445558410552 -1.528557425012081 1.37261356659368 -2.2755278138976176 -0.5789129389674115 -0.10032366166450109
353 -0.33687859372925827 -1.5292826837231066 1.3739658968762383 -2.279179701941692 -0.5809915748528032 -0.09855105621255934
354 -0.33651084660193037 -1.5300075895636418 1.375311774838708 -2.282817735186131 -0.583091884114349 -0.09676320845315471
355 -0.3361412695011149 -1.5307321266238527 1.3766514447721057 -2.28644209308137 -0.5852132825859568 -0.0949602013920762
356 -0.33576981903685127 -1.5314562789919128 1.377985146707126 -2.2900529566573384 -0.5873551946655483 -0.09314212605048691
357 -0.3353964533676854 -1.5321800307522973 1.3793131164089052 -2.2936505083792222 -0.5895170532753073 -0.09130908119296025
358 -0.33502113218157487 -1.5329033659842413 1.380635585375141 -2.2972349320078913 -0.5916982998210802 -0.08946117306073303
359 -0.33464381667713267 -1.5336262687603688 1.3819527808374088 -2.3008064124648504 -0.5938983841509599 -0.08759851511009713
360 -0.33426446954516015 -1.5343487231454922 1.383264925765526 -2.3043651357015693 -0.5961167645130862 -0.08572122775585218
361 -0.3338830549504243 -1.5350707131955872 1.3845722388748258 -2.307911288573057 -0.5983529075126888 -0.08382943811974404
362 -0.33349953851364045 -1.535792222956941 1.3858749346362123 -2.311445058715538 -0.6006062880683946 -0.08192327978381436
363 -0.3331138872936233 -1.5365132364654726 1.3871732232888738 -2.31496663442811 -0.6028763893678197 -0.0800028925485889
364 -0.33272606976957503 -1.537233737746224 1.388467310855531 -2.318476204558242 -0.6051627028224592 -0.07806842219603329
365 -0.33233605582348075 -1.5379537108130183 1.3897573991601053 -2.3219739583910064 -0.6074647280218859 -0.07612002025720688
366 -0.33194381672258527 -1.5386731396682818 1.3910436858476953 -2.3254600855419145 -0.6097819726872673 -0.07415784378454689
367 -0.33154932510192797 -1.5393920083030237 1.3923263644067454 -2.3289347758532437 -0.612113952624203 -0.07218205512871656
368 -0.33115255494691487 -1.540110300696974 1.3936056241933035 -2.332398219293752 -0.6144601916748872 -0.07019282171995302
369 -0.33075348157590917 -1.5408280008188684 1.3948816504572619 -2.3358506058616633 -0.6168202216695938 -0.0681903158538518
370 -0.3303520816228239 -1.5415450926268774 1.3961546243704746 -2.339292125490831 -0.6191935823774839 -0.06617471448152701
371 -0.32994833301970233 -1.542261560069177 1.397424723056652 -2.3427229679599755 -0.6215798214567294 -0.06414619900408738
372 -0.3295422149792733 -1.5429773870846477 1.3986921196229376 -2.3461433228049033 -0.6239784944039497 -0.062104955071370316
373 -0.3291337079774711 -1.5436925576037055 1.3999569831930656 -2.349553379233613 -0.6263891645029528 -0.06005117238487736
374 -0.3287227937359102 -1.5444070555492486 1.401219478942012 -2.352953326044208 -0.6288114027727737 -0.05798504450485622
375 -0.32830945520430654 -1.545120864837722 1.4024797681320422 -2.3563433515455214 -0.6312447879150032 -0.05590676866147573
376 -0.3278936765428405 -1.5458339693802872 1.4037380081500719 -2.3597236434803843 -0.6336889062603969 -0.053816545570041695
377 -0.32747544310445426 -1.5465463530840966 1.4049943525462518 -2.363094388951448 -0.6361433517147552 -0.05171457925020276
378 -0.32705474141708113 -1.5472579998536602 1.4062489510736942 -2.3664557743494945 -0.6386077257040678 -0.04960107684909687
379 -0.3266315591658033 -1.5479688935923024 1.407501949729259 -2.3698079852841585 -0.6410816371189099 -0.04747624846839001
380 -0.32620588517493593 -1.5486790182037014 1.4087534907953203 -2.3731512065169973 -0.6435647022580857 -0.045340306995160035
381 -0.3257777093900373 -1.5493883575935046 1.410003712882441 -2.3764856218968373 -0.6460565447715088 -0.04319346793657958
382 -0.32534702285984357 -1.5500968956710144 1.4112527509728712 -2.379811414297338 -0.648556795602311 -0.041035949258352994
383 -0.3249138177181304 -1.5508046163509372 1.412500736464813 -2.383128765556711 -0.6510650929281775 -0.038867971226863245
384 -0.32447808716550175 -1.5515115035551912 1.4137477972173673 -2.3864378564195374 -0.6535810821018961 -0.03668975625498543
385 -0.32403982545110854 -1.5522175412147663 1.414994057596107 -2.389738866480627 -0.6561044155911215 -0.034501528751524596
386 -0.32359902785429934 -1.5529227132716303 1.416239638519205 -2.393031974130866 -0.6586347529173471 -0.03230351497423614
387 -0.3231556906662074 -1.5536270036806774 1.4174846575040565 -2.396317356505002 -0.6611717605940837 -0.030095942886387773
388 -0.322709811171277 -1.554330396411709 1.4187292287143352 -2.399595189431318 -0.6637151120642426 -0.027879042016822543
389 -0.32226138762873363 -1.5550328754514489 1.4199734630074226 -2.402865647383145 -0.6662644876367241 -0.025653043323483126
390 -0.3218104192540038 -1.5557344248055816 1.4212174679821585 -2.4061289034321747 -0.6688195744222111 -0.023418179060357862
391 -0.3213569062000881 -1.5564350285008106 1.4224613480268553 -2.4093851292035184 -0.6713800662681716 -0.02117468264780952
392 -0.32090084953889547 -1.5571346705869349 1.4237052043675231 -2.4126344948324823 -0.673945663693075 -0.0189227885462481
393 -0.3204422512425419 -1.5578333351389335 1.42494913511626 -2.4158771689230067 -0.6765160738198249 -0.016662732133109218
394 -0.3199811141646227 -1.5585310062590592 1.4261932353197548 -2.419113318507741 -0.679091010308419 -0.014394749583099869
395 -0.31951744202146337 -1.5592276680789336 1.4274375970078592 -2.422343109009708 -0.6816701932878414 -0.012119077751673573
396 -0.31905123937335617 -1.5599233047616423 1.4286823092421834 -2.425566704205532 -0.6842533492871994 -0.0098359540616969
397 -0.31858251160579015 -1.5606179005038232 1.429927458164675 -2.4287842661901813 -0.6868402111661156 -0.007545616393269573
398 -0.31811126491068187 -1.5613114395377474 1.431173127046138 -2.4319959553432073 -0.689430518044388 -0.00524830297666027
399 -0.3176375062676143 -1.5620039061333868 1.432419396334657 -2.435201930296437 -0.6920240152309333 -0.00294425228832025
400 -0.31716124342509133 -1.5626952846004671 1.4336663437038846 -2.438402347903091 -0.6946204541520279 -0.000633702949936889
401 -0.31668248488181694 -1.5633855592905022 1.4349140441011636 -2.4415973632082975 -0.697219592278866 0.001683106369510949
402 -0.3162012398680058 -1.5640747145988059 1.4361625697954454 -2.4447871294209675 -0.699821193054451 0.00400593704873386
403 -0.3157175183267344 -1.564762734966481 1.4374119904249747 -2.4479717978870155 -0.7024250258198426 0.006334550606187525
404 -0.31523133089534067 -1.5654496048823796 1.4386623730447106 -2.4511515180638783 -0.7050308657397791 0.00866870878924155
405 -0.3147426888868803 -1.5661353088850358 1.4399137821734556 -2.4543264374963254 -0.7076384937276988 0.011008173660500305
406 -0.3142516042716487 -1.5668198315645663 1.4411662798406655 -2.4574967017935156 -0.7102476963701829 0.013352707681314744
407 -0.31375808965877616 -1.5675031575645355 1.4424199256329144 -2.4606624546072893 -0.7128582658508467 0.015702073792524474
408 -0.31326215827790543 -1.568185271583788 1.4436747767399922 -2.463823837611664 -0.7154699998737034 0.018056035492469633
409 -0.31276382396095975 -1.5688661583782408 1.4449308880006078 -2.4669809904835085 -0.718082701586029 0.02041435691231238
410 -0.3122631011240102 -1.5695458027626379 1.4461883119476844 -2.4701340508843703 -0.7206961795007557 0.022776802888708154
411 -0.31176000474925 -1.5702241896122633 1.4474470988532182 -2.47328315444344 -0.7233102474184225 0.025143139033867095
412 -0.31125455036708505 -1.5709013038646116 1.4487072967726904 -2.476428434741621 -0.7259247243487142 0.02751313180304637
413 -0.3107467540383481 -1.5715771305210164 1.4499689515890066 -2.479570023296685 -0.7285394344316181 0.02988654855951445
414 -0.31023663233664533 -1.5722516546482324 1.451232107055956 -2.482708049549492 -0.7311542068582302 0.03226315763702871
415 -0.30972420233084325 -1.5729248613799727 1.4524968048411677 -2.4858426408512524 -0.7337688757912444 0.034642728399867914
416 -0.3092094815677038 -1.5735967359184 1.4537630845685583 -2.488973922451807 -0.7363832802851553 0.03702503130046161
417 -0.30869248805467603 -1.574267263535569 1.4550309838602502 -2.492102017488906 -0.7389972642062086 0.03940983793465859
418 -0.30817324024285114 -1.5749364295748223 1.4563005383779535 -2.4952270469784645 -0.7416106761521338 0.041796921094677
419 -0.3076517570100893 -1.5756042194521365 1.457571781863801 -2.4983491298057765 -0.7442233693716919 0.04418605481977871
420 -0.30712805764432544 -1.5762706186574194 1.458844746180626 -2.50146838271766 -0.7468352016840731 0.04657701444471107
421 -0.30660216182706107 -1.5769356127557579 1.4601194613516724 -2.50458492031552 -0.7494460353981797 0.04896957664595923
422 -0.3060740896170493 -1.5775991873886164 1.4613959555997316 -2.5076988550493096 -0.7520557372318273 0.05136351948585241
423 -0.30554386143417983 -1.5782613282749844 1.4626742553857 -2.510810297212356 -0.7546641782309025 0.05375862245456782
424 -0.3050114980435711 -1.5789220212124753 1.4639543854465489 -2.513919354937052 -0.7572712336885085 0.05615466651007596
425 -0.3044770205398749 -1.5795812520783727 1.465236368832702 -2.517026134191378 -0.7598767830641361 0.0585514341160712
426 -0.30394045033180095 -1.5802390068306305 1.466520226944819 -2.5201307387762375 -0.7624807099028946 0.06094870927793173
427 -0.30340180912686654 -1.5808952715088185 1.4678059795699778 -2.5232332703235945 -0.7650829017548372 0.063346277576753
428 -0.30286111891637707 -1.5815500322350233 1.4690936449172547 -2.526333828295383 -0.7676832500944148 0.06574392620149885
429 -0.3023184019606436 -1.5822032752146953 1.4703832396527 -2.5294325099831796 -0.7702816502400956 0.06814144397931451
430 -0.3017736807744416 -1.5828549867374495 1.471674778933707 -2.5325294105086105 -0.7728780012741809 0.07053862140404582
431 -0.3012269781127171 -1.5835051531778175 1.4729682764427765 -2.5356246228244834 -0.7754722059628539 0.07293525066300877
432 -0.3006783169565435 -1.5841537609959504 1.474263744420671 -2.5387182377166204 -0.7780641706764936 0.07533112566205366
433 -0.300127720499335 -1.5848007967382747 1.4755611936989632 -2.5418103438063744 -0.7806538053102868 0.07772604204896796
434 -0.29957521213331934 -1.5854462470381019 1.4768606337319796 -2.5449010275538098 -0.7832410232051722 0.08011979723526175
435 -0.2990208154362748 -1.586090098616191 1.47816207262814 -2.547990373261535 -0.7858257410691459 0.08251219041637974
436 -0.2984645541585345 -1.5867323382812668 1.4794655171806914 -2.5510784630791603 -0.7884078788989636 0.08490302259038358
437 -0.2979064522102614 -1.5873729529304914 1.4807709728978475 -2.55416537700837 -0.7909873599022658 0.08729209657514785
438 -0.297346533648997 -1.5880119295498945 1.4820784440323267 -2.557251192908589 -0.7935641104201608 0.08967921702411306
439 -0.2967848226674861 -1.5886492552147586 1.483387933610298 -2.5603359865032265 -0.7961380598502922 0.09206419044063881
440 -0.2962213435817812 -1.5892849170899632 1.4846994434597383 -2.5634198313864784 -0.7987091405704193 0.0944468251909996
441 -0.2956561208196267 -1.5899189024302878 1.4860129742382036 -2.5665027990306744 -0.8012772878625422 0.09682693151606608
442 -0.29508917890912684 -1.5905511985806744 1.4873285254600186 -2.56958495879415 -0.8038424398375941 0.09920432154171352
443 -0.2945205424676973 -1.591181792976451 1.4886460955228926 -2.5726663779296284 -0.8064045373607313 0.10157880928799945
444 -0.29395023619130256 -1.5918106731435169 1.4899656817339606 -2.5757471215930954 -0.8089635239772442 0.10395021067715181
445 -0.29337828484397943 -1.5924378266984929 1.4912872803352655 -2.5788272528531517 -0.8115193458391158 0.1063183435404084
446 -0.29280471324764823 -1.5930632413488326 1.492610886528676 -2.5819068327008265 -0.8140719516322508 0.10868302762374835
447 -0.2922295462722111 -1.5936869048929014 1.493936494500254 -2.5849859200598333 -0.8166212925043991 0.11104408459255555
448 -0.29165280882593797 -1.594308805220021 1.4952640974440776 -2.5880645717972586 -0.8191673219937962 0.11340133803525351
449 -0.29107452584614024 -1.5949289303104819 1.4965936875855206 -2.5911428427346634 -0.8217099959585408 0.11575461346595091
450 -0.29049472229013107 -1.5955472682355256 1.4979252562040015 -2.594220785659584 -0.8242492725067319 0.11810373832613612
451 -0.2899134231264723 -1.596163807157295 1.4992587936552084 -2.5972984513374175 -0.8267851119273837 0.12044854198545889
452 -0.28933065332650654 -1.5967785353287585 1.5005942893928035 -2.6003758885236765 -0.8293174766221383 0.12278885574163642
453 -0.28874643785617365 -1.5973914410936054 1.5019317319896193 -2.6034531439765978 -0.8318463310377926 0.12512451281952072
454 -0.2881608016681095 -1.5980025128861162 1.5032711091583513 -2.6065302624700957 -0.8343716415996582 0.12745534836936356
455 -0.2875737696940257 -1.5986117392310069 1.5046124077717562 -2.609607286807041 -0.836893376645768 0.12978119946431435
456 -0.28698536683736875 -1.5992191087432515 1.5059556138823635 -2.6126842578328517 -0.8394115063619477 0.13210190509718617
457 -0.2863956179662555 -1.599824610127881 1.5073007127417093 -2.6157612144493894 -0.8419260027177635 0.13441730617652412
458 -0.285804547906683 -1.6004282321797634 1.5086476888190992 -2.6188381936291374 -0.8444368394033611 0.13672724552200965
459 -0.2852121814360107 -1.6010299637833612 1.5099965258199117 -2.6219152304296576 -0.8469439917672085 0.13903156785923393
460 -0.28461854327671043 -1.601629793912475 1.5113472067034452 -2.6249923580083103 -0.8494474367547525 0.14133011981387242
461 -0.28402365809038366 -1.6022277116299664 1.5126997137003255 -2.6280696076372188 -0.8519471528480027 0.14362274990529228
462 -0.28342755047204027 -1.6028237060874673 1.5140540283294732 -2.6311470087184805 -0.8544431200060493 0.14590930853962364
463 -0.2828302449446373 -1.6034177665250753 1.5154101314146469 -2.634224588799598 -0.8569353196065261 0.14818964800232462
464 -0.28223176595387295 -1.6040098822710358 1.5167680031005681 -2.6373023735891286 -0.8594237343880271 0.15046362245026998
465 -0.2816321378632325 -1.6046000427414115 1.518127622868638 -2.6403803869725357 -0.8619083483934813 0.15273108790339168
466 -0.2810313849492825 -1.605188237439744 1.5194889695522524 -2.643458651028239 -0.8643891469144959 0.15499190223589981
467 -0.28042953139720833 -1.6057744559567035 1.520852021351726 -2.6465371860438425 -0.8668661164366706 0.1572459251671108
468 -0.2798266012965922 -1.6063586879697351 1.5222167558488362 -2.649616010532538 -0.8693392445858905 0.15949301825190976
469 -0.2792226186374257 -1.6069409232426934 1.5235831500209935 -2.652695141249671 -0.8718085200755993 0.16173304487087242
470 -0.27861760730635343 -1.6075211516254766 1.524951180255046 -2.655774593209463 -0.8742739326550585 0.16396587022007234
471 -0.27801159108314316 -1.6080993630536535 1.5263208223607312 -2.6588543797018724 -0.8767354730585942 0.1661913613005969
472 -0.277404593637377 -1.608675547548091 1.5276920515837804 -2.6619345123095974 -0.879193132955833 0.16840938690779647
473 -0.27679663852535985 -1.6092496952145758 1.5290648426186875 -2.6650150009251994 -0.8816469049029303 0.17061981762028927
474 -0.27618774918723876 -1.6098217962434416 1.5304391696211472 -2.6680958537683512 -0.8840967822947899 0.1728225257887439
475 -0.27557794894433024 -1.6103918409091913 1.5318150062201776 -2.671177077403188 -0.8865427593182756 0.17501738552446136
476 -0.2749672609966481 -1.6109598195701262 1.5331923255299302 -2.6742586767557674 -0.8889848309064144 0.1772042726877769
477 -0.27435570842062856 -1.6115257226679747 1.534571100161198 -2.677340655131619 -0.8914229926935894 0.17938306487630193
478 -0.2737433141670464 -1.6120895407275277 1.5359513022326337 -2.6804230142333836 -0.8938572409717217 0.18155364141302516
479 -0.2731301010591172 -1.6126512643562796 1.537332903381681 -2.6835057541785337 -0.8962875726474384 0.18371588333429126
480 -0.27251609179078046 -1.6132108842440729 1.538715874775232 -2.6865888735171657 -0.898713985200223 0.18586967337767538
481 -0.2719013089251578 -1.6137683911627543 1.54010018712002 -2.689672369249858 -0.9011364766415471 0.1880148959697703
482 -0.2712857748931815 -1.6143237759658362 1.5414858106727503 -2.692756236845594 -0.9035550454749759 0.19015143721390287
483 -0.2706695119923873 -1.6148770295881698 1.542872715249984 -2.695840470259735 -0.9059696906572474 0.19227918487779525
484 -0.2700525423858665 -1.6154281430456265 1.54426087023778 -2.698925061952047 -0.9083804115603163 0.19439802838118653
485 -0.2694348881013716 -1.6159771074347937 1.5456502446011038 -2.702010002904765 -0.9107872079343604 0.19650785878342877
486 -0.26881657103057033 -1.6165239139326795 1.5470408068930115 -2.7050952826407015 -0.9131900798717416 0.1986085687710713
487 -0.2681976129284423 -1.617068553796434 1.548432525263617 -2.708180889241384 -0.9155890277719174 0.20070005264544677
488 -0.26757803541281305 -1.6176110183630819 1.5498253674688514 -2.7112668093652217 -0.917984052307294 0.20278220631027102
489 -0.26695785996402 -1.6181512990492712 1.55121930087902 -2.714353028265697 -0.9203751543900157 0.204854927259269
490 -0.26633710792470466 -1.6186893873510375 1.5526142924871673 -2.717439529809575 -0.9227623351396839 0.2069181145638378
491 -0.2657158004997262 -1.6192252748435843 1.5540103089172557 -2.7205262964951293 -0.925145595851995 0.2089716688607578
492 -0.2650939587561906 -1.6197589531810799 1.5554073164321678 -2.7236133094703767 -0.9275249379682937 0.21101549233996156
493 -0.26447160362359 -1.6202904140964738 1.5568052809415371 -2.7267005485513205 -0.9299003630460297 0.2130494887323704
494 -0.26384875589404766 -1.6208196494013294 1.5582041680094154 -2.729787992240199 -0.9322718727301111 0.21507356329780744
495 -0.26322543622266215 -1.621346650985677 1.5596039428617852 -2.7328756177437303 -0.9346394687251456 0.21708762281299548
496 -0.26260166512794675 -1.6218714108178862 1.561004570393923 -2.7359634009913583 -0.9370031527685598 0.21909157555964762
497 -0.26197746299235786 -1.6223939209445568 1.5624060151776193 -2.7390513166534896 -0.9393629266045892 0.22108533131265792
498 -0.26135285006290854 -1.622914173490433 1.5638082414682657 -2.7421393381597223 -0.941718791959126 0.2230688013283991
499 -0.26072784645186087 -1.623432160658337 1.565211213211812 -2.745227437717064 -0.9440707505154186 0.22504189833313315
500 -0.2601024721374933 -1.623947874729124 1.5666148940516011 -2.7483155863281317 -0.9464188038906112 0.22700453651154115
501 -0.25947674696493717 -1.6244613080616594 1.568019247335091 -2.751403753809341 -0.9487629536131129 0.22895663149537737
502 -0.25885069064707855 -1.6249724530928193 1.5694242361204624 -2.754491908809069 -0.951103201100788 0.2308981003522525
503 -0.25822432276552 -1.6254813023375114 1.5708298231831297 -2.757580018825801 -0.9534395476399551 0.2328288615745506
504 -0.25759766277159757 -1.6259878483887207 1.5722359710221492 -2.760668050226251 -0.9557719943651859 0.23474883506848354
505 -0.2569707299874493 -1.626492083917577 1.573642641866539 -2.763755968263458 -0.9581005422398927 0.23665794214328667
506 -0.25634354360712963 -1.6269940016734472 1.5750497976815119 -2.7668437370948524 -0.9604251920376934 0.23855610550055859
507 -0.25571612269776617 -1.6274935944840494 1.5764574001746288 -2.769931319800296 -0.9627459443245442 0.2404432492237481
508 -0.25508848620075447 -1.6279908552555922 1.577865410801878 -2.773018678400091 -0.9650627994416277 0.24231929876779026
509 -0.25446065293298603 -1.6284857769729357 1.5792737907736831 -2.776105773872952 -0.9673757574889864 0.24418418094889394
510 -0.25383264158810603 -1.6289783526997796 1.580682501060849 -2.7791925661739514 -0.9696848183098913 0.24603782393448198
511 -0.2532044707377968 -1.629468575578872 1.5820915024004454 -2.782279014252421 -0.9719899814759317 0.24788015723328566
512 -0.25257615883308254 -1.6299564388322434 1.5835007553016387 -2.785365076069825 -0.974291246272818 0.2497111116855941
513 -0.2519477242056525 -1.6304419357614646 1.5849102200514724 -2.7884507086175905 -0.9765886116868849 0.25153061945365907
514 -0.25131918506919765 -1.6309250597479288 1.5863198567206016 -2.791535867934896 -0.9788820763922833 0.253338614012256
515 -0.2506905595207588 -1.6314058042531558 1.5877296251689874 -2.794620509126427 -0.9811716387388508 0.2551350301394002
516 -0.25006186554208115 -1.631884162819122 1.5891394850515543 -2.7977045863800822 -0.983457296740649 0.25691980390721897
517 -0.2494331210009729 -1.6323601290686112 1.5905493958238133 -2.800788052984643 -0.9857390480651551 0.25869287267297836
518 -0.24880434365266477 -1.6328336967055903 1.5919593167474575 -2.803870861347396 -0.9880168900230992 0.2604541750702637
519 -0.2497326181071685 -1.6326140721384403 1.5966998385320452 -2.806400643896719 -0.990831478906807 0.26220365100031306
520 -0.2504979199816322 -1.6325031243693433 1.5998756915190158 -2.809152798724075 -0.993489483016777 0.26399111826523297
521 -0.2511561410185443 -1.6324583946203548 1.602126806208175 -2.8120387182260145 -0.9960430522293051 0.26579942646786375
522 -0.2517404320431575 -1.6324544157932541 1.6038335730268511 -2.8150058667571014 -0.9985239973659265 0.26761824968586984
523 -0.25227062100185094 -1.6324759485884646 1.60522185838128 -2.818023078646903 -1.0009516374048455 0.2694412862691783
524 -0.25275868340791646 -1.6325138757292255 1.6064256459254556 -2.8210718554946874 -1.003337735575413 0.27126462063451956
525 -0.2532119491420723 -1.6325627331142396 1.6075243270486865 -2.824141210316888 -1.0056895240656933 0.27308575846078925
526 -0.25363499342655665 -1.632619232467866 1.6085648780910695 -2.8272246102325442 -1.008011531401553 0.2749030554090447
527 -0.25403075561494104 -1.6326813798500248 1.6095750400942999 -2.830318162674746 -1.0103066773932414 0.27671537766076454
528 -0.2544012022265701 -1.6327479507027018 1.6105711465312762 -2.833419539238763 -1.0125769258796469 0.2785218997882568
529 -0.25474772012678804 -1.6328181776591597 1.6115627696121992 -2.8365273372927353 -1.0148236725385176 0.2803219842624728
530 -0.2550713496681306 -1.6328915650884617 1.6125554766262185 -2.839640701404854 -1.0170479747157366 0.2821151095799017
531 -0.25537292285870367 -1.6329677790309973 1.6135524642029229 -2.8427590989452427 -1.0191979251567862 0.28388784413877344
532 -0.2556536499520748 -1.6330464292350708 1.6145569141814236 -2.8458818715647114 -1.0213254486743604 0.2856519703236476
533 -0.2559141152536723 -1.633127375564533 1.6155692004493134 -2.8490088617304337 -1.0234313607679113 0.28740718565335166
534 -0.25615487167635603 -1.6332104971453567 1.6165894427251066 -2.852139944671712 -1.0255164357272912 0.2891532020701714
535 -0.2563764495519439 -1.6332956852465568 1.6176176123123176 -2.8552750139057856 -1.0275814158506322 0.2908897431080245
536 -0.2565793617981289 -1.633382839075789 1.6186535946267884 -2.8584139727014053 -1.029627016931959 0.29261654216035443
537 -0.25676410693915913 -1.633471863298154 1.6196972261476603 -2.861556729055719 -1.0316539315567437 0.2943333414007306
538 -0.25693117086753964 -1.6335626665724798 1.6207483162408955 -2.8647031927491673 -1.0336628311128677 0.2960398910902138
539 -0.2570810278715305 -1.6336551606873826 1.6218066600381054 -2.867853273629077 -1.0356543670517773 0.29773594911347134
540 -0.2572141412383488 -1.633749260050061 1.6228720460275 -2.8710068806196136 -1.0376291717145656 0.299421280649901
541 -0.2573309636156982 -1.6338448813818596 1.6239442605189425 -2.8741639211610837 -1.0395878589078849 0.3010956579242693
542 -0.25743193723890967 -1.6339419435344427 1.6250230902608906 -2.877324300903043 -1.0415310243380176 0.30275886000410934
543 -0.2575174940864141 -1.6340403673758055 1.626108323964208 -2.880487923547482 -1.0434592459663417 0.30441067262462196
544 -0.25758805599993734 -1.6341400757162632 1.6271997531788613 -2.88365469078079 -1.0453730843228644 0.3060508880298333
545 -0.25974542552958035 -1.6332906459685428 1.632702019438392 -2.8861074243778977 -1.0480116824953272 0.30767930482349776
546 -0.26169951538263503 -1.6325671620720692 1.6361770670186415 -2.888848515312664 -1.050432647199017 0.3093652408402135
547 -0.2635194129 -1.6319190875172696 1.6384469476194237 -2.8917657316178307 -1.0527025292297931 0.31108509910770077
548 -0.2652466187671424 -1.6313156883269946 1.64000324778825 -2.894792247764707 -1.0548623904434162 0.31282464148438666
549 -0.26690605148237095 -1.6307384573030206 1.6411388264883486 -2.8978883570033953 -1.0569374558234277 0.3145751863264111
550 -0.26851268327847816 -1.6301763260384166 1.642027693769462 -2.9010304986767155 -1.0589432988389298 0.3163313550221464
551 -0.27007554246871485 -1.6296227079191843 1.642773052762581 -2.9042047026826614 -1.0608896795386173 0.3180897356686958
552 -0.27160011770463643 -1.6290736995199302 1.6434360290269807 -2.907402685690459 -1.062782880639604 0.3198480891626716
553 -0.2730897960935231 -1.6285269972868106 1.6440527846712292 -2.9106195319381047 -1.06462711279499 0.3216048768607169
554 -0.2745467204998832 -1.6279812490683727 1.6446446876445902 -2.913852317642645 -1.0664253538209971 0.32335897934174035
555 -0.27597229931496725 -1.627435667436244 1.6452243446164074 -2.917099295981216 -1.0681798475798214 0.32510952892375505
556 -0.2773675089762691 -1.626889799661631 1.6457991762314874 -2.920359414556154 -1.0698923996135365 0.32685580995612434
557 -0.2787330731729376 -1.6263433910876393 1.6463735344723163 -2.9236320298531995 -1.0715645519053658 0.32859719950757676
558 -0.2828873624656458 -1.6256824472966802 1.6472173798525893 -2.926808168025738 -1.075227388267855 0.330333132130374
559 -0.2868508448055753 -1.6249864095023743 1.6480904875890692 -2.929992063822617 -1.0786376425600055 0.33209326764590996
560 -0.290528622384566 -1.6243070765207193 1.648758173919382 -2.9332207861830497 -1.0817704953707246 0.3338757976421253
561 -0.29394477691482906 -1.6236397056499194 1.6493080919238456 -2.9364819601825953 -1.0846520981855987 0.33567499858754674
562 -0.2971200806483147 -1.6229812804173276 1.6497940242173192 -2.939767826980834 -1.0873046851093808 0.3374863706627387
563 -0.30007284799969947 -1.6223298633710261 1.6502487497421854 -2.943073517758894 -1.0897476518058784 0.33930625187973973
564 -0.3028194950026737 -1.6216841890015294 1.6506920554719182 -2.9463959762799763 -1.0919982544943483 0.34113157075612066
565 -0.3053749125183684 -1.6210434091134764 1.6511357137948994 -2.9497332858665803 -1.094072068024441 0.34295968634989904
566 -0.30775272097036815 -1.6204069342797394 1.6515865691557134 -2.9530842482494375 -1.0959832920008847 0.3447882833777682
567 -0.30996544962794265 -1.6197743355438576 1.6520484490082787 -2.956448119254808 -1.0977449612002357 0.34661530210708275
568 -0.31202466760020453 -1.6191452837543665 1.6525233448577696 -2.9598244422216635 -1.099369095551709 0.3484388902703332
569 -0.31394108363568884 -1.6185195123237932 1.6530121407346563 -2.9632129424142977 -1.1008668116893956 0.350257369013298
570 -0.3157246254680907 -1.617896794516645 1.6535150614017706 -2.9666134596043165 -1.1022484097623277 0.35206920788045903
571 -0.3173845054549099 -1.6172769297108673 1.6540319472148868 -2.9700259046319903 -1.103523443999213 0.3538730057153968
572 -0.31892927675215654 -1.6166597351717529 1.6545624219191886 -2.9734502311158955 -1.104700782301907 0.3556674755235114
573 -0.32036688270262403 -1.6160450411880078 1.6551059944314706 -2.976886416804304 -1.1057886581476404 0.35745143207171537
574 -0.32170470113839095 -1.6154326882385246 1.6556621200050734 -2.9803344511244845 -1.1067947168503378 0.3592237814504314
575 -0.3229495846901768 -1.6148225253690311 1.6562302364726493 -2.98379432676659 -1.1077260574755061 0.36098351210168556
576 -0.3241078978185803 -1.614214409275562 1.6568097852535961 -2.987266033934657 -1.1085892712399747 0.36272968698883185
577 -0.3251855510481866 -1.6136082037889306 1.6574002230954632 -2.990749556392858 -1.10939047694469 0.3644614366894075
578 -0.3261880327405877 -1.6130037795764152 1.6580010282206723 -2.99424486874475 -1.110135353816041 0.36617795325824376
579 -0.32712043865246526 -1.6124010139520193 1.658611703130937 -2.997751934577564 -1.1108291720257584 0.3678784847489818
580 -0.3279874994688237 -1.6117997907326849 1.6592161320690773 -3.0013958522470716 -1.1115464960293937 0.3691822319141619
581 -0.3287937915822985 -1.6111987966572787 1.6598505323510926 -3.0050438757027993 -1.112222537553997 0.37046978671754666
582 -0.32954276694895973 -1.6105984569248009 1.6605057712605487 -3.008697018498322 -1.1128607993315376 0.3717409921507802
583 -0.33023786339229055 -1.6099989979393536 1.6611761179526354 -3.012355840432105 -1.1134647580366988 0.3729956236248352
584 -0.33088241573240906 -1.6094005263722848 1.6618579279149166 -3.016020621791233 -1.1140377753674733 0.37423342270815774
585 -0.3314796078524204 -1.6088030775509061 1.6625488388637617 -3.0196914696373067 -1.1145830506605892 0.3754541174230332
586 -0.3298988122824866 -1.6092661332271798 1.6592295089671867 -3.0240024699662724 -1.114354790324853 0.3766574343145083
587 -0.3286019284306193 -1.6095752759408084 1.657888493844082 -3.0280401742715024 -1.11437913878443 0.3777847064667406
588 -0.32749453632210723 -1.6097921935094233 1.6577051356726433 -3.0319149169745434 -1.1145755018936807 0.37885811811374365
589 -0.3265185921536777 -1.6099530990437496 1.65819708474616 -3.0356920065325763 -1.1148952110156451 0.37989093312201927
590 -0.3256380108795993 -1.6100793590654272 1.659080963508075 -3.039409900016864 -1.115308213123 0.3808911224826421
591 -0.32482994522885883 -1.610183632444625 1.6601904680869544 -3.043091138299859 -1.115795426803497 0.3818635176382452
592 -0.3240795169536729 -1.6102734639792013 1.6614281183695845 -3.0467488712203394 -1.116344291631326 0.3828110866614424
593 -0.3233766636692043 -1.6103533914008918 1.6627368659457067 -3.0503907236135923 -1.116946165051433 0.38373568918487283
594 -0.3227142637715016 -1.6104261804642477 1.6640834058317744 -3.054021075680954 -1.1175947950767446 0.38463852266712245
595 -0.3240238944029297 -1.6095574344413306 1.669101227331923 -3.0570814791847094 -1.1189574606196524 0.3855203863164586
596 -0.3251207100351167 -1.6087900586652315 1.6724496988628679 -3.0603715587562825 -1.120136905611024 0.38643609132464096
597 -0.326063664220439 -1.6080863692097647 1.6747713224895242 -3.0638040067179984 -1.1211870189921869 0.38736675092705625
598 -0.32689059330185577 -1.6074227764682762 1.6764627302187585 -3.067325222790306 -1.1221429327204333 0.38830053663038727
599 -0.32762630781852004 -1.6067845465562636 1.677768403506988 -3.070902228278819 -1.1230278523755632 0.38922999913729195
600 -0.32828746040754847 -1.6061624978994402 1.678838782005954 -3.0745146963767707 -1.123857418677792 0.39015040724094247
601 -0.32888555368873285 -1.605550914651354 1.6797662899917425 -3.0781500684271856 -1.1246424730787803 0.39105871783004226
602 -0.32942881406139324 -1.6049462357753375 1.6806076218996722 -3.0818005551858 -1.1253907977203392 0.3919529379733704
603 -0.3277943611307448 -1.6053983993907133 1.6774010200112763 -3.086070701201626 -1.1253692053979676 0.392831730248078
604 -0.32643586392014673 -1.6057023703474 1.6761032675841698 -3.0900732613777775 -1.125583156620657 0.39363270474381545
605 -0.3252634427635592 -1.6059168272474615 1.6759295406673815 -3.093913480559126 -1.1259590334840648 0.39437853315462584
606 -0.3218983632246091 -1.6072040181161225 1.6720615867324704 -3.0983089630629728 -1.1256505658142333 0.39508286584737595
607 -0.318967823227392 -1.608285751736594 1.67065901089855 -3.102339855523436 -1.1257080570407154 0.3956867580730856
608 -0.31635402667844287 -1.6092395921323188 1.6707092309433902 -3.1061444897522184 -1.1260332107860795 0.3962207938560037
609 -0.31397949188589114 -1.610112635051156 1.6716065957370199 -3.1098064245786294 -1.1265633613476522 0.3967036940192196
610 -0.3135444736918505 -1.6101117676564842 1.6762906216947482 -3.112890212815667 -1.1278574351444142 0.397146984947036
611 -0.31303049133579797 -1.6101856584413212 1.67973354940858 -3.116131199744965 -1.1290938310622576 0.39760862969182814
612 -0.3124765334202753 -1.6103046065141913 1.6824103046960073 -3.1194640723255906 -1.130304049192586 0.3980746470949017
613 -0.31190513630767547 -1.610450578149071 1.6846121813332169 -3.122848928277373 -1.1315066434730423 0.39853649633680976
614 -0.3113293570398444 -1.6106125502908923 1.686518496944604 -3.126261252597272 -1.1327123586507775 0.39898896991410104
615 -0.3107566750519131 -1.610783756227618 1.6882399033596924 -3.129685921870397 -1.1339272159636613 0.3994289106436026
616 -0.31019124956075095 -1.6109600303533034 1.6898447920062125 -3.1331135749725694 -1.1351543820094756 0.3998544249563037
617 -0.3096352545253305 -1.6111388032836216 1.6913754822334208 -3.136538398720591 -1.1363953058602823 0.40026439841901257
618 -0.3090896789319345 -1.6113184878821356 1.6928581814077677 -3.1399567697993924 -1.137650412447117 0.4006581965898234
619 -0.30855481039828475 -1.61149810258633 1.694309127645037 -3.1433664189733177 -1.1389195255630227 0.4010354800239842
620 -0.30803052859243063 -1.611677039686575 1.6957383845890235 -3.1467659155043277 -1.140202125645413 0.40139608978544783
621 -0.3075164834276557 -1.6118549225067484 1.697152188615367 -3.1501543485562693 -1.1414975064350112 0.4017399765876496
622 -0.3070122030683327 -1.6120315172572466 1.698554402080582 -3.1535311300652595 -1.1428048696936122 0.4020671569657598
623 -0.30651715904401783 -1.612206678574071 1.6999474138210782 -3.1568958726345184 -1.144123381977562 0.4023776862104675
624 -0.30603080511320657 -1.6123803158424934 1.7013326975411265 -3.1602483138277147 -1.1454522081820924 0.40267164169998615
625 -0.3055526000599269 -1.612552372358993 1.7027111582867018 -3.1635882691869597 -1.1467905308874158 0.4029491126835524
626 -0.30508202066936946 -1.6127228124302966 1.704083347559529 -3.166915603049841 -1.1481375610516975 0.4032101940666559
627 -0.30461856871945564 -1.6128916133832332 1.7054495969520715 -3.170230210404718 -1.149492543456214 0.4034549826765363
628 -0.30416177434696634 -1.6130587606150757 1.7068101012127146 -3.1735320055971226 -1.1508547589934202 0.4036835750626246
629 -0.30371119723817847 -1.61322424452755 1.7081649699069414 -3.176820915292014 -1.1522235250805553 0.4038960662444415
630 -0.30326642653470626 -1.6133880586284899 1.7095142595658133 -3.1800968740821447 -1.1535981949844336 0.4040925490418373
631 -0.3028270800007564 -1.61355019835766 1.7108579937039032 -3.183359821743314 -1.154978156537346 0.40427311376072556
632 -0.3023928027856968 -1.6137106603618923 1.7121961752921016 -3.18660970151581 -1.1563628305359204 0.40443784809346933
633 -0.3019632659849722 -1.613869442049095 1.7135287945350346 -3.1898464590261435 -1.1577516689991123 0.404586837146591
634 -0.30153816512175374 -1.6140265413153656 1.7148558337250939 -3.1930700416089484 -1.1591441533904103 0.40472016354178525
635 -0.3011172186220525 -1.6141819563795425 1.7161772702754665 -3.196280397879477 -1.160539792865709 0.40483790755694116
636 -0.3007001663254985 -1.6143356856844047 1.7174930786183207 -3.199477477463411 -1.1619381225815915 0.4049401472867764
637 -0.30028676805527843 -1.6144877278391592 1.718803231395425 -3.202661230825724 -1.1633387020824812 0.4050269588107067
638 -0.29987680225930463 -1.6146380815874486 1.72010770020739 -3.2058316091621593 -1.1647411137752597 0.4050984163605546
639 -0.29947006472778137 -1.614786745791068 1.721406456087433 -3.2089885643304554 -1.1661449614940333 0.40515459248378843
640 -0.29906636738820064 -1.6149337194232845 1.7226994698031 -3.2121320488069522 -1.1675498691542587 0.4051955581998904
641 -0.29866553717638167 -1.6150790015679533 1.7239867120504528 -3.2152620156595053 -1.1689554794934438 0.40522138314862327
642 -0.29826741498080156 -1.6152225914220713 1.7252681535809646 -3.218378418530957 -1.17036145289457 0.40523213572968114
643 -0.29787185465674343 -1.6153644883002876 1.7265437652862343 -3.2214812116294897 -1.171767466287855 0.4052278832336375
644 -0.29747872210645554 -1.6155046916404612 1.727813518256185 -3.224570349723513 -1.1731732121262874 0.40520869196435727
645 -0.29708789442142236 -1.615643201009696 1.729077383820527 -3.2276457881395415 -1.1745783974303765 0.40517462735318227
646 -0.29669925908288997 -1.6157800161105027 1.7303353335795812 -3.23070748276206 -1.1759827428976755 0.40512575406527523
647 -0.29631271321691255 -1.6159151367868774 1.7315873394282715 -3.233755390034714 -1.1773859820728318 0.4050621360985417
648 -0.2959281629003545 -1.6160485630301613 1.7328333735756556 -3.2367894669623603 -1.1787878605741249 0.4049838368755591
649 -0.29554552251446775 -1.6161802949846125 1.7340734085614762 -3.2398096711136746 -1.180188135372688 0.4048909193289364
650 -0.2951647141428607 -1.6163103329526411 1.7353074172706529 -3.2428159606240827 -1.18158657412084 0.40478344598051424
651 -0.2947856670108697 -1.6164386773996906 1.7365353729462891 -3.245808294198876 -1.1829829545261803 0.4046614790147973
652 -0.2944083169635315 -1.6165653289587536 1.7377572492015574 -3.2487866311163742 -1.184377063768311 0.40452508034698964
653 -0.29403260597953856 -1.6166902884345244 1.7389730200306788 -3.2517509312310664 -1.1857686979552706 0.4043743116859827
654 -0.2936584817187302 -1.6168135568071917 1.7401826598191514 -3.2547011549766602 -1.187157661616941 0.40420923459262453
655 -0.2932858971008353 -1.6169351352358774 1.7413861433533078 -3.2576372633689856 -1.1885437672328916 0.4040299105335779
656 -0.2929148099133355 -1.6170550250617357 1.7425834458292666 -3.260559218008726 -1.189926834792282 0.4038364009310556
657 -0.2925451824464618 -1.6171732278107203 1.743774542861318 -3.263466981083939 -1.1913066913836152 0.4036287672087021
658 -0.2921769811534699 -1.6172897451960315 1.7449594104897728 -3.266360515372355 -1.192683170812278 0.4034070708338735
659 -0.2918101763344673 -1.6174045791202576 1.746138025188293 -3.2692397842434304 -1.1940561132439496 0.4031713733565509
660 -0.29144474184218105 -1.6175177316772174 1.7473103638707301 -3.2721047516601507 -1.1954253648720896 0.4029217364451069
661 -0.2910806548081644 -1.617629205153524 1.748476403897478 -3.274955382180576 -1.1967907776078395 0.4026582219191306
662 -0.29071789538804393 -1.6177390020298716 1.7496361230813633 -3.277791640959123 -1.1981522087907832 0.4023808917795022
663 -0.29035644652450193 -1.6178471249820674 1.7507894996930782 -3.2806134937475853 -1.1995095209191236 0.4020898082358973
664 -0.28999629372678015 -1.6179535768818103 1.7519365124661779 -3.2834209068958926 -1.2008625813979252 0.40178503373188695
665 -0.2896374248655718 -1.618058360797235 1.753077140601651 -3.2862138473526095 -1.2022112623041736 0.40146663096779034
666 -0.28927982998224633 -1.618161479993229 1.7542113637720744 -3.2889922826651796 -1.2035554401674764 0.401134662921426
667 -0.288923501111425 -1.6182629379315325 1.7553391621253702 -3.291756180979925 -1.2048949957653272 0.4007891928668982
668 -0.28856843211598987 -1.6183627382706345 1.7564605162881737 -3.2945055110418013 -1.206229813931912 0.40043028439154504
669 -0.28821461853367353 -1.6184608848654707 1.7575754073688272 -3.2972402421939155 -1.207559783379519 0.40005800141116915
670 -0.28786205743443416 -1.6185573817669376 1.7586838169600103 -3.29996034437682 -1.2088847965316734 0.3996724081836604
671 -0.2875107472878749 -1.6186522332212292 1.7597857271410196 -3.302665788127587 -1.2102047493671781 0.39927356932111646
672 -0.28716068784001747 -1.6187454436690054 1.760881120479711 -3.305356544578675 -1.211519541274302 0.39886154980055794
673 -0.2868118799987868 -1.6188370177444027 1.7619699800341142 -3.308032585456589 -1.2128290749144055 0.398436414973329
674 -0.28646432572760766 -1.6189269602738947 1.7630522893537317 -3.3106938830803547 -1.2141332560943419 0.3979982305732695
675 -0.28611802794655516 -1.6190152762750094 1.7641280324805362 -3.313340410359805 -1.2154319936470275 0.3975470627237377
676 -0.2857729904405393 -1.619101970954914 1.7651971939496718 -3.315972140793694 -1.216725199319599 0.3970829779435588
677 -0.28542921777403885 -1.6191870497088723 1.7662597587898758 -3.3185890484676466 -1.2180127876686375 0.39660604315196885
678 -0.28508671521193374 -1.619270518118584 1.767315712523627 -3.321191108051951 -1.2192946759619538 0.3961163256726198
679 -0.2847454886460152 -1.6193523819504116 1.7683650411670329 -3.3237782947992027 -1.2205707840864828 0.39561389323670665
680 -0.28440554452678235 -1.6194326471535023 1.7694077312294665 -3.326350584541812 -1.2218410344618522 0.3950988139852748
681 -0.2840668898001606 -1.6195113198578124 1.7704437697129587 -3.328907953689377 -1.2231053519592314 0.39457115647076063
682 -0.2837295318488016 -1.6195884063720392 1.7714731441113603 -3.3314503792259367 -1.224363663825087 0.3940309896578164
683 -0.2833934784376486 -1.619663913181468 1.77249584240928 -3.3339778387071095 -1.225615899609499 0.3934783829234666
684 -0.2830587376634724 -1.6197378469457389 1.7735118530808074 -3.3364903102571235 -1.226861991098719 0.3929134060566399
685 -0.28272531790810274 -1.6198102144965387 1.7745211650880302 -3.3389877725657446 -1.2281018722516708 0.39233612925711864
686 -0.28239322779510023 -1.6198810228352267 1.775523767879354 -3.341470204885118 -1.2293354791401137 0.39174662313394487
687 -0.28206247614962965 -1.619950279130395 1.7765196513876333 -3.3439375870265153 -1.2305627498922138 0.3911449587033192
688 -0.2817330719613131 -1.620017990715372 1.7775088060281201 -3.346389899357012 -1.2317836246392786 0.3905312073860276
689 -0.28140502434985615 -1.6200841650856723 1.77849122269624 -3.3488271227960813 -1.2329980454654348 0.38990544100442753
690 -0.2810783425332544 -1.6201488098963979 1.7794668927652002 -3.3512492388121307 -1.2342059563600412 0.389267731779025
691 -0.2807530357984015 -1.6202119329595954 1.780435808083442 -3.35365622941897 -1.2354073031726407 0.38861815232466973
692 -0.2804291134739307 -1.6202735422415744 1.7813979609719368 -3.3560480771722276 -1.2366020335702756 0.38795677564639636
693 -0.28010658490513535 -1.620333645860189 1.782353344221342 -3.358424765165715 -1.2377900969969973 0.38728367513493633
694 -0.279785459430823 -1.6203922520820881 1.7833019510890156 -3.360786277027744 -1.2389714446354132 0.38659892456192446
695 -0.27946574636196786 -1.6204493693199395 1.7842437752958995 -3.3631325969174064 -1.2401460293701334 0.3859025980748223
696 -0.27914745496203636 -1.6205050061296264 1.7851788110232791 -3.3654637095208146 -1.241313805752974 0.3851947701915797
697 -0.27883059442886904 -1.620559171207428 1.786107052909422 -3.367779600047312 -1.242474729969801 0.3844755157950541
698 -0.27851517387800867 -1.620611873387178 1.7870284960461045 -3.370080254225654 -1.2436287598088924 0.38374491012720613
699 -0.2782012023273748 -1.6206631216374123 1.7879431359750306 -3.372365658300168 -1.2447758546307175 0.3830030287830895
700 -0.27788868868318817 -1.620712925058505 1.7888509686841487 -3.374635799026888 -1.2459159753390265 0.38224994770465165
701 -0.27757764172705934 -1.620761292879795 1.7897519906038737 -3.3768906636696765 -1.247049084353166 0.3814857431743603
702 -0.2772680701041573 -1.620808234456708 1.7906461986032165 -3.3791302399963326 -1.2481751455815255 0.3807104918086717
703 -0.2769599823123834 -1.6208537592678767 1.7915335899858296 -3.381354516274688 -1.2492941243960434 0.3799242705513536
704 -0.2785073264326007 -1.620089772668628 1.7960035274583483 -3.3831296385114897 -1.2510882016973914 0.37912715666667623
705 -0.27990053657255365 -1.6193882714845498 1.7990536389339244 -3.385082452688184 -1.2527352443370035 0.37838051350622504
706 -0.28116436006417916 -1.6187293957995514 1.8011615781266574 -3.387152164525996 -1.2542561021902476 0.3776654886434156
707 -0.28231707302674436 -1.6180997715856236 1.8026450029418204 -3.389298179138145 -1.2556669245946321 0.37696936877857534
708 -0.28337257306441666 -1.617490404242708 1.8037148497975217 -3.3914933810322987 -1.2569804251010273 0.37628353532118974
709 -0.28434173237438004 -1.6168952458124928 1.804511025480065 -3.3937196298400707 -1.2582068248524791 0.37560210166238156
710 -0.2852332958469835 -1.6163102247588361 1.8051262373228656 -3.3959647538925615 -1.2593545325759783 0.37492100655433563
711 -0.28605448539778644 -1.615732592218506 1.8056218629317387 -3.3982205489687174 -1.2604306247908494 0.3742374115175362
712 -0.28681141010375705 -1.615160483361994 1.8060384993206848 -3.4004814484332577 -1.2614411814006083 0.3735493004195088
713 -0.2875093466299903 -1.6145926240294688 1.8064029666297405 -3.402743640416217 -1.2623915195913482 0.37285521329439164
714 -0.2881529326241235 -1.614028134965066 1.8067329543517274 -3.405004482040188 -1.2632863574748423 0.3721540692247529
715 -0.2887463015622859 -1.6134664013640194 1.8070401022007432 -3.407262110772209 -1.264129929684265 0.3714450482925406
716 -0.28929317811012056 -1.6129069860071337 1.807332042529486 -3.4095151864922455 -1.2649260702631533 0.37072751270908
717 -0.28979694676630874 -1.6123495714297156 1.8076137542046917 -3.411762720211746 -1.2656782732980982 0.37000095394181964
718 -0.2902607023409254 -1.6117939214076638 1.807888460066185 -3.414003960228275 -1.2663897383545344 0.3692649571033564
719 -0.290687287999687 -1.611239855286257 1.8081582218633245 -3.4162383163586245 -1.2670634054619332 0.36851917681533464
720 -0.2910793247181809 -1.6106872308440188 1.8084243346639255 -3.4184653094264617 -1.2677019828334009 0.3677633207117322
721 -0.29143923472890954 -1.6101359328283404 1.8086875883263445 -3.420684537508827 -1.2683079694577415 0.3669971380386684
722 -0.2917692607012901 -1.6095858652607056 1.8089484408272793 -3.4228956533122368 -1.2688836740027958 0.3662204116639197
723 -0.2920714818317196 -1.6090369462482863 1.8092071331331427 -3.4250983489472566 -1.269431231002871 0.36543295237634443
724 -0.2923478276444978 -1.6084891044631542 1.8094637652954855 -3.4272923456274227 -1.2699526149927627 0.3646345947310935
725 -0.2926000900526423 -1.607942276732202 1.8097183468200293 -3.429477386651037 -1.2704496530441403 0.3638251939454733
726 -0.2928299340589537 -1.607396406368001 1.8099708299644488 -3.431653232576022 -1.270924036022127 0.36300462351542856
727 -0.29303890736440885 -1.6068514419950268 1.8102211317070913 -3.433819657863707 -1.2713773287875934 0.36217277333214937
728 -0.2932284490746366 -1.6063073367081369 1.8104691481973958 -3.435976448509887 -1.2718109795086403 0.36132954815103063
729 -0.293399897643555 -1.60576404745491 1.8107147642177508 -3.438123400342408 -1.2722263282027755 0.36047486631353576
730 -0.2935544981580457 -1.6052215345697765 1.810957859336625 -3.4402603177713282 -1.272624614602634 0.35960865865466285
731 -0.2936934090433402 -1.604679761411984 1.811198311868741 -3.4423870128486875 -1.2730069854183281 0.35873086755012745
732 -0.293817708251974 -1.6041386940754458 1.8114360013835689 -3.444503304542111 -1.2733745010556319 0.3578414460716699
733 -0.293928398987295 -1.6035983011491415 1.8116708102547032 -3.4466090181578757 -1.2737281418393054 0.3569403572284588
734 -0.2940264150039848 -1.6030585535137958 1.8119026245774421 -3.4487039848700265 -1.2740688137836085 0.35602757327898443
735 -0.2941126255217917 -1.602519424165238 1.8121313346720644 -3.4507880413260947 -1.2743973539466156 0.35510307510216577
736 -0.29418783978395474 -1.601980888057956 1.8123568353172888 -3.452861029309317 -1.2747145354007337 0.354166851619333
737 -0.29425281128814806 -1.6014429219644233 1.8125790258098275 -3.454922795443538 -1.2750210718484793 0.3532188992607573
738 -0.29430824171486636 -1.6009055043471496 1.8127978099136492 -3.456973190931169 -1.275317621909823 0.3522592214717888
739 -0.29435478457579295 -1.6003686152413172 1.8130130957410573 -3.4590120713174413 -1.2756047931050984 0.35128782825463556
740 -0.2943930486026898 -1.5998322361464745 1.813224795593391 -3.461039296276108 -1.275883145555495 0.350304735742511
741 -0.29442360089563363 -1.5992963499261625 1.8134328257796195 -3.4630547294130714 -1.2761531954213932 0.3493099658033808
742 -0.29444696984791724 -1.5987609407146286 1.8136371064247636 -3.4650582380853083 -1.276415418097265 0.3483035456709167
743 -0.2944636478635988 -1.5982259938299588 1.8138375612758677 -3.467049693233105 -1.2766702511804533 0.3472855076005503
744 -0.29447409388248175 -1.5976914956930917 1.8140341175104284 -3.4690289692240386 -1.276918097229871 0.34625588854874934
745 -0.2944787357262156 -1.5971574337522612 1.8142267055503318 -3.4709959437074733 -1.2771593263295042 0.3452147298738189
746 -0.29447797227821215 -1.5966237964124796 1.814415258883118 -3.472950497478542 -1.2773942784705263 0.34416207705668544
747 -0.2944721755091572 -1.596090572969716 1.8145997138915724 -3.474892514350772 -1.2776232657648472 0.34309797944024845
748 -0.2944616923590535 -1.5955577535494583 1.8147800096921143 -3.47682188103663 -1.2778465745020064 0.3420224899859999
749 -0.29444684648595226 -1.595025329049376 1.8149560879821005 -3.478738487035351 -1.2780644670604797 0.3409356650467096
750 -0.2944279398908087 -1.59449329108582 1.8151278928959447 -3.4806422245274997 -1.2782771836836753 0.3398375641540652
751 -0.2944052544272288 -1.5939616319439145 1.8152953708698063 -3.4825329882757763 -1.2784849441301767 0.3387282498202355
752 -0.29437905320425384 -1.5934303445310123 1.8154584705145238 -3.484410675531614 -1.2786879492071122 0.33760778735240066
753 -0.29434958188975313 -1.5928994223333002 1.8156171424964174 -3.486275185947173 -1.278886382194901 0.33647624467935877
754 -0.2943170699214613 -1.5923688593753493 1.8157713394255601 -3.488126421492356 -1.2790804101710442 0.33533369218938375
755 -0.29428173163219745 -1.5918386501824235 1.815921015751114 -3.489964286376524 -1.279270185240088 0.3341802025785636
756 -0.2942437672953443 -1.5913087897453648 1.8160661276633239 -3.491788686974583 -1.2794558456763845 0.3330158507089046
757 -0.2942033640962338 -1.5907792734878912 1.8162066330017763 -3.4935995317571744 -1.2796375169858027 0.3318407134755343
758 -0.294160697034688 -1.5902500972361449 1.816342491169545 -3.495396731224689 -1.2798153128921128 0.3306548696823842
759 -0.2941159297635926 -1.5897212571903454 1.8164736630528517 -3.4971801978448736 -1.279989336253359 0.3294583999257748
760 -0.2940692153680363 -1.5891927498984066 1.8166001109459036 -3.4989498459937884 -1.2801596799131627 0.3282513864853646
761 -0.2940206970892285 -1.5886645722313881 1.8167217984805686 -3.500705591899917 -1.2803264274915467 0.327033913221965
762 -0.293970508997109 -1.5881367213606565 1.8168386905605822 -3.5024473535912195 -1.2804896541195487 0.3258060654817532
763 -0.2939187766152889 -1.587609194736644 1.8169507532999918 -3.5041750508449514 -1.2806494271215878 0.3245679300064512
764 -0.29386561750170237 -1.5870819900690933 1.8170579539655558 -3.505888605140074 -1.2808058066492725 0.3233195948490664
765 -0.29381114178811063 -1.5865551053086926 1.8171602609228457 -3.5075879396120957 -1.2809588462700703 0.3220611492948191
766 -0.2937554526813778 -1.5860285386300002 1.8172576435857986 -3.5092729790101913 -1.281108593514027 0.3207926837869057
767 -0.2936986469292306 -1.5855022884155765 1.8173500723694942 -3.510943649656468 -1.2812550903814877 0.3195142898567738
768 -0.2936408152530223 -1.584976353241237 1.8174375186459417 -3.512599879407233 -1.2813983738145724 0.31822606005860515
769 -0.293582042749844 -1.5844507318623515 1.8175199547026735 -3.514241597616152 -1.2815384761349586 0.3169280879077243
770 -0.2935224092661583 -1.5839254232011148 1.8175973537039563 -3.5158687350991746 -1.2816754254503437 0.3156204678226714
771 -0.29346198974497834 -1.5834004263347254 1.8176696896544462 -3.5174812241011244 -1.2818092460317947 0.31430329507069377
772 -0.2934008545484709 -1.5828757404844067 1.8177369373651195 -3.51907899826385 -1.2819399586640359 0.31297666571642974
773 -0.2933390697577295 -1.5823513650052137 1.8177990724213269 -3.5206619925958416 -1.282067580970576 0.31164067657357264
774 -0.2932766974513393 -1.5818272993765694 1.8178560711528244 -3.5222301434432284 -1.282192127715448 0.31029542515931796
775 -0.29321379596424196 -1.5813035431934817 1.817907910605652 -3.52378338846207 -1.282313611083209 0.3089410096514108
776 -0.2931504201283001 -1.580780096158392 1.8179545685157261 -3.5253216665918625 -1.2824320409387224 0.30757752884762285
777 -0.2930866214958628 -1.5802569580736128 1.8179960232840373 -3.5268449180301933 -1.2825474250681517 0.30620508212750014
778 -0.2930224485475411 -1.5797341288343116 1.8180322539533353 -3.528353084208468 -1.2826597694024802 0.3048237694162338
779 -0.29295794688531734 -1.5792116084220043 1.8180632401862078 -3.5298461077686523 -1.2827690782247878 0.3034336911505168
780 -0.29289315941203103 -1.5786893968985205 1.8180889622444503 -3.5313239325409627 -1.282875354362424 0.30203494824625843
781 -0.29282812649821155 -1.578167494400412 1.8181094009696437 -3.5327865035224586 -1.2829785993651375 0.30062764206803727
782 -0.29276288613715884 -1.5776459011337662 1.8181245377648556 -3.5342337668564694 -1.283078813670148 0.2992118744001828
783 -0.2926974740891081 -1.5771246173694033 1.8181343545773854 -3.535665669812824 -1.2831759967550769 0.2977877474193817
784 -0.2926319240152575 -1.5766036434384259 1.8181388338824855 -3.5370821607688225 -1.2832701472795864 0.29635536366871323
785 -0.29256626760237986 -1.5760829797280973 1.8181379586679915 -3.538483189190916 -1.28336126321652 0.29491482603302493
786 -0.2925005346786909 -1.5755626266780263 1.8181317124197949 -3.539868705617051 -1.283449341973279 0.29346623771556457
787 -0.2924347533215971 -1.5750425847766363 1.818120079108107 -3.541238661639637 -1.2835343805041173 0.29200970221579214
788 -0.292368949957902 -1.5745228545578969 1.8181030431744538 -3.5425930098891127 -1.283616375413994 0.29054532330829935
789 -0.2923031494570105 -1.574003436598304 1.8180805895193584 -3.5439317040180613 -1.2836953230545693 0.2890732050227696
790 -0.29223737521762944 -1.573484331514086 1.818052703490657 -3.5452546986858633 -1.283771219612898 0.28759345162491645
791 -0.29217164924843053 -1.5729655399586235 1.8180193708724124 -3.5465619495438405 -1.283844061193325 0.28610616759834234
792 -0.2921059922431065 -1.572447062620066 1.8179805778743787 -3.5478534132208788 -1.2839138438930642 0.28461145762726364
793 -0.2920404236502211 -1.5719289002191326 1.8179363111219857 -3.549129047309491 -1.2839805638718955 0.28310942658005145
794 -0.2919749617382259 -1.5714110535070824 1.8178865576468017 -3.5503888103523096 -1.2840442174163964 0.2816001794935417
795 -0.2919096236559896 -1.5708935232638455 1.8178313048774488 -3.551632661828978 -1.2841048009990836 0.28008382155807066
796 -0.29184442548916123 -1.5703763102962989 1.817770540630936 -3.552860562143422 -1.2841623113328224 0.2785604581031951
797 -0.2917793823126654 -1.569859415436683 1.8177042531043843 -3.554072472611487 -1.2842167454208333 0.2770301945840595
798 -0.2917145082396081 -1.5693428395411422 1.8176324308671203 -3.555268355448918 -1.2842681006026018 0.2754931365683749
799 -0.2916498164668487 -1.568826583488388 1.817555062853107 -3.556448173759668 -1.2843163745959767 0.27394938972397603
800 -0.2915853193174796 -1.5683106481784697 1.8174721383536983 -3.5576118915245174 -1.2843615655357228 0.272399059806927
801 -0.29152102828043386 -1.5677950345316485 1.817383647010692 -3.558759473589996 -1.2844036720087713 0.27084225265014583
802 -0.2914569540474285 -1.5672797434873698 1.817289578809662 -3.5598908856575857 -1.284442693086401 0.26927907415252156
803 -0.2913931065474345 -1.5667647760033219 1.8171899240735516 -3.5610060942732016 -1.2844786283535623 0.2677096302684995
804 -0.2913294949788522 -1.5662501330545788 1.8170846734565174 -3.562105066816928 -1.2845114779355404 0.2661340269981102
805 -0.2912661278395565 -1.565735815632821 1.816973817937997 -3.5631877714930114 -1.2845412425221452 0.2645523703774216
806 -0.2912030129549669 -1.5652218247456267 1.8168573488170003 -3.5642541773200906 -1.2845679233895961 0.26296476646939293
807 -0.29114015750428346 -1.564708161415833 1.8167352577065987 -3.56530425412166 -1.2845915224202658 0.26137132135511204
808 -0.2910775680450223 -1.5641948266809573 1.8166218921204027 -3.5662231277824117 -1.2846061627888343 0.25977203478607247
809 -0.2910145260702479 -1.563682549316461 1.8164869335609657 -3.567127752435197 -1.2846176323496972 0.2581683963060647
810 -0.29095125031077546 -1.563171098897429 1.8163354747844613 -3.568017504706835 -1.284626011422292 0.2565603192147474
