ZJU-PLP/Project_IFAC_2020/src/custom_codes/csv_files/joint_traj_1_APF.csv
Index Joint1 Joint2 Joint3 Joint4 Joint5 Joint6
0 0.0 -1.5707 0.0 -1.5707 -1.5707 -1.5707
1 -0.0006673776981413824 -1.5698232258549327 0.01800306961805558 -1.562081276074729 -1.575165090171633 -1.5667252848107383
2 -0.0013409264043174123 -1.568947374651666 0.03608283784128135 -1.5534592613848093 -1.5807109859185928 -1.5613900101394178
3 -0.0020193442838426943 -1.5680724370958672 0.0542381102164024 -1.544834093872598 -1.586119063209025 -1.555906958906999
4 -0.0027030192165023847 -1.5671984879176137 0.07246594495916725 -1.536205966738538 -1.5914305953554004 -1.5502209275091863
5 -0.003392301173495419 -1.5663255962455296 0.09076337836734542 -1.5275750255329903 -1.5966486907354673 -1.5443146066973872
6 -0.004087556860639802 -1.5654538281042358 0.1091273648859977 -1.518941383950935 -1.60176948216687 -1.5381771001161761
7 -0.0047891820214704395 -1.564583246706539 0.12755476035383786 -1.5103051242710452 -1.6067866472593968 -1.5317993113469135
8 -0.005497607946002831 -1.5637139124303927 0.1460423101507629 -1.5016662962362899 -1.6116925965302888 -1.525172687492905
9 -0.006213306783868385 -1.5628458827186957 0.16458663728167194 -1.493024915769887 -1.6164788782127504 -1.518288748054544
10 -0.006936796787057997 -1.5619792119610048 0.1831842289740874 -1.4843809638718402 -1.6211363302050845 -1.5111388629004312
11 -0.007668647893950888 -1.5611139513802048 0.2018314210414485 -1.4757343858782312 -1.6256551312638148 -1.5037141248802304
12 -0.008409487870103862 -1.5602501489382168 0.22052437939147876 -1.4670850912503168 -1.6300248046347783 -1.4960052624656304
13 -0.009160009161207442 -1.559387849273351 0.23925907802888885 -1.4584329540867957 -1.6342341953331168 -1.4880025700808415
14 -0.009920976598637738 -1.5585270936833922 0.25803127280253324 -1.449777814600078 -1.6382714302423502 -1.4796958459194682
15 -0.010693236101107582 -1.5576679201717538 0.2768364700005797 -1.44111948186341 -1.64212386510352 -1.4710743321802664
16 -0.011477724527604344 -1.5568103635788646 0.295669888705185 -1.432457738222968 -1.6457780200856313 -1.4621266550714098
17 -0.012275480853215016 -1.5559544558275518 0.3145264155747875 -1.4237923458828836 -1.6492195044224411 -1.452840763215609
18 -0.013087658858506117 -1.55510022631999 0.3334005504172569 -1.4151230563192008 -1.6524329299496252 -1.443203863892972
19 -0.013915541543133928 -1.5542477025354122 0.3522863405372374 -1.4064496233710442 -1.6554018130202575 -1.4332023571927308
20 -0.014760557493194224 -1.5533969108930827 0.37117730136944854 -1.397771821106924 -1.6581084641092112 -1.4228217687806193
21 -0.015624299446328323 -1.5525478779651125 0.3900663203271088 -1.3890894678878078 -1.6605338644090875 -1.4120466827483142
22 -0.016508545303855787 -1.5517006321499625 0.4089455400798261 -1.3804024584674188 -1.6626575288899679 -1.4008606770090652
23 -0.0174152818274866 -1.550855205951695 0.42780621660743584 -1.3717108065099848 -1.6644573557016331 -1.3892462650687667
24 -0.018346731217532684 -1.5500116390542877 0.4466385463394548 -1.3630147005968718 -1.6659094625435047 -1.3771848498959978
25 -0.019305380681772517 -1.5491699824370337 0.4654314554819671 -1.3543145776699737 -1.666988011875014 -1.3646566982471942
26 -0.02029401494189151 -1.5483303038485907 0.4841723432827891 -1.345611218954298 -1.6676650288241568 -1.3516409474441176
27 -0.021315751347499072 -1.5474926950455041 0.5028467695782526 -1.336905874737627 -1.6679102187131716 -1.3381156615890613
28 -0.022374076818319894 -1.5466572813060337 0.5214380756947112 -1.3282004259552338 -1.6676907957272544 -1.3240579609409449
29 -0.023472885132934922 -1.545824233847815 0.5399269270255896 -1.3194975922621721 -1.6669713410309746 -1.309444257090091
30 -0.024616512021027267 -1.5449937858958758 0.5582907660626385 -1.310801197978352 -1.665713718372505 -1.2942506380090883
31 -0.02580976396532326 -1.544166253238008 0.5765031675149759 -1.302116508536693 -1.663877088790393 -1.2784534610578369
32 -0.027057934442349767 -1.5433420601130932 0.5945330943265397 -1.2934506500365113 -1.6614180842274584 -1.2620302278502815
33 -0.028366798432081092 -1.5425217711080794 0.6123440678283258 -1.2848131217738283 -1.6582912228456952 -1.2449608302342883
34 -0.029742572456936713 -1.5417061292336651 0.6298932910043546 -1.2762164038900923 -1.6544496752407258 -1.2272292662999917
35 -0.031191823566547424 -1.540896099277629 0.6471308057797289 -1.2676766462302878 -1.6498465159138336 -1.208825919472108
36 -0.032721307619024836 -1.5400929136137578 0.6639988274998168 -1.2592143960669053 -1.6444366078156945 -1.1897504561373715
37 -0.03433771701145392 -1.539298114628345 0.6804314819637507 -1.2508552780893307 -1.6381792505290746 -1.17001530527711
38 -0.036047324024288424 -1.5385135838461859 0.6963552604194461 -1.2426304805475425 -1.6310416464224868 -1.1496495133953477
39 -0.03785552225555728 -1.5377415434225807 0.7116905722954278 -1.2345768372042376 -1.6230030724528055 -1.1287025103943429
40 -0.03976629798597485 -1.5369845128376884 0.7263547527097973 -1.2267362531738075 -1.614059373468967 -1.107247011672963
41 -0.04178170302915325 -1.5362452055949831 0.7402666937654141 -1.219154249306225 -1.6042270535714662 -1.0853800309628816
42 -0.04390143793339939 -1.5355263608456327 0.7533528667467173 -1.2118775420512524 -1.593545960648216 -1.0632209802027826
43 -0.04612266663209592 -1.5348305237465678 0.7655539461948165 -1.2049508428867468 -1.582079537184826 -1.0409062800599633
44 -0.04844014914878088 -1.534159810586678 0.7768307572533708 -1.1984133784276016 -1.5699120185518065 -1.0185808164880719
45 -0.05084669702222451 -1.533515708987918 0.787168155598074 -1.1922958420257586 -1.5571427641523943 -0.9963876502222018
46 -0.05333385865195004 -1.5325664302511468 0.8062195511331368 -1.18541709322979 -1.5438994736318143 -0.9744580730546363
47 -0.05593457073498979 -1.5317418672877514 0.8214626293698626 -1.1794448145728815 -1.529698790745244 -0.9526563313144573
48 -0.05862026003928343 -1.5310203109370846 0.8336123597001535 -1.1742853423273474 -1.514877253462201 -0.9312793221673034
49 -0.061369237117524476 -1.5303831088852533 0.8432735601130413 -1.169844068655376 -1.4997004427703726 -0.9105040228973365
50 -0.06416621767130437 -1.5298144315672884 0.8507830294383247 -1.167357998801632 -1.4842841192157714 -0.8904881339235493
51 -0.06700352095051475 -1.5292983022589244 0.8568467558551275 -1.1652024957393217 -1.4688816439847023 -0.8711557396222965
52 -0.0698742834864906 -1.5288248534781461 0.8617606057880234 -1.1633288248438636 -1.45356956334302 -0.8524991762759928
53 -0.0727736830462606 -1.5283859267515398 0.865764763723838 -1.1616986175071764 -1.4383970468828 -0.8344952315246397
54 -0.07569827565233918 -1.5279748178529093 0.8690536301954729 -1.1602815168577196 -1.4233941666038554 -0.8171133540183745
55 -0.07864553833213209 -1.527586042646359 0.8717842240254212 -1.1590533844546496 -1.408577850319338 -0.8003204898236442
56 -0.08161356422908558 -1.527215130106444 0.8740831814627547 -1.1579949286019822 -1.3939560471289354 -0.7840837719911327
57 -0.08460086298796762 -1.526858444301517 0.8760525166101046 -1.157090649838244 -1.3795306073197933 -0.768371909862888
58 -0.08760623109605832 -1.5265130341423276 0.8777743263982958 -1.1563280260437316 -1.3652992676290419 -0.7531558202140144
59 -0.09062866766802559 -1.5261765081846912 0.8793146153068934 -1.155696879621863 -1.351257022744565 -0.7384088322563852
60 -0.09366731937030191 -1.5258469312176302 0.8807263954983459 -1.155188883901658 -1.3373970772092085 -0.7241066638724448
61 -0.0967214439074016 -1.5255227393530482 0.8820521952715589 -1.1547971766548828 -1.3237115096054382 -0.7102272836102242
62 -0.09979038531135251 -1.5252026705877597 0.8833260867151217 -1.154516056502445 -1.3101917380916972 -0.6967507232985997
63 -0.10287355675597709 -1.5248857081730411 0.8845753237989956 -1.1543407437974353 -1.2968288475599121 -0.6836588768909205
64 -0.10597042820330517 -1.5245710345134895 0.885821665360748 -1.1542671918912613 -1.2836138194619504 -0.6709353041862078
65 -0.10908051719235427 -1.5242579936824405 0.8870824434449611 -1.1542919379244159 -1.2705376925270433 -0.6585650484091342
66 -0.11220338171045204 -1.5239460609668856 0.888371425944784 -1.1544119847263732 -1.2575916739908584 -0.6465344712390431
67 -0.11533861448092478 -1.5236348181353305 0.8896995131104548 -1.1546247072683253 -1.2447672151391957 -0.634831105970488
68 -0.11848583824605283 -1.523323933358607 0.8910752998769155 -1.1549277785377696 -1.232056060991483 -0.6234435280043846
69 -0.12164470177637256 -1.5230131449104696 0.8925055298050729 -1.1553191108037957 -1.2194502811960248 -0.6123612411891924
70 -0.1248148764317698 -1.522702247937111 0.8939954614587868 -1.1557968090956254 -1.2069422872786475 -0.601574578294284
71 -0.12799605315834242 -1.5223910837177719 0.895549164027491 -1.1563591343830042 -1.194524840015451 -0.5910746138943779
72 -0.13118793984142488 -1.5220795309472273 0.8971697557680433 -1.1570044744689827 -1.18219104971456 -0.580853088055876
73 -0.13439025895798043 -1.5217674986593708 0.8988595962289456 -1.157731321016216 -1.1699343714746644 -0.570902339376796
74 -0.13760274548604287 -1.5214549204829848 0.9005229465167895 -1.1593182082301225 -1.1576454560218656 -0.5614993693302174
75 -0.14137674777278048 -1.520765391097184 0.9032744068592596 -1.162533296710315 -1.1453551539914542 -0.5523578933637223
76 -0.145149021362456 -1.52009287617456 0.905964752846341 -1.1657962960365893 -1.1330831397458256 -0.5434413293598392
77 -0.1489187337278482 -1.519436415843737 0.9086206812298734 -1.1691041618652078 -1.1208317792225826 -0.5347464709595148
78 -0.15268507152194477 -1.5187952380641168 0.9112635440258864 -1.1724545955137518 -1.1086024915587052 -0.5262705255680459
79 -0.1564472411513655 -1.5181687208770134 0.9139104074578388 -1.1758458973142245 -1.0963959794651514 -0.5180110497605259
80 -0.16020446931618015 -1.517556362167063 0.9165749010876967 -1.1792768501147315 -1.084212411515888 -0.5099658930036817
81 -0.1639560034156573 -1.5169577554306133 0.9192678986393951 -1.1827466267038587 -1.0720515666550756 -0.5021331493683465
82 -0.16770111178802333 -1.5163725703543365 0.9219980637650771 -1.1862547162321264 -1.0599129488805425 -0.494511116493852
83 -0.1714390837892942 -1.5158005372490888 0.9247722874121089 -1.189800865730586 -1.047795878297756 -0.48709826091347097
84 -0.17516922973421065 -1.515241434575547 0.9275960381763035 -1.1933850336358425 -1.0356995633985278 -0.47989318884014337
85 -0.17889088072917333 -1.5146950789503488 0.9304736428048944 -1.1970073528695735 -1.0236231583908673 -0.4728946215738803
86 -0.18260338842774432 -1.5141613171427692 0.933408510628954 -1.200668101525256 -1.0115658086109187 -0.4661013747858552
87 -0.18630612473674435 -1.5136400196688535 0.9364033129907331 -1.2043676796138372 -0.9995266864273896 -0.4595123410365303
88 -0.18999848149701035 -1.513131075667472 0.9394601265529898 -1.2081065906358723 -0.9875050195614318 -0.45312647498417463
89 -0.19367987015849972 -1.5126343888048899 0.9425805476282315 -1.2118854269977664 -0.9755001133598171 -0.44694278083002625
90 -0.19734972146519184 -1.5121498740042922 0.945765783260856 -1.2157048584880066 -0.9635113682534597 -0.4409603016249113
91 -0.20100748516141279 -1.5116774548367262 0.9490167236664793 -1.2195656231865037 -0.9515382933895608 -0.43517811012910057
92 -0.2046526297279047 -1.511217061442067 0.9523339997258329 -1.2234685203049225 -0.9395805172306525 -0.4295953009732989
93 -0.2082846421531906 -1.5107686288744564 0.9557180285019007 -1.2274144045549091 -0.9276377957573961 -0.424210983915105
94 -0.21190302774351538 -1.5103320957874324 0.9591690491634131 -1.2314041817197496 -0.9157100187862091 -0.4190242780233683
95 -0.21550730997281947 -1.5099074033906725 0.9626871512273651 -1.2354388051673988 -0.9037972148114329 -0.41403430665388496
96 -0.21909703037275746 -1.5094944946236972 0.9662722966552744 -1.239519273092371 -0.8918995546998841 -0.4092401931049884
97 -0.2226717484616521 -1.5090933135026863 0.969924337034332 -1.2436466263132868 -0.8800173544993629 -0.4046410568618207
98 -0.22623104171041458 -1.5087038046052348 0.9736430268308397 -1.2478219464840457 -0.8681510775689035 -0.4002360103542961
99 -0.22977450554281614 -1.5083259126648592 0.97742803350765 -1.2520463546012783 -0.8563013361947488 -0.39602415616671033
100 -0.23330175336702277 -1.5079595822526721 0.9812789451403285 -1.2563210097102895 -0.8444688928202155 -0.39200458464722165
101 -0.23681241663496636 -1.5076047575281502 0.9851952760408511 -1.2606471077271237 -0.8326546609881759 -0.3881763718735167
102 -0.24030614492589486 -1.5072613820445375 0.9891764707967493 -1.265025880306579 -0.8208597060705125 -0.38453857793728274
103 -0.243782606050295 -1.5069293985973389 0.9932219070528483 -1.2694585936955747 -0.8090852458385696 -0.38109024551495896
104 -0.24724148617029654 -1.5066087491066813 0.9973308972981435 -1.273946547518819 -0.7973326509114674 -0.3778303986958943
105 -0.250682489932629 -1.5062993745262006 1.0015026898687973 -1.2784910734496269 -0.7856034451045073 -0.3747580420416997
106 -0.25410534061019935 -1.506001214772602 1.005736469337158 -1.2830935337233862 -0.7738993056872134 -0.37187215985242317
107 -0.2575097802483829 -1.505714208671249 1.0100313564240593 -1.2877553194548172 -0.7622220635494186 -0.3691717156163174
108 -0.2608955698121578 -1.5054382939140885 1.0143864075458364 -1.2924778487230701 -0.7505737032638616 -0.36665565162052527
109 -0.2642624893302669 -1.5051734070269973 1.018800614087131 -1.2972625643910451 -0.7389563630247677 -0.36432288870005514
110 -0.2676103380326486 -1.5049194833442325 1.0232729014746447 -1.3021109316272714 -0.7273723344336466 -0.36217232610203054
111 -0.27093893447743816 -1.5046764569881657 1.0278021281146308 -1.3070244351003848 -0.715824062095938 -0.36020284144143006
112 -0.2742481166639065 -1.504444260852862 1.0323870842474367 -1.3120045758178374 -0.7043141429850858 -0.3584132907234376
113 -0.27753774212776455 -1.5042228265903699 1.0370264907652342 -1.3170528675820654 -0.6928453255241106 -0.3568025084061478
114 -0.2809496177838069 -1.503953273928481 1.0420134173217195 -1.3221003902549082 -0.6815319403893686 -0.35536930747576445
115 -0.2843459129867199 -1.5036949645224529 1.0469875344192892 -1.3272263841161713 -0.6702343132817903 -0.35411584372793914
116 -0.2877270201410465 -1.5034470987679736 1.0519617208829721 -1.332430947762305 -0.6589601968707346 -0.3530403609110496
117 -0.29109325610412334 -1.5032090218833336 1.0569456387154292 -1.3377145723783506 -0.6477164558455069 -0.35214126382642014
118 -0.2944448774452499 -1.5029801944198844 1.0619464151601223 -1.3430780520406933 -0.6365092878630871 -0.351417080883042
119 -0.2977820926321818 -1.502760168992788 1.0669691776526478 -1.3485224120243158 -0.6253443972221671 -0.3508664341357227
120 -0.3011050716754505 -1.502548571956024 1.072017473138386 -1.3540488509379485 -0.6142271310207861 -0.35048801531081136
121 -0.3044139536902333 -1.5023450889995131 1.0770935965854462 -1.359658693456068 -0.6031625854643966 -0.3502805665503989
122 -0.30770885276618687 -1.50214945385122 1.0821988482640361 -1.3653533511432983 -0.5921556883527663 -0.3502428648168389
123 -0.31098986247224897 -1.501961439431976 1.0873337352092096 -1.3711342894284873 -0.5812112624875703 -0.3503737090851075
124 -0.3142570592676583 -1.5017808509430057 1.0924981290040732 -1.3770029992225465 -0.5703340737312764 -0.35067190960869127
125 -0.3175105050426035 -1.5016075204719783 1.0976913894325842 -1.3829609720158968 -0.559528866653224 -0.3511362786767973
126 -0.32075024897150234 -1.5014413027880122 1.1029124615101227 -1.3890096775604686 -0.5488003900752128 -0.3517656223898146
127 -0.3239763288281126 -1.5012820720636204 1.1081599517911758 -1.3951505434545657 -0.5381534143411725 -0.35255873306975993
128 -0.32718877188355805 -1.501129719315554 1.1134321885856333 -1.401384936119371 -0.5275927417559615 -0.3535143819965241
129 -0.32911578968483873 -1.5015759639394 1.1162222375587745 -1.408208566266501 -0.5162341128587153 -0.35463131222239136
130 -0.33106698545987095 -1.501985321696093 1.1197423837416773 -1.4150197867246315 -0.5053143629284867 -0.35587194139382855
131 -0.3330312071505361 -1.502369849569855 1.1238099600417895 -1.4218397140804837 -0.4947666383219966 -0.3572415758231036
132 -0.3349999950511682 -1.5027386858948517 1.1282862462540524 -1.4286845043496141 -0.4845407551692598 -0.35874312350140136
133 -0.3357722333260973 -1.503655868967427 1.1307375198446112 -1.4360067615327832 -0.4737921555632066 -0.3603777574603672
134 -0.3366125706236192 -1.5045044951561255 1.1341474882124478 -1.4432552447979654 -0.46363989175874604 -0.36211147696592094
135 -0.3374983927566824 -1.5053060615362652 1.1382492932042632 -1.450462745261801 -0.4539779485062743 -0.36395049240721783
136 -0.33841283702908564 -1.5060764113369745 1.1428458258221328 -1.457653506271613 -0.4447284369136299 -0.3658977884991207
137 -0.33934345198591465 -1.506827161735965 1.1477918903846474 -1.464844983890582 -0.4358344208774873 -0.3679540894388112
138 -0.3402811226770325 -1.5075667955538115 1.1529806767887054 -1.4720493917848798 -0.4272543956534671 -0.37011851988892175
139 -0.3412192355335152 -1.5083014813964977 1.1583336375593396 -1.4792749606222326 -0.41895813595085885 -0.3723890648264161
140 -0.3421530412567232 -1.5090356839348855 1.1637929753569678 -1.486526925458033 -0.4109236143978954 -0.3747628936420814
141 -0.34307917427038676 -1.5097726155536664 1.1693160978849433 -1.4938082825668102 -0.4031347324171178 -0.3772365908718398
142 -0.34399529294723014 -1.5105145694892328 1.174871540333281 -1.5011203616760238 -0.3955796580015423 -0.3798063217170665
143 -0.3448998116286864 -1.5112631650039827 1.1804359752976887 -1.5084632550569195 -0.38824961271544 -0.38246795150467167
144 -0.34579170174637236 -1.512019527525691 1.1859920249165274 -1.5158361377749392 -0.3811379893256752 -0.3852171323709905
145 -0.3466703446224498 -1.5127844208296568 1.1915266628462922 -1.5232375062283456 -0.37423971186775834 -0.38804936652324745
146 -0.3475354227335306 -1.5135583439268308 1.1970300488049839 -1.5306653558635952 -0.36755077300464284 -0.39096005273370177
147 -0.34838683949585086 -1.5143416020209024 1.2024946796688905 -1.5381173138776958 -0.3610679007748897 -0.39394452083170955
148 -0.3492246601355108 -1.515134358442731 1.2079147717928402 -1.5455907387349517 -0.3547883196081866 -0.39699805761604323
149 -0.3500490681067381 -1.5159366726505128 1.213285811942219 -1.553082795271908 -0.3487095799115403 -0.4001159266460473
150 -0.3508603329501102 -1.5167485280375677 1.2186042309884975 -1.5605905118579408 -0.3428294374543648 -0.40329338367429424
151 -0.35165878655222027 -1.5175698522951289 1.2238671668565242 -1.5681108243551198 -0.33714576885507136 -0.40652568897933716
152 -0.3524448055654956 -1.5184005323441403 1.229072292270334 -1.5756406103425364 -0.3316565131828682 -0.4098081174918026
153 -0.35321879833910375 -1.5192404253100698 1.2342176894828316 -1.583176716127943 -0.3263596323985752 -0.41313596734261243
154 -0.35398119515052645 -1.520089366617711 1.2393017590313251 -1.5907159783784874 -0.32125308533524705 -0.4165045672713095
155 -0.3547324408514282 -1.5209471759914843 1.244323153108036 -1.598255241697844 -0.3163348113605631 -0.41990928319548054
156 -0.3554729892802359 -1.5218136619331055 1.2492807267213715 -1.605791373110344 -0.31160272091312546 -0.4233455241446366
157 -0.3562032989694102 -1.5226886250921654 1.2541735017071036 -1.6133212741472842 -0.3070546908700715 -0.42680874769300486
158 -0.3569238298041572 -1.523571860830947 1.259000640017783 -1.6208418910392894 -0.3026885632612324 -0.4302944649776911
159 -0.3576350403835614 -1.52446316120153 1.2637614237125185 -1.6283502233813376 -0.29850214625197086 -0.43379824535584116
160 -0.35833738590390946 -1.5253623164926218 1.2684552397894666 -1.635843331539008 -0.29449321661392974 -0.437315720732527
161 -0.35903131643405795 -1.5262691164595292 1.2730815685244004 -1.6433183429947884 -0.2906595231201343 -0.4408425895769873
162 -0.35971727548906574 -1.5271833513187898 1.2776399743550175 -1.6507724577839267 -0.2869987904599172 -0.4443746206362759
163 -0.3603956988346334 -1.5281048125659304 1.282130098621854 -1.6582029531345082 -0.28350872338573974 -0.4479076563506267
164 -0.36106701347387954 -1.5290332936582085 1.286551653671767 -1.6656071874019651 -0.2801870108895906 -0.4514376159727045
165 -0.36173163678162695 -1.5299685905922573 1.2909044179699718 -1.672982603371029 -0.277031330269555 -0.4549604983924842
166 -0.3623899757611268 -1.5309105023980267 1.2951882319668688 -1.6803267309860102 -0.27403935099337484 -0.4584723846701404
167 -0.36304242640508944 -1.5318588315643258 1.2994029945375125 -1.6876371895616833 -0.27120873829975967 -0.46196944028058046
168 -0.36368937314779715 -1.5328133844069687 1.3035486598625712 -1.6949116895208303 -0.26853715650304355 -0.46544791707479477
169 -0.3643311883985134 -1.533773971387491 1.3076252346558617 -1.7021480336998924 -0.26602227198485523 -0.4689041549648089
170 -0.36496823214879615 -1.5347404073882815 1.31163277566923 -1.709344118260643 -0.2636617558694999 -0.47233458334056133
171 -0.3656008516479671 -1.535712511948505 1.3155713874236818 -1.7164979332429542 -0.2614532863890002 -0.47573572222840804
172 -0.3662293811421022 -1.53669010946418 1.3194412201284997 -1.7236075627913388 -0.25939455095016295 -0.47910418320212067
173 -0.36685414167265407 -1.5376730293550938 1.3232424677591137 -1.7306711850858452 -0.25748324792032257 -0.482436670058178
174 -0.3674754409313006 -1.538661106200774 1.3269753662708867 -1.7376870720059565 -0.2557170881510969 -0.48572997926784667
175 -0.36809357316792457 -1.5396541798474372 1.3306401919305266 -1.7446535885543317 -0.25409379626097667 -0.4889810002190204
176 -0.36870881914882014 -1.540652095487637 1.3342372597500818 -1.7515691920655108 -0.25261111169815864 -0.4921867152610502
177 -0.3693214461623345 -1.541654703714205 1.3377669220108632 -1.7584324312230313 -0.2512667896049661 -0.49534419956588005
178 -0.3699317080692203 -1.5426618605500035 1.3412295668664012 -1.7652419449068055 -0.25005860150465137 -0.49845062081872643
179 -0.37053984539501195 -1.5436734274549544 1.344625617014907 -1.7719964608910517 -0.24898433583048976 -0.5015032387513271
180 -0.3711460854617594 -1.5446892713117697 1.3479555284327978 -1.7786947944115827 -0.24804179831595904 -0.5044994045304676
181 -0.37175064255647616 -1.545709264391791 1.3512197891617486 -1.7853358466198297 -0.2472288122635334 -0.5074365600140881
182 -0.3723537181336726 -1.5467332843023127 1.3544189181425064 -1.7919186029396095 -0.24654321870827597 -0.5103122368868017
183 -0.3729555010493732 -1.5477612139167496 1.3575534640894067 -1.7984421313413606 -0.24598287649103504 -0.5131240556861394
184 -0.37355616782404566 -1.5487929412889743 1.3606240044001618 -1.8049055805473526 -0.24554566225467334 -0.5158697247302859
185 -0.374155882931909 -1.5498283595531333 1.3636311440960875 -1.8113081781802296 -0.24522947037541798 -0.5185470389575049
186 -0.37475479911413623 -1.5508673668102082 1.366575514788492 -1.8176492288661794 -0.24503221284012702 -0.5211538786868749
187 -0.3753530577135212 -1.5519098660025619 1.3694577736674745 -1.8239281123030324 -0.24495181907904565 -0.5236882083093884
188 -0.37595078902824325 -1.5529557647776635 1.3722786025098916 -1.8301442813026592 -0.24498623576247647 -0.5261480749178985
189 -0.3765481126824345 -1.554004975342152 1.3750387067037066 -1.8362972598161944 -0.245133426568723 -0.5285316068838519
190 -0.37714513801132826 -1.5550574143073486 1.37773881428639 -1.8423866409498202 -0.24539137192968327 -0.5308370123882141
191 -0.37774196445885144 -1.5561130025272853 1.380379674995451 -1.8484120849781178 -0.24575806875957515 -0.5330625779134849
192 -0.3783386819856069 -1.55717166493027 1.382962059329558 -1.8543733173613335 -0.2462315301714615 -0.5352066667032146
193 -0.3789353714852834 -1.5582333303449574 1.3854867576190697 -1.8602701267722874 -0.24680978518551253 -0.537267717194974
194 -0.37953210520762115 -1.5592979313218487 1.3879545791051067 -1.866102363138096 -0.2474908784322893 -0.5392442414322896
195 -0.3801289471861547 -1.5603654039510944 1.3903663510265978 -1.8718699357013637 -0.24827286985375105 -0.5411348234606487
196 -0.3807259536690502 -1.561435687677421 1.3927229177149905 -1.8775728111050265 -0.24915383440417865 -0.5429381177122912
197 -0.3813231735514491 -1.5625087251129601 1.3950251396965427 -1.8832110115045966 -0.2501318617527595 -0.5446528473841391
198 -0.38192064880782495 -1.5635844618487078 1.397273892802326 -1.8887846127111614 -0.2512050559891886 -0.5462778028128793
199 -0.3825184149229542 -1.5646628462652912 1.3994700672862324 -1.8942937423681245 -0.2523715353333088 -0.5478118398508917
200 -0.38311650132019565 -1.5657438293436832 1.401614566951438 -1.8997385781643414 -0.25362943184952624 -0.5492538782464209
201 -0.38494489071883464 -1.5662123976041007 1.4061695281193105 -1.904816792676658 -0.25554456539128134 -0.5506029000311093
202 -0.38670920007717485 -1.5667436193006106 1.4099212385888542 -1.9099589175236524 -0.2573278255440228 -0.5518866273678334
203 -0.3884236797311867 -1.5673230345318179 1.413071596553393 -1.9151342072112942 -0.2590345963308931 -0.5530964729959644
204 -0.39009894320219723 -1.56793988911642 1.4157697588198639 -1.920320132943336 -0.2607058292040262 -0.5542258003282997
205 -0.39174287085937176 -1.5685862024145867 1.4181258544948674 -1.9255001761512032 -0.262371624377212 -0.5552693915324752
206 -0.3933613032084993 -1.5692560578546644 1.420221191233828 -1.930662222294595 -0.2640539743806798 -0.5562230647501845
207 -0.3949585645780767 -1.5699450696927753 1.4221158174828932 -1.9357973919689486 -0.26576883769533716 -0.557083398458939
208 -0.3965378551764642 -1.5706499850944775 1.4238541120299348 -1.9408991889635592 -0.2675276929290782 -0.5578475325608457
209 -0.398101543036457 -1.5713683884501397 1.4254689098407844 -1.945962878026685 -0.269338697334874 -0.5585130244977501
210 -0.3996513806845983 -1.5720984822200297 1.4269845450930059 -1.950985029459207 -0.271207547244987 -0.5590777449574031
211 -0.4011886655948714 -1.5728389247599446 1.428419094519903 -1.9559631852074872 -0.27313811549833134 -0.5595398021663648
212 -0.40271435883771883 -1.5735887104336592 1.4297860307066945 -1.9608956136858047 -0.2751329228010917 -0.5598974868903434
213 -0.404229172725876 -1.574347081043432 1.431095440260441 -1.9657811295534984 -0.2771934858143949 -0.5601492324740059
214 -0.4057336355096464 -1.5751134604242085 1.432354921207862 -1.9706189611371192 -0.27932057393951015 -0.5602935858260645
215 -0.4072281391041821 -1.5758874061550192 1.433570243975589 -1.97540865285614 -0.2815143985884221 -0.5603291863823207
216 -0.4087129742830994 -1.576668573911492 1.4347458381534737 -1.9801499933966777 -0.2837747525891925 -0.5602547508906944
217 -0.410188356619881 -1.5774566911496566 1.435885150894341 -1.9848429628431703 -0.2861011127946277 -0.5600690624490868
218 -0.4116544456025265 -1.5782515376755106 1.4369909107466188 -1.9894876937790833 -0.28849271555661105 -0.5597709626528778
219 -0.41311135871263727 -1.5790529312944643 1.4380653218261752 -1.9940844426869162 -0.29094861220233864 -0.5593593460188458
220 -0.41455918179080903 -1.579860717207728 1.4391102066799542 -1.9986335689459058 -0.2934677097787831 -0.558833156078313
221 -0.4159979766633252 -1.580674760172147 1.440127111363286 -2.0031355194373788 -0.2960488009494856 -0.5581913826973132
222 -0.4174277867489644 -1.5814949386980732 1.441117382692546 -2.0075908172912413 -0.2986905859071437 -0.5574330603021199
223 -0.4188486411756711 -1.5823211407503643 1.4420822250112135 -2.0120000536925997 -0.3013916884124599 -0.5565572667765665
224 -0.4202605577973815 -1.5831532605582073 1.4430227418742179 -2.016363881951514 -0.304150667514542 -0.555563122861981
225 -0.4216635453984799 -1.5839911962431898 1.4439399666311272 -2.0206830132481746 -0.3069660260990662 -0.5544497919376166
226 -0.42305760529759684 -1.584834848051559 1.444834884839435 -2.024958213620054 -0.3098362171091416 -0.5532164800938351
227 -0.4244427325066526 -1.5856841170330265 1.4457084506662534 -2.029190301871269 -0.3127596480620549 -0.5518624364354008
228 -0.4258189165599648 -1.5865389040500848 1.4465615988673826 -2.0333801481681513 -0.3157346843219324 -0.5503869535705491
229 -0.4271861420980066 -1.587399109032467 1.4473952535133978 -2.037528673146715 -0.31875965146842195 -0.5487893682548295
230 -0.4285443892681746 -1.5882646304139822 1.4482103343235826 -2.0416368474031197 -0.3218328370133929 -0.5470690621684113
231 -0.429893633988592 -1.5891353647056152 1.4490077612411112 -2.045705691271594 -0.3249524916530076 -0.5452254628125583
232 -0.4312338481089884 -1.59001120617105 1.4497884577154008 -2.0497362748187915 -0.32811683019515064 -0.5432580445160252
233 -0.43256499949391475 -1.5908920465798184 1.4505533530342283 -2.053729718001485 -0.33132403226756285 -0.5411663295457283
234 -0.4338870520471271 -1.5917777750199233 1.451303383957361 -2.0576871909475933 -0.33457224288677084 -0.538949889318563
235 -0.4351999656912915 -1.5926682777566965 1.4520394958365537 -2.0616099143300306 -0.3378595729495498 -0.5366083457129525
236 -0.43650369631375807 -1.5935634381282495 1.4527626433574636 -2.0654991598097125 -0.34118409969539765 -0.5341413724798134
237 -0.4377981956866949 -1.5944631364705337 1.4534737910026982 -2.069356250528925 -0.34454386717898405 -0.5315486967532531
238 -0.43908341136811196 -1.5953672500669742 1.454173913308416 -2.0731825616396566 -0.3479368867847847 -0.5288301006615648
239 -0.4403592865890552 -1.596275653119072 1.4548639949671127 -2.076979520853816 -0.3513611378113804 -0.5259854230390362
240 -0.4416257601313828 -1.597188216735425 1.4555450308146045 -2.080748609003748 -0.35481456814965945 -0.5230145612387782
241 -0.44288276619994127 -1.5981048089373755 1.4562180257283859 -2.084491360602348 -0.3582950950769981 -0.5199174730462416
242 -0.44413023429257065 -1.5990252946800612 1.456883994456506 -2.088209364392497 -0.3618006061881148 -0.5166941786923507
243 -0.44523731382584214 -1.6000201420045332 1.457294285799012 -2.0919369666162964 -0.36527340885327725 -0.5133447629642454
244 -0.44633924297996624 -1.6010135221557602 1.4577748650163251 -2.095629957460145 -0.3687892041783809 -0.5098711086440266
245 -0.4474353644694341 -1.602006353327807 1.458307959644972 -2.0992930898061446 -0.3723402612790672 -0.5062736906769235
246 -0.4485251507783048 -1.6029993000027765 1.458880393492327 -2.102930449039812 -0.3759201967520751 -0.5025529870444347
247 -0.44960817144839144 -1.603992833505538 1.4594824748071384 -2.1065456247527217 -0.3795236424404054 -0.4987095007116022
248 -0.4506840683459977 -1.6049872781645804 1.4601071518851874 -2.1101418420469114 -0.3831459953912171 -0.4947437755069859
249 -0.4517525369693177 -1.6059828464467 1.4607493722433127 -2.1137220617053387 -0.38678322975251955 -0.4906564077510625
250 -0.4528133123290126 -1.6069796656714788 1.4614055965726622 -2.117289056448663 -0.39043175543204023 -0.48644805490780785
251 -0.4538661582916482 -1.6079777983111507 1.462073430265551 -2.1208454688653138 -0.3940883121202859 -0.482119442153574
252 -0.454910859546509 -1.608977257413227 1.4627513441820434 -2.1243938553153066 -0.3977498901016924 -0.4776713674885125
253 -0.45594721556145995 -1.6099780183207568 1.4634384631017046 -2.1279367191048606 -0.40141367139145845 -0.47310470582521486
254 -0.4569750360488147 -1.6109800275859611 1.464134405477499 -2.1314765354516503 -0.4050769863228031 -0.4684204123537063
255 -0.45799413757962304 -1.611983209758897 1.4648391620486234 -2.135015770161531 -0.40873728190343306 -0.4636195253852579
256 -0.45900434107357546 -1.6129874725690836 1.4655530038672993 -2.1385568934776886 -0.4123920991595611 -0.4587031688083422
257 -0.46000546995877717 -1.613992710893123 1.4662764125743237 -2.142102390211094 -0.4160390573641107 -0.4536725542404929
258 -0.46099734884624277 -1.6149988098062145 1.4670100274903906 -2.145654766992286 -0.41967584355738763 -0.4485289829242301
259 -0.4619798026020855 -1.6160056469431165 1.467754605405549 -2.149216557279619 -0.42330020615439223 -0.4432738473896095
260 -0.46295265572905153 -1.6170130943391443 1.46851098994749 -2.1527903246033113 -0.4269099517237796 -0.4379086328875467
261 -0.4639157319905591 -1.618021019880078 1.4692800881666903 -2.1563786644064304 -0.4305029442423751 -0.43243491858487665
262 -0.4648688542264808 -1.6190292884582191 1.4700628525507722 -2.1599842047545184 -0.4340771062935485 -0.42685437850273816
263 -0.46581184432186484 -1.6200377629078526 1.4708602671158406 -2.163609606118133 -0.4376304218008261 -0.42116878217334947
264 -0.46517955087628404 -1.6219042502213368 1.4687287064302195 -2.1676684267830972 -0.4405038257233889 -0.4153799949858873
265 -0.46461891343910827 -1.6236930210815277 1.4675721641428796 -2.171576679794695 -0.443653012973861 -0.40956365071206075
266 -0.46411381415713826 -1.6254227789419269 1.467127674600664 -2.175379463772562 -0.4469919924417816 -0.4037149864689956
267 -0.46365243948854523 -1.6271074428402617 1.4672026174465913 -2.1791110506949347 -0.45046006845711395 -0.39782950428354064
268 -0.4632261387231558 -1.6287572771224597 1.4676565280631435 -2.1827972857575992 -0.45401414396162654 -0.3919035654133257
269 -0.4628285737742263 -1.6303798069892823 1.4683873195688395 -2.1864576305744716 -0.4576234516210323 -0.385934501608206
270 -0.4624550909599849 -1.6319805293110266 1.469321003837401 -2.190106785120425 -0.4612659257009625 -0.3799205334031911
271 -0.4621022597873873 -1.6335634508899426 1.4704040945064432 -2.1937559302084844 -0.46492568231694675 -0.37386062652634033
272 -0.4617675360936278 -1.6351314897992664 1.4715980261217962 -2.1974136604642913 -0.46859125455682565 -0.3677543427390746
273 -0.4614490170149219 -1.636686771636419 1.4728750711234662 -2.2010866765623063 -0.4722543472215361 -0.36160170689317195
274 -0.46114526330507805 -1.6382308467295756 1.4742153612963462 -2.20478029497632 -0.47590895298473374 -0.3554030964597633
275 -0.4608551707905633 -1.639764848641452 1.4756047195581128 -2.2084988214860783 -0.47955072221624345 -0.34915915317781254
276 -0.46057787752863233 -1.6412896094481255 1.4770330842243378 -2.2122458239253318 -0.4831765121527662 -0.3428707139985623
277 -0.46031269682731046 -1.642805743375597 1.4784933653775185 -2.2160243308769427 -0.48678406359825754 -0.3365387578943989
278 -0.4614703307724864 -1.6435585181534638 1.4826768519548963 -2.2194447852272705 -0.49095956061901475 -0.33016436527799753
279 -0.4625988219386771 -1.644355610765384 1.4860421985888599 -2.2230689148485094 -0.49486787157556233 -0.3236453047861443
280 -0.46370184678493986 -1.6451850874645164 1.4888102408983672 -2.226860800261957 -0.49856258427296535 -0.3169986361958431
281 -0.464782212710231 -1.646038165974789 1.4911448999533163 -2.2307949277976666 -0.5020853123427319 -0.31023748488116304
282 -0.46584203178756045 -1.646908361358797 1.4931678381870672 -2.2348533997449653 -0.5054679583239468 -0.3033722318044957
283 -0.46688286247574123 -1.647790869237791 1.49496936380132 -2.2390238852149422 -0.508734776230741 -0.2964113362164991
284 -0.4663620473376251 -1.6495214695316658 1.4936695393000778 -2.2437320381771624 -0.5112581484338292 -0.28936190073471507
285 -0.4659005187276163 -1.651184295011171 1.4932471540666155 -2.2483402137149784 -0.5140171987185596 -0.2823553130132821
286 -0.46548456001745614 -1.652795986650736 1.4934598732821462 -2.252890960270352 -0.5169354454623332 -0.2753770169753738
287 -0.465104365688518 -1.6543687091111703 1.494132790069449 -2.257416182368344 -0.5199601004194633 -0.2684153203319971
288 -0.4647528889606227 -1.6559112953746007 1.4951401187047666 -2.261939594224181 -0.5230545820147952 -0.2614613228083003
289 -0.4644250370308718 -1.6574301338777624 1.4963916427367432 -2.2664787744992996 -0.5261934979038094 -0.25450848349254424
290 -0.46411710344112556 -1.6589298359454765 1.4978227982640442 -2.271046775752525 -0.5293592473918927 -0.2475521301249411
291 -0.4638263657851731 -1.6604137289919045 1.4993874694326745 -2.2756533428779973 -0.5325396948667557 -0.24058901923311835
292 -0.4635508000616866 -1.6618842168146506 1.501052779181661 -2.2803058180479896 -0.5357265606885742 -0.23361697643184925
293 -0.46328887776228006 -1.6633430407919967 1.5027953350754901 -2.2850098051469896 -0.5389142992443255 -0.22663461548586655
294 -0.4630394217567687 -1.6647914682407008 1.504598530300958 -2.289769654104326 -0.5420993117816751 -0.21964112454305615
295 -0.4628015039760691 -1.6662304277341866 1.5064506068635837 -2.294588812292889 -0.5452793915667687 -0.21263610607846672
296 -0.4625743727952637 -1.6676606060448036 1.5083432678337771 -2.299470078702392 -0.5484533314943828 -0.20561945832116357
297 -0.46376815144608186 -1.6683314245025695 1.5129962722385804 -2.3040050752461068 -0.5521995638841789 -0.19859128806787393
298 -0.46493291622916744 -1.6690460740293376 1.5168027692945552 -2.308809013316077 -0.5556714349316302 -0.19140134101317685
299 -0.4668273701066555 -1.6697367158643148 1.5201965198121683 -2.3138435708697904 -0.5593889734880694 -0.18407780609540514
300 -0.4685900522015538 -1.6704630305156443 1.5230459907610283 -2.3191007281268172 -0.5628342651142099 -0.1765742634285891
301 -0.47176117877183515 -1.6703913395951342 1.5284618364772784 -2.32410884221006 -0.5666872711386117 -0.16891864988730868
302 -0.47474626544623366 -1.6703725295484586 1.5327145471684958 -2.3295107056303026 -0.5699938736290968 -0.16096243525032952
303 -0.475932112198734 -1.6712872631413487 1.5330022167275545 -2.3357242568107366 -0.572180095615427 -0.15276399701122637
304 -0.47705989569734525 -1.6721893578919227 1.533688219283241 -2.3420045116612087 -0.5744302503600478 -0.14455272041772005
305 -0.47812848877392233 -1.6730829919088321 1.5346804667627165 -2.3483694871069924 -0.576717899906145 -0.1363282370822475
306 -0.47913790730731237 -1.673971096391897 1.5359118779927037 -2.354833137841976 -0.579025810701018 -0.12809156129055527
307 -0.4800889616258767 -1.674855695489395 1.5373335594358501 -2.361406237103844 -0.581343422204404 -0.11984483613986098
308 -0.48098299059011906 -1.6757381597789738 1.5389098081344015 -2.3680970889638964 -0.5836650168986057 -0.11159104097832795
309 -0.4818216630093951 -1.6766193933632805 1.5406144664559636 -2.3749120871778127 -0.5859883928576128 -0.10333371879166588
310 -0.4826068318711491 -1.677499970850645 1.5424282723554996 -2.3818561461251497 -0.5883138968698586 -0.09507674528333045
311 -0.48334042902276164 -1.6783802369589746 1.5443369389551396 -2.388933029983658 -0.5906437170802603 -0.08682414413874717
312 -0.48402439034647676 -1.6792603784816422 1.546329766352686 -2.3961456031310973 -0.5929813631373635 -0.07857994542882361
313 -0.4846606036564927 -1.6801404759466245 1.5483986406571453 -2.4034960206025597 -0.5953312823209342 -0.07034808130684483
314 -0.48525087337791306 -1.681020540429664 1.550537314057319 -2.4109858734195293 -0.5976985746332993 -0.06213231258466237
315 -0.4857968975286142 -1.6819005395584654 1.5527408884162064 -2.4186163001675354 -0.6000887801615475 -0.05393618019064958
316 -0.4863002536592647 -1.682780415675875 1.555005445970887 -2.4263880734186296 -0.6025077194021591 -0.04576297629865703
317 -0.4867623912711076 -1.6836600983347985 1.5573277861544859 -2.434301667422278 -0.6049613725455414 -0.037615730780818785
318 -0.4871846288818145 -1.6845395127101235 1.5597052388223391 -2.442357311827066 -0.6074557875440374 -0.029497209446436877
319 -0.48756815439536233 -1.6854185850810417 1.5621355323657786 -2.450555034943878 -0.6099970095532964 -0.02140992123408946
320 -0.48791402779210236 -1.68629724622091 1.5646167011557044 -2.458894699127719 -0.6125910263406891 -0.013356132113454109
321 -0.48822318542117127 -1.6871754333008686 1.567147021080494 -2.467376030164411 -0.6152437257077359 -0.005337883933744746
322 -0.48849644537311554 -1.6880530907452613 1.569724965073785 -2.475998642040064 -0.6179608620284351 0.0026429831592778997
323 -0.488734513554258 -1.6889301703546544 1.5723491727929237 -2.484762058098926 -0.6207480297716599 0.010584805810767671
324 -0.48893799018955253 -1.6898066309235644 1.5750184302460049 -2.49366572932372 -0.6236106424327886 0.018486070882323506
325 -0.489107376557616 -1.690682437515769 1.5777316563474317 -2.5027090502752767 -0.6265539157049989 0.02634538786249921
326 -0.48924308181780474 -1.6915575605136237 1.5804878942345832 -2.5118913730854566 -0.6295828540159236 0.03416146076448861
327 -0.4893454298301643 -1.692431974524288 1.583286305792725 -2.5212120197943366 -0.6327022397709569 0.04193305990157136
328 -0.4894146658988973 -1.6933056572016065 1.5861261682778918 -2.530670293248686 -0.6359166248023767 0.04965899384521768
329 -0.4894509633916531 -1.6941785880250384 1.5890068722460169 -2.540265486725932 -0.6392303236395768 0.05733808180524567
330 -0.4894544302026322 -1.6950507470645884 1.5919279202256713 -2.5499968924103396 -0.6426474083015806 0.06496912662152962
331 -0.4894251150388129 -1.6959221137518075 1.5948889257365009 -2.559863808821763 -0.6461717043770042 0.07255088851884937
332 -0.4893630135167206 -1.6967926656706207 1.5978896123738107 -2.569865547279011 -0.6498067882047261 0.08008205974767821
333 -0.4892680740629163 -1.6976623773772743 1.6009298127648406 -2.5800014374672924 -0.6535559850050434 0.08756124021174584
334 -0.4891402036154168 -1.6985312192555782 1.6040094672634753 -2.5902708321707806 -0.6574223678391119 0.09498691416626942
335 -0.4889792731260186 -1.6993991564114392 1.6071286222942123 -2.600673111225809 -0.6614087572962044 0.10235742805736112
336 -0.4887851228653264 -1.7002661476092151 1.610287428288061 -2.6112076847466494 -0.6655177218252981 0.10967096956212244
337 -0.488557567533435 -1.7011321442514173 1.6134861371761635 -2.621873995673609 -0.6697515786408273 0.11692554787937617
338 -0.48829640117985634 -1.7019970894026504 1.616725099423835 -2.632671521691698 -0.6741123951428382 0.12411897531209372
339 -0.488001401936575 -1.702860916858273 1.620004760600222 -2.643599776567022 -0.6786019907997625 0.13124885017373117
340 -0.48767233656815256 -1.7037235502580275 1.623325657488165 -2.6546583109468953 -0.6832219394479181 0.13831254104139257
341 -0.4873089648426741 -1.7045849022447643 1.6266884137460187 -2.6658467126682783 -0.6879735719658324 0.14530717236860974
342 -0.4869110437270989 -1.7054448736683292 1.6300937351387916 -2.677164606617104 -0.6928579792837041 0.15222961145928454
343 -0.4864783314103058 -1.7063033528346847 1.6335424043604359 -2.6886116541782927 -0.6978760156888091 0.1590764567917923
344 -0.48601059115684503 -1.70716021480035 1.6370352754727266 -2.7001875523124417 -0.7030283023864613 0.16584402766830914
345 -0.48550759499417095 -1.7080153207122786 1.6405732679891312 -2.711892032290166 -0.7083152312732564 0.17252835514910006
346 -0.4849691272359585 -1.7088685171933315 1.6441573606344233 -2.723724858108733 -0.7137369688747769 0.1791251742148898
347 -0.4843949878440329 -1.7097196357735411 1.6477885848126357 -2.735685824607765 -0.7192934603937313 0.18562991708271706
348 -0.48378499563148664 -1.7105684923674045 1.6514680178171945 -2.7477747552913083 -0.7249844338066822 0.19203770758212155
349 -0.4831389913097403 -1.7114148867974868 1.6551967758177508 -2.7599914998524038 -0.7308094039381596 0.19834335647948143
350 -0.48245684038263775 -1.7122586023646755 1.6589760066581964 -2.7723359313833007 -0.7367676764301345 0.20454135761923353
351 -0.48173843589116133 -1.7130994054654947 1.6628068824995743 -2.784807943239676 -0.7428583515126761 0.21062588473204968
352 -0.48098370101301485 -1.7139370452569873 1.6666905923399504 -2.797407445510556 -0.7490803274682838 0.21659078874233748
353 -0.48019259152214666 -1.7147712533698158 1.6706283344407302 -2.8101343610270764 -0.7554323036680328 0.2224295953912364
354 -0.47936509811427414 -1.7156017436704143 1.6746213086852715 -2.822988620822728 -0.7619127830425015 0.22813550297715882
355 -0.4785012486056066 -1.716428212073278 1.678670708890904 -2.835970158935318 -0.7685200738346392 0.23370138000443802
356 -0.47760111001323524 -1.7172503364048102 1.6827777150895462 -2.849078906416368 -0.7752522904654934 0.23911976252233882
357 -0.4766647905270449 -1.7180677763205694 1.6869434857849592 -2.8623147843871077 -0.78210735332722 0.2443828509320733
358 -0.47569244138448247 -1.7188801732782943 1.691169150186279 -2.875677695951275 -0.789082987301224 0.24948250603902658
359 -0.474684258661056 -1.719687150569748 1.6949967653401823 -2.892839797284586 -0.7978587649379035 0.24690677466833963
360 -0.47363404415136673 -1.720470628065181 1.6993675621150959 -2.9093332023300165 -0.8067017020824411 0.24451404670747331
361 -0.47253451327362056 -1.7212397915024573 1.7040781611049634 -2.92531509826643 -0.8155851955516991 0.24226640833042346
362 -0.47138198723096175 -1.7220002894394542 1.7089978104821726 -2.9408887109013793 -0.8244905051254644 0.24013748727067177
363 -0.4701751604518314 -1.7227554688225712 1.7140426148301733 -2.9561225651648217 -0.8334026156424859 0.23810806440580323
364 -0.4689142785591522 -1.723507188875797 1.7191588177828756 -2.971063082769713 -0.8423085717821167 0.23616337278991606
365 -0.46760059538005233 -1.724256352025832 1.724312020799408 -2.9857426557594073 -0.8511968242244611 0.23429146378194127
366 -0.4662360149080722 -1.7250032486854905 1.7294802464058274 -3.000184780398684 -0.8600569836201551 0.2324822248667953
367 -0.46482285438912935 -1.7257477807265198 1.7346494803659742 -3.014407306856046 -0.8688797269979072 0.23072679096424553
368 -0.46336368638019687 -1.7264896062583803 1.7398108094749205 -3.0284244864549312 -0.868983872783357 0.22811032847047252
369 -0.46201072953303524 -1.727203355009111 1.7450819003856077 -3.0422878160631535 -0.8783544906215704 0.22631928419687833
370 -0.4605979644583805 -1.727918372144921 1.7502800852935407 -3.055991820553114 -0.8786862497366285 0.22375900179690125
371 -0.459284449263404 -1.7286079660476315 1.7555406376262659 -3.069563703881868 -0.8792242891939316 0.22114542365515766
372 -0.4580613077638507 -1.7292748361326922 1.7608241632849593 -3.083005695573367 -0.8896302206501515 0.21922450915876524
373 -0.45820856084792166 -1.7292025123481334 1.7687857954156387 -3.0959403728353996 -0.8907889311441305 0.2166749784593069
374 -0.45834616080914625 -1.729154784234329 1.775750108914064 -3.109493561534318 -0.891954085325841 0.2139796256838279
375 -0.4584790238336937 -1.7291211493285044 1.782046470582319 -3.1234150397105407 -0.893161321414251 0.2111796470433723
376 -0.4586098603292023 -1.7290947580635723 1.787891023379504 -3.1375325944419834 -0.8944321455987561 0.20830418401624617
377 -0.45873998953979517 -1.7290711670234773 1.7934245781661216 -3.1517292813494646 -0.895778208615489 0.2053735555239864
378 -0.45886987068285073 -1.7290475057221943 1.7987384298377036 -3.1659256360153 -0.8972046162277428 0.20240201096220414
379 -0.4589994446203251 -1.7290219286747348 1.8038915139156941 -3.1800671213650595 -0.8987122526878234 0.1993997262461804
380 -0.4591283520259654 -1.728993257764952 1.8089216776904447 -3.1941156100972967 -0.9002993351942071 0.19637417240577493
381 -0.45925607175813477 -1.728960749757516 1.8138530442051746 -3.2080436819835394 -0.9019624264283891 0.1933310375178124
382 -0.4593820077810748 -1.72892394566439 1.820274388052237 -3.209242175594229 -0.9038118796129188 0.1931974525058773
383 -0.4594659045239616 -1.7289367712221217 1.8252085161751253 -3.2106167470634697 -0.9055892780668475 0.19311054004332306
384 -0.4595146950995295 -1.7289861708332648 1.829043545606005 -3.212121292612924 -0.9073066069928563 0.19305624338476646
385 -0.45953358007813294 -1.7290625309610879 1.8300582941131602 -3.2297873207675436 -0.9087388120131913 0.1893904290774423
386 -0.4595777203571592 -1.7290894950892428 1.834274401337897 -3.2311807015728156 -0.9104761688144964 0.1892327102127738
387 -0.4595906116847203 -1.7291468973947557 1.837574246412104 -3.2326817199489684 -0.9121620149573009 0.1891014333296712
388 -0.459576617744015 -1.7292267519684867 1.8401967266132842 -3.2342618349593533 -0.9138040133331421 0.18898785796225467
389 -0.4595391304142629 -1.7293231558644055 1.842318567806117 -3.2358998600342996 -0.9154082725461129 0.18888549505703206
390 -0.4594808416094987 -1.7294317380325896 1.84407047822519 -3.237580069474989 -0.9169796465421515 0.188789524484232
391 -0.45940393055297674 -1.729549256138632 1.8455491105306827 -3.2392907888037743 -0.918522000257761 0.18869636349426472
392 -0.45931019501690656 -1.729673300740742 1.8468259175723982 -3.241023347071274 -0.9200384298286363 0.18860334701623338
393 -0.45920114468106804 -1.729802077758459 1.847953707474218 -3.2427712990936 -0.9215314382593156 0.1885084907841286
394 -0.45907806841518756 -1.7299342482415865 1.8489714952108187 -3.2445298485617196 -0.9230030722925433 0.18841031580255452
395 -0.4589420833256152 -1.7300688101927273 1.8499080930519363 -3.2462954204092034 -0.9244550274591004 0.18830771824624404
396 -0.45879417087714625 -1.7302050113190715 1.8507847674692053 -3.248065343967876 -0.9258887279416556 0.18819987301910243
397 -0.4586352037508934 -1.7303422845681395 1.8516172050586437 -3.2498376182919864 -0.9273053869447431 0.18808616225449906
398 -0.45846596600008965 -1.730480200467347 1.8524169670478163 -3.2516107383889747 -0.9287060521974873 0.1879661222993508
399 -0.4582871683193317 -1.7306184318679085 1.8531925653183354 -3.253383566576537 -0.9300916402294241 0.18783940439780605
400 -0.4580994597271572 -1.7307567278515372 1.853950258343089 -3.255155237262652 -0.9314629622245683 0.18770574552929997
401 -0.45790343660041993 -1.7308948944088551 1.8546946398721078 -3.2569250864736548 -0.9328207435852406 0.18756494677349597
402 -0.45769964974249994 -1.7310327801243162 1.8554290742742954 -3.2586925997029703 -0.9341656388097824 0.18741685725464005
403 -0.45748860998367935 -1.7311702655637031 1.856156018431108 -3.2604573733199076 -0.9354982428833005 0.18726136222182396
404 -0.457270792679382 -1.7313072554005795 1.856877259706583 -3.262219086013424 -0.9368191000736563 0.18709837419520375
405 -0.457046641375638 -1.7314436725693467 1.8575940918409886 -3.2639774776611916 -0.9381287107944135 0.1869278263851219
406 -0.45681657084082977 -1.731579453918198 1.8583074449331127 -3.265732333692366 -0.9394275370244629 0.18674966779634392
407 -0.45658096961127903 -1.7317145469724502 1.8590179814708023 -3.267483473514544 -0.9407160066463109 0.18656385958177524
408 -0.4563402021604071 -1.7318489075201664 1.8597261672571712 -3.269230741947156 -0.9419945169704589 0.1863703723228072
409 -0.4560946107733472 -1.7319824978069704 1.860432323776951 -3.270974002878688 -0.9432634376434738 0.18616918399703436
410 -0.4558445171883376 -1.7321152851824153 1.8611366668434646 -3.2727131345687863 -0.9445231130858698 0.18596027845603905
411 -0.45559022405103916 -1.7322472410812826 1.8618393351060034 -3.2744480261670006 -0.9457738645680048 0.18574364428185153
412 -0.45533201621667524 -1.7323783402535178 1.8625404110647454 -3.2761785751314165 -0.9470159920042962 0.18551927392471493
413 -0.455070161926555 -1.7325085601789456 1.8632399365504686 -3.277904685312932 -0.9482497755255258 0.1852871630499924
414 -0.45480491387934535 -1.732637880619499 1.8639379241160403 -3.279626265531945 -0.9494754768739017 0.18504731004073005
415 -0.45453651021284214 -1.732766283273966 1.8646343654092887 -3.281343228519364 -0.9506933406544177 0.18479971561622505
416 -0.4542651754085454 -1.7328937515093392 1.8653292373177952 -3.283055490127233 -0.9519035954678603 0.18454438253719826
417 -0.45399112112876355 -1.7330202701495605 1.866022506469798 -3.2847629687389377 -0.9531064549447652 0.18428131537576353
418 -0.4537145469940297 -1.733145825307424 1.8667141325228434 -3.2864655848272286 -0.9543021186951579 0.18401052033400941
419 -0.45343564130714487 -1.7332704042490692 1.8674040705590365 -3.288163260621785 -0.9554907731856024 0.18373200509917642
420 -0.45315458172905 -1.7333939952832178 1.8680922728223845 -3.2898559198580184 -0.9566725925526206 0.18344577872649875
421 -0.45287153591087276 -1.7335165876693137 1.868778689972116 -3.291543487586199 -0.9578477393597115 0.18315185154306632
422 -0.4525866620858371 -1.7336381715402192 1.8694632719803264 -3.293225890025428 -0.9590163653038204 0.18285023506775733
423 -0.4523001096242084 -1.7337587378362167 1.8701459687686661 -3.294903054451025 -0.9601786118760699 0.18254094194354822
424 -0.4520120195540439 -1.7338782782478863 1.87082673065393 -3.2965749091068552 -0.9613346109807753 0.18222398587943792
425 -0.4517225250501918 -1.733996785166031 1.871505508654053 -3.2982413831363475 -0.9624844855161592 0.18189938159991523
426 -0.4514317518937232 -1.7341142516372705 1.872182254692463 -3.2999024065275595 -0.9636283499197102 0.18156714480041017
427 -0.4511398189037644 -1.7342306713242595 1.8728569217287245 -3.3015579100688575 -0.9647663106807639 0.1812272921075513
428 -0.45084683834351824 -1.734346038469731 1.8735294638360316 -3.3032078253126693 -0.9658984668225837 0.1808798410433342
429 -0.4505529163021116 -1.734460347863753 1.8741998362406396 -3.3048520845454177 -0.9670249103559891 0.18052480999251697
430 -0.4502581530537758 -1.7345735948137209 1.8748679953343186 -3.306490620762227 -0.9681457267063771 0.18016221817271647
431 -0.4499626433957538 -1.7346857751167117 1.8755338986679349 -3.308123367645364 -0.9692609951158231 0.17979208560679596
432 -0.4496664769662264 -1.7347968850339082 1.876197504932084 -3.3097502595456247 -0.9703707890218081 0.17941443309722352
433 -0.449369738543463 -1.7349069212668502 1.8768587739290903 -3.311371231466085 -0.9714751764140002 0.1790292822021462
434 -0.4490725083273204 -1.7350158809353236 1.877517666539498 -3.312986219047774 -0.9725742201704122 0.17863665521297598
435 -0.4487748622041404 -1.735123761556725 1.8781741446853126 -3.31459515855694 -0.9736679783741683 0.17823657513332064
436 -0.44847687199603203 -1.735230561026769 1.8788281712916055 -3.3161979868736466 -0.9747565046120271 0.17782906565912213
437 -0.4481786056954597 -1.7353362776014227 1.8794797102476288 -3.3177946414815103 -0.9758398482557354 0.1774141511598873
438 -0.44788012768600594 -1.7354409098799704 1.8801287263682425 -3.31938506045843 -0.9769180547272179 0.17699185666091333
439 -0.44758149895012117 -1.735544456789122 1.8807751853562034 -3.3209691824681835 -0.9779911657485458 0.17656220782642373
440 -0.4472827772646263 -1.7356469175680893 1.8814190537656836 -3.322546946752801 -0.9790592195775706 0.17612523094354116
441 -0.44698401738468735 -1.73574829175456 1.8820602989672552 -3.3241182931256343 -0.9801222512300534 0.17568095290703276
442 -0.44668527121693885 -1.7358485791715106 1.8826988891144767 -3.3256831619650633 -0.9811802926890737 0.1752294012047701
443 -0.4463865879823921 -1.7359477799148024 1.8833347931121556 -3.327241494208786 -0.9822333731024513 0.17477060390385193
444 -0.44608801436972856 -1.7360458943415067 1.8839679805863065 -3.328793231348644 -0.9832815189688751 0.17430458963734283
445 -0.4457895946795408 -1.7361429230589147 1.8845984218557936 -3.330338315425949 -0.9843247543133888 0.17383138759158467
446 -0.4454913709600533 -1.7362388669141875 1.8852260879056197 -3.331876689027272 -0.9853631008528494 0.17335102749404202
447 -0.44519338313482154 -1.7363337269846064 1.8858509503618137 -3.3334082952806643 -0.9863965781519314 0.17286353960164483
448 -0.4448956691228807 -1.7364275045683855 1.8864729814678505 -3.33493307785229 -0.9874252037702259 0.17236895468959554
449 -0.44459826495178656 -1.7365202011760112 1.88709215406254 -3.3364509809434324 -0.9884489934009427 0.17186730404060907
450 -0.4443012048639658 -1.7366118185220774 1.8877084415593106 -3.33796194928786 -0.9894679610016996 0.17135861943455746
451 -0.44400452141676816 -1.7367023585175834 1.8883218179268173 -3.339465928149525 -0.9904821189178525 0.17084293313849194
452 -0.4437082455765906 -1.736791823262668 1.8889322576708016 -3.340962863320578 -0.9914914779987944 0.17032027789701795
453 -0.44341240680742144 -1.7368802150397522 1.8895397358171344 -3.3424527011196723 -0.9924960477076269 0.16979068692299937
454 -0.44311703315413203 -1.736967536307064 1.890144227895972 -3.343935388390549 -0.9934958362245819 0.1692541938885708
455 -0.44282215132082536 -1.737053789692524 1.8907457099269598 -3.345410872500875 -0.9944908505445544 0.1687108329164371
456 -0.44252778674453164 -1.7371389779879673 1.8913441584054227 -3.3468791013413233 -0.9954810965690795 0.16816063857144167
457 -0.44223396366452467 -1.7372231041436819 1.89193955028948 -3.348340023324881 -0.9964665791930736 0.16760364585238557
458 -0.44194070518751716 -1.7373061712632438 1.8925318629880274 -3.3497935873863636 -0.9974473023866378 0.16703989018408102
459 -0.4416480333489771 -1.7373881825986308 1.8931210743495335 -3.3512397429821266 -0.9984232692722047 0.16646940740962374
460 -0.44135596917079395 -1.7374691415455958 1.8937071626515989 -3.3526784400899565 -0.9993944821972934 0.16589223378286982
461 -0.4410645327155097 -1.7375490516392864 1.8942901065912294 -3.354109629209131 -1.0003609428031244 0.1653084059611036
462 -0.4407737431373179 -1.7376279165500916 1.894869885275776 -3.355533261360633 -1.001322652089327 0.16471796099788388
463 -0.44048361873002 -1.7377057400797058 1.8954464782145013 -3.3569492880875114 -1.0022796104749634 0.1641209363360568
464 -0.4401941769721208 -1.7377825261573914 1.8960198653107292 -3.3583576614553654 -1.0032318178560757 0.16351736980092427
465 -0.4399054345692297 -1.7378582788364314 1.8965900268545406 -3.359758334052957 -1.0041792736599553 0.16290729959355796
466 -0.4396174074939287 -1.7379330022907586 1.8971569435159776 -3.3611512589929275 -1.0051219768963162 0.16229076428424888
467 -0.4393301110232563 -1.738006700811749 1.8977205963387251 -3.3625363899126155 -1.0060599262055514 0.16166780280608403
468 -0.43904355977394893 -1.7380793788051707 1.8982809667342337 -3.363913680974963 -1.0069931199042317 0.16103845444864157
469 -0.43875776773557185 -1.7381510407882768 1.8988380364762574 -3.365283086869502 -1.007921556028006 0.16040275885179683
470 -0.43847274830166577 -1.7382216913870348 1.8993917876957749 -3.3666445628134145 -1.0088452323720456 0.15976075599963205
471 -0.4381885142990264 -1.738291335333481 1.8999422028762696 -3.3679980645526477 -1.0097641465291727 0.15911248621444293
472 -0.4379050780152275 -1.738359977463195 1.9004892648493434 -3.3693435483630942 -1.0106782959257994 0.158457990150836
473 -0.43762245122449295 -1.738427622712883 1.9010329567906377 -3.3706809710518097 -1.0115876778558024 0.15779730878991083
474 -0.43734064521201477 -1.7384942761180657 1.9015732622160442 -3.3720102899582765 -1.0124922895124457 0.15713048343352176
475 -0.4370596707968107 -1.7385599428108625 1.9021101649781802 -3.373331462955694 -1.0133921280184603 0.1564575556986143
476 -0.43677953835320793 -1.7386246280178648 1.9026436492631118 -3.3746444484522997 -1.0142871904543833 0.1557785675116314
477 -0.43650025783103524 -1.7386883370580941 1.9031736995873048 -3.3759492053927045 -1.0151774738852515 0.1550935611029853
478 -0.4362218387746005 -1.7387510753410393 1.903700300794786 -3.377245693259246 -1.0160629753857406 0.15440257900159124
479 -0.43594429034052684 -1.7388128483647651 1.9042234380545005 -3.3785338720733447 -1.0169436920638355 0.15370566402945915
480 -0.43566762131451486 -1.7388736617140896 1.9047430968578476 -3.379813702396866 -1.0178196210831096 0.15300285929634
481 -0.4353918401270966 -1.7389335210588257 1.9052592630163827 -3.3810851453334756 -1.0186907596836932 0.1522942081944238
482 -0.43511695486844093 -1.7389924321520809 1.9057719226596688 -3.3823481625299876 -1.0195571052019978 0.15157975439308632
483 -0.434842973302268 -1.7390504008286118 1.9062810622332695 -3.3836027161777014 -1.0204186550892662 0.15085954183368191
484 -0.434569902878926 -1.7391074330032303 1.9067866684968668 -3.3848487690137175 -1.0212754069290109 0.15013361472438008
485 -0.43429775074768145 -1.7391635346692569 1.9072887285224966 -3.3860862843222352 -1.0221273584534 0.14940201753504354
486 -0.4340265237682703 -1.7392187118970177 1.9077872296928886 -3.387315225935823 -1.0229745075586476 0.14866479499214574
487 -0.43375622852175444 -1.7392729708323837 1.9082821596999011 -3.38853555823666 -1.0238168523194608 0.1479219920737263
488 -0.43348687132072655 -1.7393263176953462 1.9087735065430458 -3.3897472461577425 -1.024654391002595 0.14717365400438223
489 -0.4332184582189019 -1.7393787587786282 1.9092612585280857 -3.390950255184058 -1.0254871220795618 0.14641982625029373
490 -0.4329509950201359 -1.739430300446329 1.9097454042657054 -3.392144551353717 -1.0263150442385374 0.14566055451428336
491 -0.43268448728690106 -1.7394809491325975 1.910225932670244 -3.3933301012590413 -1.0271381563955093 0.14489588473090692
492 -0.43241894034825784 -1.739530711340335 1.9107028329584819 -3.394506872047613 -1.027956457704705 0.14412586306157535
493 -0.43215435930734963 -1.7395795936399223 1.911176094648476 -3.395674831423267 -1.0287699475683365 0.14335053588970648
494 -0.43189074904845165 -1.7396276026679713 1.911645707558439 -3.3968339476470426 -1.029578625645698 0.14256994981590584
495 -0.4316281142436012 -1.7396747451260985 1.912111661805653 -3.397984189538073 -1.0303824918616484 0.14178415165317573
496 -0.4313664593588354 -1.7397210277797188 1.9125739478054153 -3.3991255264744282 -1.0311815464145107 0.1409931884221519
497 -0.43110578866006066 -1.739766457456857 1.9130325562700101 -3.4002579283938994 -1.0319757897834179 0.14019710734636723
498 -0.4308461062185771 -1.7398110410469776 1.913487478207702 -3.401381365794722 -1.0327652227351327 0.1393959558475421
499 -0.43058741591627947 -1.7398547854998299 1.9139387049217451 -3.4024958097362403 -1.0335498463303674 0.1385897815409007
500 -0.4303297214505547 -1.7398976978243068 1.9143862280094073 -3.4036012318395117 -1.0343296619296287 0.13777863223051326
501 -0.430073026338896 -1.7399397850873184 1.9148300393610005 -3.4046976042878474 -1.0351046711986125 0.13696255590466375
502 -0.42981733392325044 -1.7399810544126753 1.9152701311589195 -3.405784899827287 -1.0358748761131666 0.13614160073124285
503 -0.42956264737411815 -1.7400215129799854 1.915706495876681 -3.4068630917670104 -1.036640278963848 0.1353158150531661
504 -0.4293089696944179 -1.7400611680235596 1.916139126277962 -3.4079321539796803 -1.0374008823600893 0.134485247383817
505 -0.4290563037231352 -1.7401000268313265 1.9165680154156355 -3.40899206090172 -1.038156689233996 0.13364994640251515
506 -0.4288046521387664 -1.740138096743756 1.9169931566308003 -3.410042787533521 -1.0389077028437912 0.1328099609500092
507 -0.428554017462572 -1.7401753851527908 1.9174145435517993 -3.4110843094395804 -1.0396539267769247 0.13196534002399476
508 -0.428304402061652 -1.7402118995007838 1.917832170093231 -3.412116602748572 -1.0403953649528626 0.1311161327746575
509 -0.428055808151855 -1.7402476472794428 1.9182460304549445 -3.413139644153345 -1.04113202162557 0.13026238850024105
510 -0.42780823780053173 -1.7402826360287809 1.918656119121022 -3.4141534109108496 -1.0418639013857054 0.12940415664264032
511 -0.4275616929291438 -1.740316873336071 1.9190624308587443 -3.4151578808419973 -1.0425910091625357 0.12854148678302005
512 -0.4273161753157373 -1.7403503668348068 1.9194649607175365 -3.4161530323314446 -1.0433133502255874 0.12767442863745881
513 -0.4270716865972902 -1.7403831242036665 1.9198637040278979 -3.4171388443273054 -1.0440309301860435 0.12680303205261892
514 -0.4268282282719429 -1.7404151531654806 1.9202586564003068 -3.4181152963407953 -1.0447437549979013 0.12592734700144198
515 -0.42658580170111843 -1.7404464614862043 1.9206498137241073 -3.4190823684458005 -1.045451830958897 0.12504742357887072
516 -0.42634440811154234 -1.7404770569738919 1.9210371721663702 -3.420040041278375 -1.0461551647112108 0.12416331199759709
517 -0.42610404859716694 -1.740506947477674 1.9214207281707316 -3.420988296036169 -1.0468537632419623 0.123275062583837
518 -0.4258647241210084 -1.7405361408867386 1.9218004784562062 -3.4219271144777803 -1.0475476338835017 0.12238272577313189
519 -0.425626435516902 -1.7405646451293133 1.922176420015975 -3.422856478922042 -1.048236784313511 0.12148635210617746
520 -0.425389183491182 -1.74059246817165 1.9225485501161483 -3.423776372247229 -1.048921222554918 0.12058599222467974
521 -0.42515296862429147 -1.740619618017012 1.9229168662944998 -3.424686777890204 -1.0496009569756364 0.11968169686723883
522 -0.42491779137232727 -1.7406461027046622 1.923281366359175 -3.4255876798454845 -1.0502759962881338 0.11877351686526068
523 -0.4246836520685252 -1.7406719303088543 1.923642048387373 -3.426479062664244 -1.0509463495488403 0.11786150313889704
524 -0.42445055092468975 -1.7406971089378238 1.9239989107239988 -3.4273609114532437 -1.0516120261573993 0.11694570669301389
525 -0.4242184880325729 -1.7407216467327824 1.9243519519802876 -3.4282332118736925 -1.0522730358557721 0.11602617861318884
526 -0.42398746336520604 -1.740745551866912 1.9247011710324038 -3.429095950140041 -1.0529293887271989 0.11510297006173742
527 -0.4237574767781886 -1.7407688325443618 1.9250465670200076 -3.429949113018707 -1.0535810951950217 0.11417613227376892
528 -0.4235285280109371 -1.7407914969992455 1.9253881393447967 -3.4307926878267305 -1.0542281660213781 0.11324571655327186
529 -0.423300616687898 -1.740813553494641 1.9257258876690175 -3.431626662430368 -1.054870612305769 0.11231177426922927
530 -0.42307374231972705 -1.74083501032159 1.92605981191395 -3.4324510252436147 -1.0555084454835042 0.11137435685176436
531 -0.42284790430443886 -1.7408558757981 1.9263899122583628 -3.433265765226668 -1.0561416773240344 0.11043351578831657
532 -0.42262310192852837 -1.7408761582681478 1.926716189136941 -3.4340708718843187 -1.0567703199291705 0.10948930261984834
533 -0.42239933436806765 -1.740895866100683 1.9270386432386868 -3.434866335264287 -1.0573943857311967 0.10854176893708291
534 -0.4221766006897801 -1.740915007688635 1.9273572755052912 -3.43565214595549 -1.0580138874908824 0.10759096637677336
535 -0.4219548998520939 -1.7409335914479198 1.9276720871294801 -3.43642829508625 -1.0586288382953948 0.1066369466180031
536 -0.4217342307061776 -1.7409516258164492 1.927983079553332 -3.4371947743224402 -1.0592392515561162 0.10567976137851808
537 -0.42151459199695895 -1.740969119253141 1.9282902544665705 -3.437951575865573 -1.0598451410063738 0.10471946241109088
538 -0.42129598236412924 -1.7409860802369315 1.9285936138048296 -3.4386986924508274 -1.0604465206990803 0.10375610149991706
539 -0.4210784003431348 -1.7410025172657897 1.928893159747893 -3.4394361173450188 -1.0610434050042914 0.10278973045704366
540 -0.42086184436615726 -1.7410184388557328 1.9291888947179097 -3.4401638443445117 -1.0616358086066846 0.10182040111883042
541 -0.42064631276308356 -1.7410338535398446 1.929480821377582 -3.4408818677730766 -1.0622237465029596 0.10084816534244359
542 -0.4204318037624679 -1.7410487698672952 1.9297689426283318 -3.4415901824796924 -1.0628072339991652 0.09987307500238267
543 -0.420218315492486 -1.7410631964023624 1.9300532616084416 -3.442288783836295 -1.063386286707957 0.0988951819870402
544 -0.42000584598188356 -1.7410771417234572 1.9303337816911714 -3.442977667735472 -1.063960920545786 0.0979145381952947
545 -0.4197943931609196 -1.74109061442215 1.9306105064828551 -3.4436568305881066 -1.064531151730022 0.09693119553313706
546 -0.4195839548623057 -1.7411036231022001 1.930883439820972 -3.444326269320971 -1.0650969967760147 0.09594520591033022
547 -0.41937452882214216 -1.741116176378587 1.9311525857721974 -3.44498598137427 -1.0656584724940958 0.09495662123710256
548 -0.4191661126808521 -1.741128282876546 1.931417948630433 -3.445635964699135 -1.0662155959865234 0.09396549342087497
549 -0.41895870398411367 -1.741139951230605 1.9316795329148169 -3.4462762177550754 -1.0667683846443705 0.09297187436302155
550 -0.4187523001837921 -1.7411511900836252 1.9319373433677103 -3.446906739507378 -1.0673168561443627 0.09197581595566441
551 -0.4185468986388712 -1.7411620080858452 1.93219138495267 -3.4475275294244647 -1.0678610284456636 0.09097737007850214
552 -0.4183424966163854 -1.7411724138939277 1.9324416628523984 -3.448138587475207 -1.0684009197866142 0.08997658859567242
553 -0.4181390912923532 -1.7411824161700096 1.932688182466677 -3.4487399141261954 -1.0689365486814246 0.08897352335264869
554 -0.41793667975271187 -1.7411920235807559 1.9329309494102818 -3.4493315103389697 -1.0694679339168225 0.0879682261731707
555 -0.4177352589942543 -1.7412012447964178 1.9331699695108828 -3.449913377567208 -1.0699950945486598 0.08696074885620939
556 -0.4175348259255683 -1.7412100884898936 1.933405248806927 -3.450485517753878 -1.0705180498984788 0.08595114317296566
557 -0.41733537736797865 -1.7412185633357935 1.933636793545506 -3.4510479333283475 -1.0710368195500406 0.0849394608639034
558 -0.4171369100564924 -1.74122667800951 1.9338646101802082 -3.4516006272034616 -1.0715514233458163 0.08392575363581649
559 -0.41693942064074746 -1.7412344411862908 1.934088705368958 -3.452143602772582 -1.0720618813834457 0.08291007315892998
560 -0.4167429056859651 -1.741241861540316 1.934309085971841 -3.452676863906593 -1.0725682140121606 0.08189247106403519
561 -0.4165473616739062 -1.7412489477437818 1.9345257590489169 -3.4532004149508735 -1.0730704418291785 0.08087299893965891
562 -0.4163527850038316 -1.741255708465986 1.9347387318580198 -3.45371426072224 -1.0735685856760668 0.07985170832926648
563 -0.4161591719934669 -1.7412621523724208 1.934948011852547 -3.4542184065058534 -1.0740626666350777 0.07882865072849873
564 -0.4159665188799717 -1.7412682881238681 1.935153606679238 -3.454712858052102 -1.0745527060254585 0.07780387758244277
565 -0.4157748218209133 -1.7412741243755017 1.935355524175943 -3.455197621573451 -1.0750387253997358 0.07677744028293641
566 -0.41558407689524507 -1.7412796697759934 1.935553772369381 -3.455672703741269 -1.0755207465399765 0.0757493901659063
567 -0.4153942801042897 -1.7412849329666247 1.935748359472891 -3.4561381116826255 -1.0759987914540263 0.07471977850873944
568 -0.4152054273727271 -1.7412899225804042 1.935939293884174 -3.4565938529770643 -1.076472882371729 0.07368865652768819
569 -0.4150175145495871 -1.7412946472411897 1.9361265841830282 -3.4570399356533525 -1.076943041741124 0.07265607537530851
570 -0.41483053740924714 -1.7412991155628164 1.936310239129077 -3.4574763681862093 -1.0774092922246292 0.07162208613793129
571 -0.41464449165243483 -1.7413033361482309 1.9364902676594913 -3.4579031594930094 -1.0778716566952042 0.07058673983316671
572 -0.414459372907235 -1.7413073175886304 1.9366666788867066 -3.4583203189304683 -1.0783301582324991 0.06955008740744137
573 -0.4142751767301021 -1.741311068462609 1.936839482096135 -3.458727856291309 -1.0787848201189896 0.06851217973356814
574 -0.41409189860687695 -1.7413145973353077 1.9370086867438723 -3.4591257818009087 -1.0792356658360984 0.06747306760834851
575 -0.4139095339538082 -1.7413179127575737 1.9371743024544041 -3.459514106113928 -1.0796827190603053 0.06643280175020712
576 -0.41372807811857876 -1.7413210232651237 1.9373363390183065 -3.4598928403109266 -1.0801260036592457 0.0653914327968586
577 -0.4135475263813365 -1.741323937377714 1.9374948063899458 -3.460261995894961 -1.0805655436878001 0.06434901130300623
578 -0.4133678739557296 -1.7413266635983173 1.9376497146851765 -3.4606215847881723 -1.081001363384175 0.06330558773807227
579 -0.4131891159899461 -1.7413292104123061 1.9378010741790384 -3.460971619328355 -1.081433487165977 0.062261212483959945
580 -0.41301124756775803 -1.7413315862866425 1.9379488953034525 -3.4613121122655213 -1.0818619396262783 0.06121593583284661
581 -0.4128342637095693 -1.741333799669075 1.9380931886449184 -3.4616430767584485 -1.0822867455296792 0.06016980798500799
582 -0.4126581593734681 -1.7413358589873418 1.9382339649422118 -3.461964526371221 -1.0827079298083644 0.05912287904667331
583 -0.41248292945628284 -1.7413377726483812 1.9383712350840838 -3.462276475069759 -1.0831255175581567 0.058075199027910925
584 -0.4123085687946421 -1.7413395490375492 1.9385050101069612 -3.4625789372183458 -1.0835395340345682 0.05702681784054439
585 -0.41213507216603823 -1.7413411965178436 1.9386353011926503 -3.46287192757614 -1.0839500046488486 0.05597778529609856
586 -0.4119624342898942 -1.7413427234291359 1.9387621196660436 -3.4631554612936912 -1.0843569549640346 0.05492815110377554
587 -0.4117906498286343 -1.7413441380874102 1.9388854769928303 -3.463429553909442 -1.0847604106909978 0.05387796486846022
588 -0.41161971338875747 -1.741345448784009 1.93900538477721 -3.4636942213462336 -1.085160397684494 0.05282727608875511
589 -0.4114496195219143 -1.7413466637848873 1.939121854759612 -3.4639494799078028 -1.0855569419392141 0.05177613415504416
590 -0.4112803627259862 -1.7413477913298734 1.9392348988144208 -3.4641953462752793 -1.085950069585839 0.050724588347585385
591 -0.41111193744616836 -1.7413488396319372 1.9393445289477047 -3.4644318375036818 -1.086339806887096 0.049672687834631926
592 -0.4109443380760539 -1.741349816876467 1.9394507572949529 -3.464658971018414 -1.086726180233819 0.048620481670581264
593 -0.4107775589587217 -1.741350731220552 1.9395535961188184 -3.4648767646117595 -1.087109216141017 0.047568018794152366
594 -0.41061159438782563 -1.7413515907922756 1.9396530578068683 -3.4650852364393803 -1.0874889412439432 0.046515348026590374
595 -0.4104464386086864 -1.741352403690013 1.9397491548693426 -3.465284405016815 -1.0878653822941746 0.04546251806989858
596 -0.41028208581938486 -1.7413531779817393 1.9398418999369196 -3.4654742892159827 -1.0882385661556968 0.0444095775050974
597 -0.41011853017185723 -1.7413539217043437 1.9399313057584904 -3.4656549082616888 -1.0886085198009965 0.04335657479051
598 -0.409955765772992 -1.741354642862953 1.9400173851989433 -3.4658262817281367 -1.0889752703071622 0.0423035582600743
599 -0.4097937866857278 -1.7413553494302618 1.9401001512369578 -3.465988429535442 -1.0893388448519952 0.04125057612168096
600 -0.4096325869301531 -1.7413560493458722 1.9401796169628072 -3.4661413719461582 -1.0896992707101283 0.04019767645553719
601 -0.4094721604846061 -1.7413567505156395 1.9402557955761723 -3.466285129561804 -1.0900565752491564 0.0391449072125559
602 -0.40931250128677643 -1.741357460811028 1.9403287003839662 -3.4664197233194005 -1.0904107859257774 0.03809231621276995
603 -0.4091536032348065 -1.7413581880684736 1.94039834479817 -3.4665451744880174 -1.090761930281944 0.03703995114377115
604 -0.4089954601883942 -1.741358940088755 1.9404647423336796 -3.466661504665326 -1.0911100359410275 0.03598785955917374
605 -0.4088380659698955 -1.7413597246363735 1.9405279066061651 -3.466768735774165 -1.0914551306039955 0.034936088877101916
606 -0.40868141436542715 -1.7413605494389397 1.940587851329942 -3.466866890059111 -1.0917972420456008 0.033884686378701165
607 -0.4085254991259696 -1.7413614221865703 1.9406445903158551 -3.466955990083069 -1.092136398110585 0.032833699206673055
608 -0.4083703139684694 -1.7413623505312914 1.940698137469176 -3.4670360587238656 -1.092472626709896 0.031783174363833135
609 -0.4082158525769417 -1.7413633420864514 1.9407485067875136 -3.4671071191708585 -1.0928059558169203 0.030733158711691584
610 -0.4080621086035717 -1.7413644044261412 1.940795712358738 -3.4671691949215586 -1.0931364134637294 0.029683698969056347
611 -0.40790907566981566 -1.741365545084623 1.9408397683589176 -3.4672223097782653 -1.0934640277373426 0.02863484171065839
612 -0.40775674736750084 -1.7413667715557681 1.940880689050273 -3.467266487844716 -1.093788826776007 0.027586633365798693
613 -0.40760511725992465 -1.741368091292502 1.9409184887791433 -3.467301753522748 -1.0941108387654899 0.026539120217016713
614 -0.4074541788829524 -1.7413695117062582 1.9409531819739674 -3.4673281315089794 -1.0944300919353929 0.025492348398779972
615 -0.4073039257461137 -1.741371040166441 1.940984783143282 -3.4673456467915007 -1.0947466145554798 0.02444636389619439
616 -0.4071543513336973 -1.7413726839998958 1.9410133068737336 -3.4673543246465877 -1.0950604349320245 0.02340121254373506
617 -0.40700544910584435 -1.7413744504903874 1.9410387678281065 -3.4673541906354246 -1.0953715814041751 0.022356940023997154
618 -0.40685721249963946 -1.741376346878089 1.941061180743367 -3.467345270600851 -1.0956800823403374 0.02131359186646656
619 -0.4067096349302002 -1.7413783803590759 1.941080560428725 -3.4673275906641208 -1.0959859661345772 0.02027121344631
620 -0.40656270979176395 -1.7413805580848307 1.9410969217637082 -3.4673011772216813 -1.0962892612030415 0.019229849983184208
621 -0.4064164304587729 -1.7413828871617554 1.9411102796962583 -3.467266056941971 -1.0965899959803993 0.018189546540063932
622 -0.40627079028695606 -1.7413853746506918 1.9411206492408395 -3.467222256762235 -1.0968881989163026 0.01715034802208834
623 -0.406125782614409 -1.741388027566451 1.941128045476567 -3.4671698038853593 -1.0971838984718671 0.016112299175425553
624 -0.40598140076267064 -1.7413908528773503 1.9411324835453512 -3.4671087257767255 -1.097477123116174 0.015075444586154977
625 -0.4058376380377972 -1.741393857504759 1.94113397865006 -3.4670390501610857 -1.0977679013227912 0.014039828679167088
626 -0.4056944877314329 -1.741397048322652 1.9411325460526994 -3.4669608050194562 -1.0980562615663179 0.013005495717080338
627 -0.4055519431218776 -1.7414004321571723 1.9411282010726099 -3.466874018586032 -1.0983422323189487 0.01197248979917491
628 -0.40540999747515105 -1.7414040157862014 1.9411209590846839 -3.4667787193451223 -1.0986258420470596 0.010940854860342936
629 -0.4052686440460536 -1.741407805938938 1.9411108355175977 -3.4666749360281073 -1.098907119207817 0.009910634670054925
630 -0.4051278760792233 -1.7414118092954844 1.9410978458520656 -3.4665626976104167 -1.0991860922458083 0.008881872831342005
631 -0.4049876868101891 -1.7414160324864423 1.9410820056191098 -3.466442033308529 -1.099462789589694 0.007854612779793756
632 -0.4048480694664203 -1.741420482092515 1.9410633303983493 -3.466312972576994 -1.0997372396488845 0.006828897782571245
633 -0.4047090172683721 -1.7414251646441197 1.9410418358163086 -3.4661755451054757 -1.100009470810238 0.005804770937435009
634 -0.4045705234305264 -1.7414300866210062 1.941017537544744 -3.4660297808158194 -1.1002795114347823 0.004782275171787624
635 -0.40443258116242914 -1.7414352544518852 1.94099045129899 -3.46587570985914 -1.1005473898544607 0.0037614532417306204
636 -0.40429518366972245 -1.741440674514063 1.9409605928363234 -3.465713362612935 -1.1008131343688998 0.002742347731135396
637 -0.40415832415517283 -1.7414463531330857 1.9409279779543476 -3.4655427696782173 -1.1010767732422029 0.0017250010507278404
638 -0.4040219958196943 -1.7414522965823904 1.9408926224893959 -3.465363961876676 -1.1013383346997658 0.0007094554371863864
639 -0.40388619186336683 -1.741458511082965 1.940854542314954 -3.4651769702478563 -1.1015978469251182 -0.000304247047746822
640 -0.40375090548645026 -1.7414650028030156 1.9408137533401013 -3.4649818260463654 -1.1018553380567886 -0.0013160645181419148
641 -0.4036161298903926 -1.7414717778576412 1.9407702715079735 -3.4647785607391004 -1.1021108361851937 -0.0023259552647447697
642 -0.40348185827883365 -1.7414788423085177 1.940724112794242 -3.4645672060025015 -1.1023643693495533 -0.0033338777558281365
643 -0.4033480838586033 -1.7414862021635884 1.940675293205615 -3.4643477937198295 -1.102615965534829 -0.004339790638030866
644 -0.4032147998407144 -1.7414938633767625 1.9406238287783575 -3.464120355978466 -1.1028656526686895 -0.0053436527371853735
645 -0.40308199944135004 -1.7415018318476219 1.9405697355768305 -3.4638849250672386 -1.1031134586184994 -0.006345423059133694
646 -0.40294967588284586 -1.741510113421135 1.9405130296920508 -3.463641533473769 -1.1033594111883342 -0.007345060790532336
647 -0.402817822394666 -1.7415187138873789 1.9404537272402698 -3.463390213881849 -1.1036035381160207 -0.008342525299646278
648 -0.4026864322143738 -1.7415276389812677 1.9403918443615724 -3.463130999168837 -1.103845867070203 -0.009337776137132285
649 -0.4025554985885963 -1.7415368943822906 1.9403273972184953 -3.4628639224030806 -1.1040864256474345 -0.010330773036811874
650 -0.4024250147739831 -1.7415464857142553 1.9402604019946654 -3.462589016841364 -1.1043252413692959 -0.011321475916434134
651 -0.40229497403815906 -1.7415564185450403 1.9401908748934573 -3.4623063159263814 -1.1045623416795378 -0.01230984487842867
652 -0.4021653696606707 -1.7415666983863536 1.9401188321366716 -3.4620158532842296 -1.1047977539412515 -0.013295840210648963
653 -0.40203619493392656 -1.7415773306935 1.9400442899632317 -3.4617176627219335 -1.105031505434065 -0.014279422387106281
654 -0.40190744316413135 -1.7415883208651546 1.9399672646279023 -3.4614117782249885 -1.1052636233513646 -0.015260552068694507
655 -0.40177910767221336 -1.7415996742431437 1.9398877724000243 -3.461098233954932 -1.1054941347975449 -0.016239190103906023
656 -0.4016511817947457 -1.7416113961122333 1.9398058295622733 -3.4607770642469387 -1.105723066785283 -0.01721529752953893
657 -0.4015236588848607 -1.741623491699925 1.9397214524094348 -3.460448303607439 -1.1059504462328424 -0.01818883557139583
658 -0.4013965323131579 -1.7416359661762577 1.9396346572471999 -3.4601119867117647 -1.1061762999613998 -0.019159765644974378
659 -0.4012697954686053 -1.7416488246536186 1.9395454603909807 -3.4597681484018157 -1.1064006546924017 -0.020128049356149817
660 -0.4011434417594334 -1.7416620721865588 1.9394538781647466 -3.459416823683755 -1.1066235370449478 -0.021093648501849763
661 -0.40101746461402293 -1.741675713771617 1.9393599268998767 -3.4590580477257262 -1.1068449735331989 -0.022056525070721394
662 -0.4008918574817852 -1.7416897543471506 1.9392636229340354 -3.458691855855595 -1.1070649905638152 -0.02301664124379126
663 -0.4007666138340355 -1.7417041987931725 1.9391649826100643 -3.4583182835587145 -1.1072836144334188 -0.023973959395117952
664 -0.4006417271648596 -1.7417190519311958 1.9390640222748956 -3.4579373664757185 -1.1075008713260863 -0.024928442092437806
665 -0.4005171909919725 -1.7417343185240846 1.9389607582784831 -3.4575491404003347 -1.1077167873108655 -0.02588005209780383
666 -0.40039299885757096 -1.7417500032759108 1.9388552069727545 -3.4571536412772237 -1.1079313883393227 -0.026828752368218085
667 -0.40026914432917726 -1.7417661108318196 1.9387473847105796 -3.4567509051998435 -1.1081447002431148 -0.027774506056257618
668 -0.4001456210004771 -1.7417826457778995 1.9386373078447607 -3.4563409684083335 -1.1083567487315906 -0.028717276510694275
669 -0.4000224224921489 -1.7417996126410598 1.9385249927270405 -3.4559238672874275 -1.1085675593894186 -0.029657027277108408
670 -0.3998995424526861 -1.741817015888914 1.9384104557071284 -3.4554996383643877 -1.1087771576742438 -0.0305937220984968
671 -0.3997769745592118 -1.7418348599296707 1.9382937131317461 -3.455068318306962 -1.1089855689143697 -0.03152732491587486
672 -0.39965471251828577 -1.7418531491120302 1.9381747813436927 -3.454629943921365 -1.1091928183064714 -0.03245779986887334
673 -0.3995327500667037 -1.7418718877250865 1.9380536766809258 -3.454184552150283 -1.1093989309133332 -0.033385111296329685
674 -0.3994110809722887 -1.741891079998237 1.937930415475665 -3.453732180070903 -1.1096039316616162 -0.03430922373687423
675 -0.3992896990346752 -1.7419107301010976 1.9378050140535095 -3.453272864892962 -1.109807845339653 -0.03523010192951127
676 -0.39916859808608446 -1.7419308421434245 1.9376774887325778 -3.4528066439568197 -1.1100106965952696 -0.03614771081419539
677 -0.3990477719920928 -1.741951420175041 1.9375478558226622 -3.452333554731558 -1.1102125099336375 -0.03706201553240292
678 -0.39892721465239134 -1.7419724681857716 1.9374161316244036 -3.451853634813096 -1.1104133097151512 -0.03797298142769886
679 -0.39880692000153806 -1.7419939901053811 1.9372823324284838 -3.4513669219223346 -1.1106131201533347 -0.03888057404629937
680 -0.3986868820097016 -1.7420159898035203 1.9371464745148341 -3.4508734539033177 -1.1108119653127773 -0.03978475913762987
681 -0.39856709468339685 -1.7420384710896772 1.9370085741518641 -3.4503732687214193 -1.1110098691070953 -0.040685502654879
682 -0.39844755206621263 -1.7420614377131336 1.9368686475957062 -3.4498664044615497 -1.1112068552969239 -0.04158277075554851
683 -0.3983282482395309 -1.7420848933629283 1.936726711089477 -3.4493528993263847 -1.1114029474879359 -0.042476529801999195
684 -0.3982091773232379 -1.7421088416678252 1.9365827808625589 -3.4488327916346173 -1.1115981691288892 -0.043366746361992975
685 -0.39809033347642675 -1.742133286196288 1.9364368731298953 -3.448306119819227 -1.1117925435097025 -0.04425338720923134
686 -0.39797171089809197 -1.7421582304564591 1.9362890040913052 -3.4477729224257767 -1.1119860937595594 -0.04513641932389011
687 -0.3978533038278152 -1.7421836778961455 1.936139189930814 -3.447233238110722 -1.1121788428450405 -0.046015809893150794
688 -0.397735106546443 -1.7422096319028089 1.9359874468160012 -3.4466871056397492 -1.1123708135682837 -0.046891526311728444
689 -0.3976171133767557 -1.7422360958035614 1.9358337908973635 -3.4461345638861296 -1.1125620285651738 -0.04776353618239635
690 -0.3974993186841279 -1.7422630728651682 1.9356782383076967 -3.4455756518290936 -1.1127525103035592 -0.048631807316507424
691 -0.39738171687718066 -1.742290566294053 1.9355208051614916 -3.445010408552228 -1.1129422810814977 -0.04949630773451254
692 -0.39726430240842453 -1.7423185792363105 1.9353615075543478 -3.4444388732418894 -1.1131313630255315 -0.05035700566647586
693 -0.3971470697748945 -1.7423471147777234 1.9352003615624018 -3.4438610851856417 -1.1133197780889887 -0.05121386955258719
694 -0.3970300135187759 -1.742376175943785 1.9350373832417733 -3.443277083770709 -1.1135075480503152 -0.05206686804367154
695 -0.3969131282280219 -1.742405765699726 1.9348725886280254 -3.4426869084824494 -1.1136946945114339 -0.05291597000169584
696 -0.3967964085369619 -1.7424358869505472 1.9347059937356397 -3.4420905989028476 -1.113881238896133 -0.053761144500273
697 -0.39667984912690163 -1.7424665425410568 1.93453761455751 -3.4414881947090272 -1.114067202448483 -0.05460236082516336
698 -0.39656344472671384 -1.742497735255913 1.9343674670644473 -3.44087973567178 -1.114252606231281 -0.05543958847477349
699 -0.39644719011342083 -1.7425294678196703 1.9341955672047033 -3.440265261654116 -1.1144374711245257 -0.056272797160652574
700 -0.39633108011276746 -1.7425617428968327 1.9340219309035067 -3.4396448126098265 -1.114621817823919 -0.0571019568079863
701 -0.3962151095997858 -1.7425945630919093 1.9338465740626145 -3.4390184285820724 -1.1148056668393973 -0.057927037556088364
702 -0.3960992734993505 -1.7426279309494763 1.933669512559879 -3.438386149701984 -1.114989038493691 -0.05874800975888966
703 -0.39598356678672536 -1.7426618489542434 1.9334907622488287 -3.437748016187281 -1.1151719529209128 -0.05956484398542517
704 -0.395867984488101 -1.742696319531124 1.9333103389582624 -3.4371040683409086 -1.1153544300651748 -0.060377511020318596
705 -0.3957525216811233 -1.7427313450453108 1.93312825849186 -3.4364543465496915 -1.1155364896792335 -0.06118598186426482
706 -0.39563717349541294 -1.7427669278023556 1.932944536627804 -3.435798891283004 -1.115718151323165 -0.06199022773451017
707 -0.395521935113076 -1.7428030700482537 1.9327591891184168 -3.435137743091457 -1.1158994343630673 -0.06279022006533058
708 -0.3954068017692052 -1.7428397739695325 1.9325722316898126 -3.434470942605599 -1.1160803579697913 -0.0635859305085077
709 -0.3952917687523724 -1.7428770416933446 1.93238368004156 -3.433798530534638 -1.1162609411177025 -0.0643773309338028
710 -0.3951768314051115 -1.7429148752875652 1.932193549846359 -3.433120547665173 -1.116441202583469 -0.06516439342942884
711 -0.39506198512439283 -1.742953276760894 1.932001856749733 -3.4324370348599467 -1.1166211609448795 -0.06594709030252037
712 -0.3949472253620877 -1.742992248062961 1.9318086163697303 -3.431748033056608 -1.11680083457969 -0.06672539407960149
713 -0.3948325476254243 -1.7430317910844362 1.9316138442966415 -3.431053583266494 -1.1169802416644985 -0.06749927750705184
714 -0.39471794747743405 -1.7430719076571448 1.9314175560927274 -3.430353726573425 -1.1171594001736491 -0.06826871355157063
715 -0.39460342053738895 -1.7431125995541843 1.9312197672919598 -3.4296485041325133 -1.1173383278781648 -0.06903367540063869
716 -0.3944889624812296 -1.743153868490048 1.9310204933997763 -3.4289379571689866 -1.117517042344709 -0.06979413646297865
717 -0.3943745690419839 -1.7431957161207507 1.9308197498928439 -3.428222126977027 -1.117695560934575 -0.07055007036901308
718 -0.39426023601017673 -1.7432381440439593 1.9306175522188371 -3.4275010549186207 -1.1178739008027052 -0.0713014509713208
719 -0.39414595923422985 -1.7432811537991264 1.930413915796227 -3.4267747824224255 -1.118052078896739 -0.07204825234509123
720 -0.3940317346208531 -1.7433247468676296 1.930208856014081 -3.426043350982647 -1.1182301119560885 -0.07279044878857673
721 -0.39391755813542595 -1.7433689246729125 1.9300023882318758 -3.42530680215793 -1.1184080165110442 -0.07352801482354315
722 -0.3938034258023697 -1.7434136885806304 1.929794527779319 -3.4245651775702632 -1.118585808881908 -0.07426092519571832
723 -0.39368933370551046 -1.7434590398988004 1.9295852899561845 -3.423818518903897 -1.1187635051781566 -0.0749891548752386
724 -0.3935752779884327 -1.7435049798779536 1.929374690032157 -3.4230668679042706 -1.118941121297632 -0.07571267905709356
725 -0.3934612548548236 -1.7435515097112926 1.9291627432466865 -3.422310266376953 -1.1191186729257616 -0.07643147316156851
