ZJU-PLP/Project_IFAC_2020/src/custom_codes/csv_files/joint_traj_2_APF.csv
Index Joint1 Joint2 Joint3 Joint4 Joint5 Joint6
0 -0.3934612548548236 -1.7435515097112926 1.9291627432466865 -3.422310266376953 -1.1191186729257616 -0.07643147316156851
1 -0.39333624272705375 -1.7430335801539838 1.9304842802587692 -3.4201486357779722 -1.1194701756847931 -0.07714551283468521
2 -0.3931946431771183 -1.7425370367715889 1.9311095247622352 -3.4180670985956 -1.1198217980764147 -0.077823562084496
3 -0.39303859893658016 -1.7420557540686423 1.931242948418221 -3.4160421146973388 -1.120171386212022 -0.07847273625954584
4 -0.3928697492693621 -1.7415853828876982 1.9310292184565194 -3.4140569529030245 -1.1205177156426387 -0.07909807112767624
5 -0.3926893827576703 -1.741122837408657 1.930570578050757 -3.412099752816142 -1.1208601530079199 -0.07970312487558222
6 -0.3924985387312321 -1.7406659284402652 1.9299392264212774 -3.4101621248803196 -1.1211984428094839 -0.08029040824678305
7 -0.3922980759036615 -1.7402131022597136 1.9291861123064804 -3.4082381462370326 -1.1215325705453094 -0.08086169071317702
8 -0.3920887195859001 -1.739763255095058 1.9283471677194004 -3.406323643897094 -1.121862673567005 -0.08141821783778268
9 -0.39187109462448744 -1.7393156015774152 1.9274477209363357 -3.4044156847019718 -1.1221889824095403 -0.08196086530304288
10 -0.3916457486698743 -1.7388695815823618 1.9265056172808643 -3.402512213262412 -1.122511781936739 -0.08249024791137759
11 -0.39141316880675847 -1.738424794319401 1.9255334243025577 -3.4006117953668293 -1.122831385562718 -0.08300679664262621
12 -0.391173793579021 -1.7379809517317384 1.9245399889620505 -3.39871343635139 -1.1231481181980534 -0.0835108130862577
13 -0.3909280217917105 -1.7375378455652901 1.9235315366313799 -3.396816452641035 -1.1234623050630013 -0.08400250786684288
14 -0.39067621904097527 -1.7370953241053164 1.9225124463519678 -3.3949203809495465 -1.1237742644652875 -0.08448202775529791
15 -0.3904187226316489 -1.7366532757458952 1.9214857974787118 -3.393024914122924 -1.1240843032626597 -0.08494947478840553
16 -0.3901558453431837 -1.7362116173860789 1.9204537549672258 -3.391129855816997 -1.1243927141427659 -0.08540491974670211
17 -0.3898878783672861 -1.7357702862341204 1.9194178408251639 -3.3892350884805693 -1.1246997741293299 -0.0858484116516831
18 -0.3896150936451459 -1.7353292340172717 1.9183791252857432 -3.3873405507337404 -1.125005743910634 -0.08627998445547323
19 -0.3893377457654454 -1.7348884228890809 1.9173383613902966 -3.385446221377803 -1.1253108677137162 -0.08669966175112324
20 -0.38905607353754434 -1.7344478225342994 1.9162960796920998 -3.3835521080847695 -1.1256153735349035 -0.08710746008789003
21 -0.388770301321319 -1.7340074081186208 1.9152526548682571 -3.3816582393885484 -1.1259194735971778 -0.08750339130365906
22 -0.3884806401719272 -1.7335671588343726 1.9142083525496165 -3.3797646590054002 -1.1262233649460816 -0.08788746416510491
23 -0.38818728884138054 -1.7331270568666395 1.9131633622254054 -3.3778714217977455 -1.1265272301242322 -0.08825968552040633
24 -0.387890434667208 -1.7326870866560589 1.9121178203488776 -3.375978590897625 -1.1268312378840681 -0.08862006110882677
25 -0.3875902543702767 -1.7322472343710498 1.9110718265501532 -3.374086235648781 -1.127135543911891 -0.08896859612880904
26 -0.3872869147779994 -1.7318074875279879 1.9100254550024276 -3.372194430126982 -1.1274402915455155 -0.08930529563616088
27 -0.3869805734850061 -1.7313678347159982 1.9089787623817394 -3.370303252069158 -1.1277456124741723 -0.08963016482271911
28 -0.3866713794603886 -1.7309282653958282 1.9079317934336273 -3.368412782091954 -1.1280516274136447 -0.08994320921095404
29 -0.3863594736085046 -1.730488769751286 1.9068845848594254 -3.366523103115542 -1.1283584467525556 -0.09024443478946459
30 -0.3860449892887927 -1.7300493385780749 1.905837168023349 -3.3646342999333707 -1.1286661711677144 -0.09053384810691519
31 -0.38572805279894284 -1.7296099631993314 1.9047895708326121 -3.3627464588860314 -1.12897489220776 -0.0908114563367575
32 -0.3854087838249513 -1.7291706354003225 1.9037418190380697 -3.3608596676097204 -1.129284692845215 -0.09107726732141601
33 -0.38508729586099183 -1.7287313473769748 1.9026939371291967 -3.358974014838465 -1.1295956479976252 -0.09133128960203879
34 -0.3847636966015841 -1.7282920916944704 1.9016459489454236 -3.3570895902453857 -1.1299078250188221 -0.09157353243810229
35 -0.38443808830820003 -1.727852861253243 1.9005978780894512 -3.3552064843125593 -1.130221284161546 -0.09180400581988468
36 -0.3841105681521848 -1.7274136492604804 1.8995497482025832 -3.3533247882220865 -1.130536079012786 -0.09202272047592626
37 -0.3837812285356619 -1.7269744492057857 1.8985015831441583 -3.351444593763088 -1.130852256903234 -0.09222968787696605
38 -0.383450157391924 -1.7265352548400343 1.8974534071045543 -3.3495659932508697 -1.1311698592922583 -0.09242492023740102
39 -0.38311743846667523 -1.7260960601567308 1.8964052446723827 -3.347689079455546 -1.1314889221297748 -0.09260843051500381
40 -0.3827831515813732 -1.7256568593753638 1.8953571208702877 -3.345813945538165 -1.1318094761963498 -0.09278023240941594
41 -0.38244737287982394 -1.7252176469263945 1.894309061169408 -3.3439406849929023 -1.132131547422821 -0.0929403403597806
42 -0.3821101750590939 -1.7247784174376017 1.8932610914895125 -3.3420693915942783 -1.1324551571906585 -0.09308876954177066
43 -0.38177162758572997 -1.724339165721584 1.8922132381896797 -3.340200159348598 -1.1327803226142272 -0.09322553586419192
44 -0.38143179689820933 -1.7238998867642612 1.8911655280529003 -3.338333082449025 -1.1331070568060568 -0.09335065596528865
45 -0.3810907465964799 -1.723460575714254 1.8901179882669334 -3.3364682552338203 -1.1334353691261523 -0.09346414720884008
46 -0.3807485376193964 -1.7230212278730495 1.8890706464030151 -3.3346057721473894 -1.133765265416328 -0.0935660276801112
47 -0.3804052284108052 -1.722581838685869 1.8880235303935127 -3.332745727703835 -1.1340967482204876 -0.09365631618170144
48 -0.38006087507498365 -1.7221424037331805 1.8869766685092582 -3.330888216452784 -1.1344298169917173 -0.09373503222932254
49 -0.37971553152209536 -1.7217029187227975 1.8859300893370503 -3.3290333329472794 -1.1347644682870077 -0.0938021960475273
50 -0.37936924960428203 -1.7212633794825176 1.8848838217576407 -3.327181171713573 -1.1351006959503696 -0.09385782856540398
51 -0.3790220792429735 -1.7208237819532632 1.8838378949244061 -3.3253318272226626 -1.1354384912850637 -0.09390195141224707
52 -0.3786740685479621 -1.7203841221826845 1.88279233824282 -3.3234853938634465 -1.135777843215622 -0.09393458691321134
53 -0.37832526392875454 -1.7199443963191945 1.881747181350789 -3.321641965917377 -1.136118738440289 -0.0939557580849539
54 -0.3779757101986812 -1.7195046006064043 1.8807024540998767 -3.319801637534503 -1.136461161574484 -0.09396548863126722
55 -0.3776254506722155 -1.7190647313779348 1.879658186537413 -3.3179645027108156 -1.1368050952858366 -0.0939638029387048
56 -0.37727452725592636 -1.718624785052577 1.8786144088894738 -3.316130655266798 -1.1371505204213233 -0.09395072607220051
57 -0.37692298053346246 -1.718184758129779 1.8775711515447036 -3.3143001888271026 -1.1374974161269924 -0.09392628377068175
58 -0.3765708498449408 -1.7177446471854383 1.8765284450389426 -3.3124731968012857 -1.1378457599607412 -0.0938905024426761
59 -0.3762181733610913 -1.717304448867979 1.875486320040625 -3.310649772365523 -1.1381955279985727 -0.09384340916191102
60 -0.37586498815248526 -1.716864159894697 1.8744448073369084 -3.308830008445248 -1.1385466949347411 -0.09378503166290576
61 -0.37551133025415784 -1.7164237770483537 1.8734039378204934 -3.3070139976986535 -1.138899234176163 -0.09371539833655462
62 -0.37515723472591356 -1.7159832971740037 1.872363742477095 -3.3052018325009924 -1.1392531179314493 -0.0936345382257002
63 -0.37480273570858746 -1.7155427171760393 1.871324252373528 -3.3033936049296417 -1.1396083172948943 -0.09354248102069575
64 -0.3744478664765171 -1.7151020340154413 1.8702854986463722 -3.3015894067498692 -1.1399648023257314 -0.09343925705495539
65 -0.37409265948646514 -1.7146612447072178 1.8692475124911765 -3.299789329401263 -1.14032254212295 -0.09332489730049084
66 -0.37373714642321737 -1.7142203463180237 1.8682103251521767 -3.2979934639847817 -1.1406815048959487 -0.0931994333634336
67 -0.37338135824206753 -1.7137793359639453 1.867173967912489 -3.2962019012503907 -1.1410416580312797 -0.09306289747954126
68 -0.37302532520838655 -1.7133382108084412 1.8661384720847547 -3.2944147315852406 -1.141402968155728 -0.09291532250968683
69 -0.3726690769344626 -1.712896968060429 1.8651038690022046 -3.2926320450023594 -1.1417654011959517 -0.09275674193532997
70 -0.3723126424137858 -1.7124556049725066 1.864070190010119 -3.2908539311298304 -1.1421289224348894 -0.09258718985396892
71 -0.3719560500529415 -1.7120141188393023 1.86303746645766 -3.289080479200417 -1.1424934965651419 -0.09240670097457218
72 -0.37159932770126575 -1.7115725069959422 1.8620057296900485 -3.2873117780416155 -1.1428590877395064 -0.09221531061298884
73 -0.37124250267840636 -1.7111307668166278 1.8609750110410694 -3.2855479160661085 -1.1432256596188406 -0.09201305468733678
74 -0.3708856017999256 -1.7106888957133184 1.8599453418258831 -3.283788981262596 -1.1435931754174191 -0.09179996971336768
75 -0.3705286514010701 -1.7102468911345083 1.8589167533341224 -3.2820350611869755 -1.1439615979459343 -0.09157609279980809
76 -0.3701716773588281 -1.709804750564095 1.8578892768232609 -3.280286242953864 -1.1443308896522852 -0.09134146164367592
77 -0.36981470511238407 -1.70936247152033 1.8568629435122332 -3.2785426132284297 -1.1447010126602872 -0.09109611452557143
78 -0.36945775968207645 -1.7089200515548484 1.8558377845752934 -3.276804258218523 -1.1450719288064286 -0.09084009030494232
79 -0.36910086568695627 -1.708477488251772 1.854813831136096 -3.275071263667089 -1.1454435996747914 -0.09057342841532232
80 -0.36874404736103805 -1.708034779226878 1.853791114261988 -3.2733437148448457 -1.1458159866302453 -0.0902961688595426
81 -0.36838732856833 -1.7075919221268332 1.8527696649584973 -3.2716216965432108 -1.146189050850019 -0.0900083522049159
82 -0.3680307328167238 -1.7071489146284848 1.851749514164007 -3.2699052930674712 -1.1465627533537424 -0.0897100195783928
83 -0.3676742832708201 -1.7067057544382076 1.850730692744604 -3.268194588230175 -1.1469370550320543 -0.08940121266168984
84 -0.3673180027637604 -1.706262439291301 1.8497132314890932 -3.2664896653447397 -1.1473119166738546 -0.08908197368638947
85 -0.3669619138081331 -1.7058189669514332 1.8486971611041665 -3.2647906072192616 -1.1476872989922828 -0.08875234542901142
86 -0.36660603860601404 -1.7053753352101297 1.8476825122097162 -3.2630974961505217 -1.1480631626494975 -0.08841237120605554
87 -0.36625039905820284 -1.7049315418863025 1.84666931533429 -3.261410413918174 -1.1484394682803225 -0.08806209486901606
88 -0.36589501677270725 -1.7044875848258163 1.8456576009106724 -3.2597294417791125 -1.1488161765148281 -0.08770156079936724
89 -0.3655399130725292 -1.7040434619010907 1.8446473992715935 -3.258054660462001 -1.149193247999905 -0.08733081390352056
90 -0.36518510900279905 -1.7035991710107345 1.8436387406455503 -3.25638615016197 -1.1495706434198876 -0.08694989960775347
91 -0.3648306253373045 -1.70315471007921 1.8426316551527426 -3.254723990535461 -1.1499483235162822 -0.08655886385311005
92 -0.3644764825844555 -1.7027100770565247 1.8416261728011096 -3.2530682606952226 -1.1503262491066462 -0.08615775309027368
93 -0.36412270099272565 -1.7022652699179495 1.8406223234824701 -3.251419039205445 -1.1507043811026667 -0.08574661427441208
94 -0.36376930055560697 -1.7018202866637606 1.839620136968755 -3.249776404077033 -1.1510826805274819 -0.08532549485999501
95 -0.36341630101611244 -1.7013751253190026 1.838619642908329 -3.248140432763006 -1.1514611085322826 -0.08489444279558518
96 -0.3630637218708595 -1.7009297839332718 1.8376208708224009 -3.2465112021540286 -1.1518396264122375 -0.08445350651860249
97 -0.362711582373765 -1.7004842605805193 1.8366238501015135 -3.2448887885740567 -1.1522181956217707 -0.0840027349500624
98 -0.3623599015393799 -1.70003855335887 1.8356286100021126 -3.2432732677761074 -1.1525967777892312 -0.08354217748928873
99 -0.3620086981458909 -1.6995926603904574 1.8346351796431908 -3.2416647149381363 -1.1529753347309795 -0.08307188400860155
100 -0.36165799073781346 -1.699146579821274 1.833643588003003 -3.240063204659031 -1.1533538284649245 -0.08259190484798071
101 -0.36130779762840093 -1.6987003098210327 1.8326538639158512 -3.2384688109547057 -1.1537322212235366 -0.08210229080970564
102 -0.3609581369017901 -1.698253848583043 1.8316660360689347 -3.2368816072543005 -1.1541104754663598 -0.08160309315297214
103 -0.3606090264149054 -1.697807194324095 1.830680132999266 -3.235301666396486 -1.1544885538920513 -0.08109436358848666
104 -0.3602604837991396 -1.6973603452843569 1.8296961830906446 -3.233729060625861 -1.154866419449965 -0.08057615427303916
105 -0.35991252646183036 -1.6969132997272782 1.8287142145706956 -3.2321638615894455 -1.1552440353513052 -0.08004851780405484
106 -0.3595651715875483 -1.6964660559395042 1.8277342555079599 -3.2306061403332724 -1.1556213650798657 -0.07951150721412588
107 -0.3592184361392131 -1.696018612230795 1.8267563338090456 -3.2290559672990633 -1.1559983724023748 -0.07896517596552391
108 -0.35887233685905234 -1.695570966933954 1.8257804772158297 -3.2275134123210005 -1.1563750213784614 -0.07840957794469385
109 -0.3585268902694163 -1.69512311840476 1.8248067133027142 -3.2259785446225804 -1.1567512763702594 -0.07784476745673022
110 -0.3601852546501834 -1.6937092067727813 1.8277902371794503 -3.223887489674433 -1.157881233171292 -0.07727079921983665
111 -0.36171836830610277 -1.6923392839471778 1.8292641915020942 -3.221996562185392 -1.1588792650746338 -0.07663923031038648
112 -0.3631396117613808 -1.690999098935876 1.8297117582466556 -3.220247174277344 -1.1597576908458425 -0.07596633812206892
113 -0.36446059288301313 -1.6896783679406482 1.8294643998217504 -3.2185987455253726 -1.1605276465488454 -0.07526316142099218
114 -0.3656911176602425 -1.6883698166093113 1.828748050603954 -3.2170233867354208 -1.1611988596323624 -0.074537149658784
115 -0.3668394318176836 -1.687068365118721 1.8277160241463497 -3.2155020216731276 -1.1617797560290697 -0.07379331037406925
116 -0.3679125201146474 -1.6857704927412178 1.826472023949646 -3.2140216338342738 -1.1622776637736514 -0.07303499813404105
117 -0.3689163778368044 -1.6844737673633157 1.8250860325228315 -3.2125733465651796 -1.162699016971161 -0.07226445278735136
118 -0.36985622978028815 -1.6831765082261394 1.8236051898009897 -3.2111511000528696 -1.1630495281906565 -0.07148316476281298
119 -0.3707366971950052 -1.6818775491665003 1.822061198253196 -3.2097507467566855 -1.163334324116634 -0.0706921221025175
120 -0.37156192151761797 -1.6805760746969394 1.8204753440458605 -3.2083694361369477 -1.1635580489010882 -0.06989197710139627
121 -0.37233565498610005 -1.679271507576411 1.8188618927707187 -3.207005197567312 -1.1637249420049671 -0.0690831585126745
122 -0.3730613269281972 -1.67796343219881 1.8172303818446345 -3.2056566581878143 -1.1638388969148934 -0.06826594699385624
123 -0.37374209260390734 -1.6766515426322863 1.8155871662367598 -3.2043228522642355 -1.1639035059068483 -0.06744052577348886
124 -0.3743808696983945 -1.675335607501078 1.8139364599173373 -3.2030030924322284 -1.1639220947639424 -0.06660701463498288
125 -0.37498036612395497 -1.6740154463165577 1.8122810372012685 -3.2016968827191117 -1.1638977502914016 -0.06576549267803475
126 -0.3755431017082389 -1.6726909135625463 1.8106227049218349 -3.200403859737537 -1.1638333426536314 -0.06491601353559417
127 -0.37607142556317436 -1.6713618880175518 1.8089626202775226 -3.199123752863955 -1.163731543957731 -0.0640586155214289
128 -0.37656753037537183 -1.6700282656056127 1.8073015047907883 -3.1978563572073644 -1.1635948440789456 -0.06319332837287586
129 -0.377033464472813 -1.6686899546197478 1.8056397883463096 -3.196601515195608 -1.1634255644222111 -0.06232017770786399
130 -0.37937460880498225 -1.6663798023893273 1.8076160627024163 -3.194818209461475 -1.1639368500204916 -0.061439187948377695
131 -0.3815539117879719 -1.6641060865899004 1.8081488661089526 -3.193231460389507 -1.1642811541375016 -0.06050578751572895
132 -0.38359500339254066 -1.661852219101545 1.8077146517612137 -3.1917828667988886 -1.1644785789519274 -0.05953522840192427
133 -0.3855172425670553 -1.6596059958188674 1.8066354951413641 -3.1904325643578844 -1.1645457821093816 -0.05853764247184854
134 -0.38733586886515736 -1.6573588052676593 1.8051266122668752 -3.189153709081113 -1.1644962454245236 -0.05751971218516387
135 -0.389062738378854 -1.6551047390686862 1.8033306649115812 -3.187928383644063 -1.164340876842153 -0.05648582376423884
136 -0.3907071232983663 -1.6528398249715597 1.8013416941030667 -3.186744693305792 -1.164088614801275 -0.055438847878576336
137 -0.3922763897763464 -1.6505614366239951 1.799221446108882 -3.185594764067622 -1.1637469263977418 -0.0543806613550596
138 -0.3937765165697902 -1.648267866105919 1.7970103445438368 -3.1844733881902947 -1.1633221843173156 -0.05331249279876349
139 -0.3952124715977804 -1.6459580252961046 1.7947347915998881 -3.1833771188232327 -1.162819940037202 -0.05223515021094694
140 -0.3965884775884498 -1.643631241978105 1.792411994319089 -3.1823036696766605 -1.1622451176508406 -0.05114917028696606
141 -0.3979081965987927 -1.6412871228033636 1.7900531405393134 -3.18125151906652 -1.161602150257662 -0.05005491606611346
142 -0.3991748572915318 -1.638925462278649 1.78766548246252 -3.1802196496564776 -1.160895076063817 -0.048952640671214916
143 -0.4003913426693154 -1.6365461829435795 1.7852537007673202 -3.17920737775536 -1.1601276067185127 -0.04784252885151928
144 -0.4015602508402497 -1.6341492964686029 1.782820796514312 -3.1782142414739933 -1.159303176703106 -0.04672472402748582
145 -0.40268393752927556 -1.63173487868609 1.780368673882732 -3.1772399274546017 -1.1584249798467918 -0.04559934588077332
146 -0.40376454628485253 -1.6293030538525535 1.7778985208478653 -3.176284222824924 -1.157495997098075 -0.04446650178564324
147 -0.4048040304051945 -1.6268539850003023 1.7754110579815838 -3.1753469836217976 -1.1565190183367235 -0.04332629423248761
148 -0.40580416929112156 -1.6243878682888178 1.7729067012756694 -3.1744281139539328 -1.15549666009548 -0.042178825644959
149 -0.40676658104155694 -1.621904929969489 1.7703856689647177 -3.173527552159331 -1.1544313804435438 -0.04102420150297745
150 -0.40769273250956756 -1.6194054250447931 1.7678480519056716 -3.1726452615132357 -1.153325491870268 -0.039862532364864325
151 -0.40858394763759 -1.6168896370122514 1.7652938602628396 -3.17178122389263 -1.152181172731531 -0.038693935173990134
152 -0.4066062253975656 -1.6158960823340078 1.7576120169216791 -3.171722360374554 -1.1499792237768949 -0.03751853409996579
153 -0.4021020039089862 -1.6162682217361226 1.7471111149250182 -3.1721564221808873 -1.1469957606942471 -0.036399328430825294
154 -0.39814580961523194 -1.6163792120541025 1.7403002160019831 -3.1721066949313017 -1.1444521294713363 -0.035375961299807954
155 -0.39459465118247616 -1.616328515285947 1.7357992370600621 -3.171754393016969 -1.1422490788886175 -0.03441009595481574
156 -0.3913604212401895 -1.6161741000963539 1.7327545643629552 -3.171210680789929 -1.140323863889272 -0.033477620792067904
157 -0.38838475186674415 -1.615951457585872 1.7306292385077937 -3.1705454281705987 -1.1386335701689823 -0.032563316355769596
158 -0.38562701065783156 -1.6156829106546942 1.729082993074195 -3.1698031472404367 -1.1371470721370462 -0.03165759606286348
159 -0.38305773256356546 -1.6153827302114863 1.7278996455219284 -3.169012440493432 -1.1358406847247695 -0.030754459800333703
160 -0.3806547165968336 -1.6150601502292659 1.7269418506327459 -3.168191813694548 -1.1346956264560442 -0.029850193200117066
161 -0.37840060383489854 -1.6147212134534 1.7261225032800682 -3.167353322928511 -1.1336964672492362 -0.028942536728917036
162 -0.3762813400707856 -1.6143699245382057 1.725386541722281 -3.166504886896435 -1.1328301488807009 -0.028030154078348943
163 -0.3742851863777361 -1.6140089786127252 1.7246993333939906 -3.1656517613869117 -1.1320853525985042 -0.027112292120911756
164 -0.37240207523072916 -1.613640224607526 1.7240392536754305 -3.164797482560213 -1.1314520826661585 -0.026188563677550344
165 -0.37062318666731864 -1.6132649611282703 1.7233929436879205 -3.1639444716147396 -1.1309213864886731 -0.025258809028026574
166 -0.3689406653994959 -1.6128841259746467 1.7227522819127798 -3.16309442295858 -1.1304851621822185 -0.02432300787249952
167 -0.36734742864369996 -1.612498417872055 1.7221124524061955 -3.162248553753152 -1.1301360226990638 -0.023381223577595967
168 -0.3658370326256053 -1.6121083749041907 1.7214707143957386 -3.161407764620623 -1.129867196904226 -0.022433568047862555
169 -0.36440357726629197 -1.6117144252474427 1.7208256201269838 -3.1605727433985384 -1.1296724550804798 -0.02148017974714114
170 -0.3630416359185598 -1.6113169201649356 1.7201765188804818 -3.1597440323686046 -1.1295460508211672 -0.020521210082752043
171 -0.36174620172443595 -1.6109161556227558 1.7195232434486425 -3.158922072047307 -1.1294826741245785 -0.0195568150913564
172 -0.36051264517150017 -1.610512386596051 1.718865912770574 -3.158107229922266 -1.1294774123275468 -0.018587150472280288
173 -0.3593366793490828 -1.610105836666586 1.7182048083829673 -3.1572998195037836 -1.1295257166840487 -0.01761236872308587
174 -0.3582143306363225 -1.6096967045763497 1.7175402976786265 -3.156500113130001 -1.1296233731441017 -0.016632617585694714
175 -0.35714191334214845 -1.6092851688029701 1.7168727867675688 -3.1557083507277426 -1.1297664763700233 -0.01564803930104662
176 -0.35611600732214155 -1.608871390839991 1.7162026919965727 -3.1549247459400207 -1.1299514063374623 -0.014658770355015015
177 -0.3551334379210971 -1.6084555176205344 1.7155304231771495 -3.154149490525194 -1.1301748070692368 -0.013664941515911007
178 -0.3541912577983001 -1.6080376833665966 1.714856374116829 -3.153382757609318 -1.1304335671803123 -0.01266667803863733
179 -0.3532867303268286 -1.6076180110463516 1.7141809176681344 -3.1526247041664455 -1.130724801997538 -0.011664099957927433
180 -0.352417314345309 -1.6071966135579518 1.7135044035387674 -3.1518754729694316 -1.1310458370741576 -0.010657322423053377
181 -0.35158065009751677 -1.6067735947174082 1.7128271577595238 -3.151135194169212 -1.131394192956989 -0.009646456045252256
182 -0.3507745462329208 -1.606349050101894 1.7121494831200696 -3.150403986606337 -1.1317675710901196 -0.00863160724095067
183 -0.3499969677666404 -1.6059230677829266 1.7114716601441375 -3.1496819589237623 -1.13216384075721 -0.00761287856123856
184 -0.34924602491474604 -1.605495728972976 1.7107939483405321 -3.14896921052747 -1.1325810269777585 -0.006590369002597673
185 -0.348519962733193 -1.6050671086019541 1.7101165875699291 -3.148265832426993 -1.133017299282625 -0.00556417429666832
186 -0.34781715149772885 -1.604637275835384 1.7094397994322785 -3.147571907978465 -1.1334709613019085 -0.004534387178501526
187 -0.34713607776899336 -1.6042062945429776 1.7087637886199787 -3.1468875135465684 -1.1339404411045586 -0.003501097633711439
188 -0.3464753360924675 -1.6037742237242594 1.7080887442069095 -3.1462127190976186 -1.1344242822343842 -0.002464393125478633
189 -0.345833621287383 -1.6033411178964654 1.7074148408586345 -3.1455475887332027 -1.1349211353916455 -0.001424358802625829
190 -0.34520972128247407 -1.6029070274489376 1.7067422399582444 -3.1448921811718313 -1.1354297507134088 -0.0003810776900980391
191 -0.3446025104597337 -1.6024719989675231 1.7060710906476766 -3.144246550184696 -1.1359489706094075 0.000665369136805295
192 -0.3440109434702436 -1.6020360755319483 1.7054015307873882 -3.1436107449905926 -1.1364777231133698 0.0017149023931374325
193 -0.34343404948876927 -1.6015992969887356 1.7047336878388502 -3.1429848106143368 -1.1370150157127268 0.0027674444387099416
194 -0.3428709268762004 -1.6011617002019058 1.70406767967506 -3.142368788212384 -1.137559929622305 0.0038229191450379354
195 -0.34232073822110604 -1.6007233192834502 1.7034036153244814 -3.141762715368918 -1.1381116144701018 0.004881251773752868
196 -0.3417827057336991 -1.6002841858053423 1.7027415956537393 -3.141166626365273 -1.1386692833655472 0.00594236886549711
197 -0.34125610696737674 -1.599844328994677 1.7020817139941489 -3.1405805524252464 -1.1392322083227702 0.007006198138397208
198 -0.3407402708447387 -1.5994037759133675 1.7014240567168353 -3.140004521938567 -1.1397997160133793 0.008072668395290576
199 -0.3402345739666031 -1.5989625516236894 1.7007687037608377 -3.139438560664572 -1.1403711838250818 0.009141709438952442
200 -0.33973843718403846 -1.5985206793408537 1.7001157291182425 -3.138882691917913 -1.140946036204173 0.010213251994636146
201 -0.3392513224148284 -1.5980781805736657 1.6994652012800249 -3.138336936737955 -1.1415237412614987 0.011287227639300604
202 -0.33877272968708666 -1.5976350752542485 1.6988171836459705 -3.1378013140433496 -1.1421038076229577 0.01236356873695385
203 -0.3383021943939486 -1.5971913818577126 1.6981717349017325 -3.1372758407731327 -1.1426857815069686 0.013442208379592022
204 -0.33783928474439356 -1.5967471175125818 1.6975289093658097 -3.136760532015567 -1.143269244012586 0.014523080333258711
205 -0.33956809446731245 -1.5952088406347338 1.7009304510912284 -3.1356524540623165 -1.1446100951434395 0.015606118988791192
206 -0.3409905600767111 -1.593802501251538 1.7024145276557625 -3.1348048673481803 -1.1457300340303653 0.01674324168597812
207 -0.3421876057906106 -1.5924814431433276 1.7027288507220122 -3.1341230206916877 -1.1466809309423744 0.017913177795158018
208 -0.34321456837461056 -1.5912148790694172 1.7023388973811258 -3.1335473578665454 -1.147499027134701 0.019102927179983645
209 -0.34410892191127695 -1.589983063508009 1.7015302533080856 -3.133041064584497 -1.1482095161668313 0.02030462041938373
210 -0.34489616206711343 -1.588773564135146 1.7004762041341337 -3.1325816470664667 -1.148830136944763 0.021513529021857592
211 -0.3455939659562919 -1.5875786285897135 1.6992810102967804 -3.132155463587785 -1.1493737231747874 0.022726827766201146
212 -0.346214971648464 -1.5863934343396546 1.6980069632909403 -3.1317542764471593 -1.149849905370943 0.023942835727792627
213 -0.3467685703565818 -1.585214969036774 1.6966910278355316 -3.131373120118619 -1.1502662079922406 0.025160555491549726
214 -0.34726203853987747 -1.584041330876258 1.695354968041145 -3.1310089998464203 -1.1506287438499143 0.02637939535409299
215 -0.34770124589401386 -1.5828712976699149 1.694011464563058 -3.13066010371892 -1.15094265064382 0.027599002701775566
216 -0.3480910971223634 -1.5817040637496957 1.6926677917064241 -3.130325328210564 -1.151212365991318 0.028819164482512847
217 -0.3484358088250961 -1.580539080167811 1.6913280198394518 -3.130003993532872 -1.1514418025067175 0.03003974798120849
218 -0.34873908499341777 -1.579375957896573 1.6899943307541523 -3.129695673300512 -1.1516344613573453 0.03126066572367075
219 -0.34900423031946504 -1.578214409228164 1.6886678012324923 -3.129400092790866 -1.1517935079626356 0.032481854786070144
220 -0.34923422533324866 -1.5770542122492353 1.6873488686052294 -3.129117068251575 -1.151921824300049 0.03370326468376623
221 -0.34943177799778913 -1.575895189219559 1.686037606542438 -3.1288464707209904 -1.1520220466214646 0.03492485035671714
222 -0.3495993606550827 -1.5747371933163186 1.68473388781358 -3.128588204462171 -1.1520965939309653 0.036146568173662665
223 -0.34973923772424065 -1.5735801004088024 1.6834374798476093 -3.1283421940962577 -1.152147690479478 0.03736837371770974
224 -0.349853487436537 -1.5724238038593872 1.6821481004186158 -3.1281083769082385 -1.15217738426393 0.03859022061776382
225 -0.34994401961176197 -1.5712682111486067 1.6808654497240403 -3.127886698225105 -1.1521875627528544 0.03981205998939545
226 -0.35001259070678137 -1.5701132416041141 1.6795892285247291 -3.1276771086179553 -1.152179966598151 0.04103384022679754
227 -0.35006081690006546 -1.5689588248025166 1.6783191480855333 -3.127479562186915 -1.152156201813476 0.0422555069933278
228 -0.3503401268582562 -1.5676753013616311 1.677504192532827 -3.1272256251370236 -1.1522034573264845 0.04347700332094648
229 -0.35055607677892064 -1.5664128457652546 1.6764612810260464 -3.127014784162054 -1.15220795001807 0.044704100838040675
230 -0.35072493559108986 -1.5651629890012768 1.6752904422868335 -3.126833913543514 -1.1521797608592808 0.04593415589983082
231 -0.3508569585445269 -1.5639207539865674 1.6740492336094313 -3.1266754102318077 -1.1521255037003257 0.047165626703646546
232 -0.3509587892839435 -1.5626832286094754 1.672770571353668 -3.1265348837773046 -1.1520496955021238 0.048397605756268926
233 -0.35103490401769705 -1.5614487109536261 1.671473166235964 -3.1264098001741814 -1.151955578346693 0.04962954867829043
234 -0.3510884688693894 -1.5602162047710806 1.6701675796427384 -3.1262986931382444 -1.151845607247646 0.05086111783971503
235 -0.3511218456125826 -1.5589851244135404 1.6688597180682172 -3.126200708285066 -1.1517217384577423 0.05209209262753915
236 -0.3511368894777067 -1.5577551232715119 1.667552840557987 -3.126115340885746 -1.1515856001266342 0.05332231816296404
237 -0.35113512496546495 -1.5565259943975445 1.6662487077668449 -3.1260422855123515 -1.151438594056059 0.054551676112722554
238 -0.3511178504093818 -1.5552976130699032 1.6649482375244993 -3.1259813500762172 -1.1512819572365105 0.0557800681521088
239 -0.3510862010130974 -1.5540699036235126 1.663651877630477 -3.1259324067985332 -1.151116799918988 0.057007406649777055
240 -0.3510411876863245 -1.5528428202787063 1.6623598170960703 -3.125895364302511 -1.1509441299614707 0.058233609461822405
241 -0.35098372174082937 -1.5516163360248654 1.6610721053435098 -3.125870151753968 -1.1507648690958794 0.059458597056132365
242 -0.35091463127651196 -1.550390436130921 1.659788719110491 -3.1258567098583985 -1.1505798643833918 0.0606822909529398
243 -0.3508346726315944 -1.549165114310767 1.6585095997298651 -3.125854985751305 -1.1503898967496207 0.06190461290511676
244 -0.3507445388494039 -1.5479403704119845 1.6572346736808123 -3.1258649300947376 -1.1501956876966004 0.06312548449145589
245 -0.3506448662933953 -1.5467162089799498 1.655963863728967 -3.1258864954219083 -1.1499979048307265 0.06434482693831446
246 -0.3505362400689649 -1.5454926383270375 1.6546970947963677 -3.1259196351870067 -1.1497971665823712 0.06556256106568524
247 -0.35041919863829424 -1.5442696698956402 1.6534342968978883 -3.1259643032133533 -1.1495940463413667 0.06677860729944685
248 -0.35029423785781955 -1.5430473177945598 1.6521754064586227 -3.1260204533668223 -1.1493890761453105 0.06799288571734244
249 -0.3501618145777584 -1.541825598440099 1.6509203667491086 -3.1260880393571173 -1.1491827500072682 0.06920531611075541
250 -0.35002234989110204 -1.5406045302626308 1.649669127849777 -3.1261670146121645 -1.1489755269401676 0.07041581805249474
251 -0.349876232089303 -1.5393841334561327 1.6484216463731056 -3.1262573321948968 -1.1487678337179656 0.07162431096535138
252 -0.34972381936420543 -1.5381644297576484 1.6471778850694827 -3.126358944745173 -1.1485600674033603 0.07283071418871355
253 -0.34956544228522807 -1.536945442249001 1.6459378123855857 -3.126471804437129 -1.148352597665465 0.07403494704192244
254 -0.34940140607436826 -1.5357271951761147 1.6447014020122435 -3.1265958629464676 -1.1481457689067847 0.07523692888381014
255 -0.3492319926974999 -1.534509713783037 1.6434686324411492 -3.126731071424538 -1.1479399022160686 0.07643657916826971
256 -0.34905746278770666 -1.533293024158728 1.6422394865400851 -3.1268773804773797 -1.1477352971616352 0.07763381749592005
257 -0.3488780574144566 -1.5320771530952546 1.6410139511510358 -3.127034740148625 -1.1475322334382494 0.07882856366203438
258 -0.34869399971096493 -1.5308621279563703 1.6397920167127076 -3.127203099905566 -1.147330972379406 0.08002073770094772
259 -0.34850549637092904 -1.5296479765556528 1.6385736769074721 -3.127382408627923 -1.1471317583458482 0.08121025992717505
260 -0.3483127390248468 -1.5284347270435095 1.6373589283319774 -3.127572614598982 -1.1469348200002405 0.08239705097347055
261 -0.34811590550528704 -1.5272224078024466 1.6361477701903053 -3.1277736654988524 -1.146740371477129 0.08358103182604962
262 -0.34791516100973263 -1.5260110473500579 1.6349402040084005 -3.1279855083996266 -1.146548613456585 0.08476212385718215
263 -0.3477106591689441 -1.5248006742492408 1.6337362333684682 -3.1282080897622766 -1.1463597341492777 0.085940248855351
264 -0.34750254302817735 -1.523591317025183 1.6325358636620548 -3.1284413554351245 -1.1461739102001125 0.0871153290531552
265 -0.3472909459480271 -1.522383004088705 1.631339101860586 -3.1286852506537475 -1.145991307517016 0.08828728715312299
266 -0.3470759924311514 -1.5211757636655607 1.6301459563022056 -3.1289397200421947 -1.145812082030939 0.08945604635158648
267 -0.3468577988806549 -1.5199696237313398 1.6289564364938212 -3.129204707615392 -1.1456363803926732 0.09062153036075694
268 -0.34663647429547007 -1.5187646119516278 1.6277705529273472 -3.1294801567826314 -1.1454643406116414 0.09178366342912864
269 -0.3464121209076703 -1.5175607556271096 1.6265883169092 -3.1297660103520415 -1.1452960926414202 0.09294237036032758
270 -0.34618483476627065 -1.5163580816433198 1.6254097404021597 -3.130062210535951 -1.1451317589163788 0.0940975765305128
271 -0.3459547062717295 -1.5151566164247645 1.6242348358787897 -3.130368698957056 -1.1449714548434755 0.09524920790442779
272 -0.345721820665041 -1.5139563858931535 1.6230636161856489 -3.130685416655311 -1.1448152892529397 0.09639719105019218
273 -0.3454862584750141 -1.5127574154295003 1.6218960944175949 -3.1310123040954734 -1.144663364811262 0.09754145315291607
274 -0.3452480959270577 -1.5115597298398635 1.620732283801522 -3.1313493011752325 -1.1445157783996607 0.09868192202721253
275 -0.3450074053165424 -1.5103633533245149 1.6195721975889268 -3.1316963472338557 -1.14437262146093 0.09981852612867753
276 -0.34476425534957106 -1.5091683094503328 1.6184158489567346 -3.1320533810612985 -1.1442339803173487 0.10095119456440133
277 -0.3445187114537777 -1.507974621126232 1.617263250915862 -3.1324203409077223 -1.144099936462114 0.10207985710256952
278 -0.34427083606157294 -1.506782310581453 1.6161144162270273 -3.1327971644933674 -1.143970566826572 0.1032044441812081
279 -0.34402068886806864 -1.5055913993465424 1.6149693573233528 -3.1331837890187377 -1.1438459440253255 0.10432488691612189
280 -0.3437683270657454 -1.5044019082368645 1.6138280862393355 -3.1335801511750536 -1.1437261365811413 0.10544111710807261
281 -0.34351380555776734 -1.5032138573384985 1.6126906145457915 -3.133986187154931 -1.1436112091314197 0.1065530672492387
282 -0.3432571771517031 -1.5020272659963765 1.6115569532904073 -3.134401832663249 -1.1435012226178438 0.10766067052899653
283 -0.34299849273527605 -1.5008421528045295 1.6104271129435501 -3.1348270229281794 -1.143396234460697 0.10876386083905924
284 -0.3427378014356437 -1.4996585355983159 1.6093011033490223 -3.1352616927123345 -1.1432962987192163 0.10986257277800739
285 -0.34247515076358837 -1.4984764314485124 1.6081789336794539 -3.1357057763240124 -1.1432014662392325 0.11095674165524276
286 -0.34221058674389676 -1.4972958566571515 1.6070606123960562 -3.1361592076285123 -1.143111784789245 0.11204630349439523
287 -0.34194415403310524 -1.4961168267549996 1.6059461472124712 -3.136621920059493 -1.1430272991859884 0.11313119503620998
288 -0.34167589602569765 -1.4949393565005722 1.6048355450624705 -3.1370938466303477 -1.1429480514104537 0.11421135374094132
289 -0.34140585494975684 -1.4937634598805882 1.6037288120712716 -3.1375749199455853 -1.1428740807152453 0.11528671779027735
290 -0.33854334063359337 -1.4939632917029386 1.5982065980222857 -3.1387277852800914 -1.141977328142037 0.11635722608881863
291 -0.336488974037002 -1.4937647329674104 1.5955744385425905 -3.139493412434465 -1.1414936387457615 0.11736152569861777
292 -0.3348285089942119 -1.4933948732063074 1.594202212684304 -3.1400936376306596 -1.1412296210489015 0.11833385994337942
293 -0.3333853094409684 -1.49294759733129 1.5933928491092135 -3.1406226177266223 -1.1411010064148814 0.11928925958317349
294 -0.33207773897826687 -1.4924644627065968 1.5928352683338378 -3.1411223335174747 -1.1410673877991604 0.12023450575174549
295 -0.3308661097057511 -1.4919642494519105 1.5923893495766046 -3.1416117681368125 -1.141107791716225 0.12117268201680592
296 -0.32972986040734753 -1.4914555128540616 1.5919920621753154 -3.1420995465210657 -1.1412101924141933 0.12210519757985173
297 -0.32865730216075073 -1.490942177305976 1.5916152447127074 -3.1425896019874413 -1.14136680928202 0.12303270225166191
298 -0.3276409491099483 -1.4904260662948026 1.5912464716296013 -3.1430837413954165 -1.1415719641724724 0.12395550147276885
299 -0.32667538256041695 -1.489908050213174 1.5908803838728087 -3.1435828076979946 -1.1418210962139488 0.12487374423376335
300 -0.32575626991674234 -1.489388566468145 1.5905147731497693 -3.1440872058352523 -1.142110303253768 0.12578750788428947
301 -0.3248799099110289 -1.4888678545454157 1.5901488212597548 -3.1445971400141435 -1.1424361232141753 0.12669683627445213
302 -0.3240430172849907 -1.4883460619886208 1.5897823127456217 -3.1451127205670626 -1.142795424854831 0.12760175686455638
303 -0.32324261635444085 -1.4878232921377548 1.5894152851430863 -3.1456340120936135 -1.1431853486485495 0.12850228840107528
304 -0.3224759842326549 -1.4872996256899926 1.5890478749961796 -3.146161055260174 -1.143603270904489 0.1293984443818348
305 -0.32174061694672634 -1.4867751305329482 1.588680250979004 -3.1466938768121766 -1.144046778990437 0.13029023465104994
306 -0.32103420638222435 -1.486249866334521 1.5883125855350153 -3.147232494315336 -1.1445136521586243 0.13117766616776336
307 -0.32035462262023284 -1.485723886787067 1.5879450434142228 -3.1477769185321782 -1.1450018454748365 0.13206074341037788
308 -0.31969989920709374 -1.4851972407962564 1.5875777775391422 -3.1483271547263714 -1.1455094756947204 0.13293946862115336
309 -0.3190682202286392 -1.4846699731877482 1.5872109279890523 -3.148883203468955 -1.146034808533296 0.13381384197981616
310 -0.3184579086549761 -1.4841421251860822 1.586844622263538 -3.1494450612019573 -1.146576247043769 0.13468386174487576
311 -0.31786741568720284 -1.483613734779063 1.5864789760303402 -3.150012720674056 -1.1471323209438573 0.13554952437911966
312 -0.3172953109565782 -1.4830848370186036 1.5861140940195424 -3.150586171300771 -1.147701676784221 0.13641082466616675
313 -0.3167402734810496 -1.4825554642815202 1.585750070924751 -3.1511653994742175 -1.1482830688807732 0.13726775582085723
314 -0.31620108330982016 -1.4820256465016401 1.5853869922573811 -3.1517503888352185 -1.1488753509468608 0.13812030959454322
315 -0.31567661379974954 -1.4814954113791805 1.5850249351363825 -3.1523411205150746 -1.1494774683696685 0.13896847637565723
316 -0.31516582447486113 -1.4809647845709144 1.5846639690106266 -3.1529375733516836 -1.150088451080896 0.13981224528568412
317 -0.314667754425148 -1.4804337898634907 1.5843041563169833 -3.1535397240834167 -1.1507074069761085 0.1406516042705879
318 -0.3141815162045822 -1.4799024493316932 1.5839455530790645 -3.1541475475234395 -1.1513335158408493 0.14148654018774198
319 -0.31370629019131835 -1.479370783483102 1.5835882094519984 -3.1547610167167184 -1.151966023744835 0.14231703888843036
320 -0.31324131937581234 -1.478838811390418 1.5832321702183734 -3.1553801030816437 -1.1526042378684993 0.14314308529601213
321 -0.3127859045450548 -1.4783065508125575 1.5828774752400696 -3.156004776537944 -1.1532475217288523 0.14396466347986414
322 -0.3123393998334105 -1.4777740183055135 1.5825241598702227 -3.1566350056223618 -1.1538952907741071 0.14478175672523472
323 -0.3119012086126823 -1.4772412293238812 1.5821722553291235 -3.1572707575934107 -1.1545470083188383 0.14559434759915554
324 -0.31147077969599607 -1.476708198313856 1.5818217890474557 -3.157911998526346 -1.1552021817935636 0.1464024180125673
325 -0.3110476038319501 -1.4761749387984409 1.5814727849799055 -3.1585586933993826 -1.1558603592846257 0.1472059492788218
326 -0.3106312104671874 -1.4756414634555357 1.5811252638918738 -3.1592108061720623 -1.156521126342069 0.14800492216872568
327 -0.3102211647571501 -1.4751077841895115 1.5807792436217338 -3.159868299856572 -1.157184103034913 0.1487993169622915
328 -0.30981706480626314 -1.4745739121968273 1.5804347393208351 -3.1605311365827276 -1.1578489412347814 0.14958911349736168
329 -0.3094185391201759 -1.4740398580261929 1.580091763673235 -3.161199277657265 -1.158515322110304 0.15037429121526713
330 -0.3090252442539796 -1.4735056316337403 1.579750327096953 -3.1618726836179936 -1.1591829538160427 0.15115482920367976
331 -0.30863686264150964 -1.4729712424336212 1.5794104379283624 -3.1625513142833235 -1.159851569360944 0.1519307062368128
332 -0.3082531005919543 -1.472436699344416 1.5790721025911911 -3.1632351287976186 -1.160520924642458 0.15270190081311813
333 -0.3078736864410176 -1.4719020108317051 1.5787353257514605 -3.1639240856727673 -1.1611907966335309 0.15346839119062425
334 -0.307498368844841 -1.4713671849471206 1.5784001104595702 -3.1646181428263445 -1.1618609817106553 0.15423015542005244
335 -0.307126915205774 -1.470832229364175 1.5780664582806305 -3.1653172576166755 -1.1625312941120718 0.15498717137584297
336 -0.30675911021990376 -1.4702971514111305 1.5777343694140409 -3.166021386875097 -1.1632015645160507 0.15573941678521674
337 -0.30639475453701553 -1.4697619581011594 1.5774038428032262 -3.16673048693567 -1.163871638729958 0.15648686925539215
338 -0.30603366352435923 -1.4692266561600147 1.5770748762363616 -3.167444513662586 -1.1645413764815202 0.15722950629907043
339 -0.3056756661262524 -1.46869125205142 1.576747466438845 -3.1681634224754642 -1.1652106503043747 0.15796730535829706
340 -0.3053206038121512 -1.4681557520003652 1.5764216091582093 -3.1688871683727404 -1.1658793445105855 0.15870024382680128
341 -0.30496832960638304 -1.4676201620144829 1.5760972992421014 -3.1696157059533103 -1.1665473542433835 0.15942829907090972
342 -0.30461870719325135 -1.4670844879036595 1.575774530709917 -3.1703489894365835 -1.1672145846038995 0.1601514484491248
343 -0.30427161009170145 -1.4665487352980306 1.5754532968186055 -3.1710869726810906 -1.1678809498461473 0.16086966933045393
344 -0.3039269208941807 -1.4660129096644896 1.5751335901231427 -3.171829609201764 -1.1685463726349514 0.16158293911156976
345 -0.30358453056473533 -1.4654770163218338 1.574815402532101 -3.17257685218601 -1.1692107833619272 0.16229123523287736
346 -0.3032443377917658 -1.4649410604546584 1.574498725358733 -3.173328654508678 -1.1698741195149989 0.16299453519355983
347 -0.3029062483912127 -1.464405047126103 1.5741835493679295 -3.1740849687460138 -1.1705363250972898 0.16369281656566909
348 -0.3025701747562699 -1.4638689812895394 1.5738698648194025 -3.1748457471886895 -1.1711973500915422 0.1643860570073248
349 -0.30223603535001975 -1.463332867799295 1.5735576615073923 -3.1756109418539844 -1.1718571499665205 0.16507423427508047
350 -0.30190375423766436 -1.462796711420483 1.573246928797197 -3.17638050449719 -1.1725156852221281 0.16575732623551168
351 -0.3015732606552796 -1.4622605168380172 1.5729376556587764 -3.1771543866223 -1.1731729209702215 0.16643531087607855
352 -0.301244488612258 -1.4617242886648762 1.5726298306976723 -3.1779325394920503 -1.1738288265483372 0.16710816631531086
353 -0.30091737652482287 -1.461188031449678 1.572323442183471 -3.178714914137354 -1.1744833751637649 0.16777587081236112
354 -0.30059186687819844 -1.4606517496836207 1.5720184780760023 -3.179501461366191 -1.175136543565601 0.1684384027759679
355 -0.3002679059152076 -1.4601154478068439 1.5717149260494618 -3.180292131771988 -1.1757883117425953 0.16909574077286946
356 -0.29994544334923945 -1.4595791302142542 1.5714127735146326 -3.181086875741536 -1.1764386626447823 0.1697478635357045
357 -0.2996244320996902 -1.4590428012608594 1.5711120076393523 -3.181885643462481 -1.1770875819270339 0.17039474997043483
358 -0.2993048280481247 -1.4585064652666535 1.5708126153673774 -3.182688384930422 -1.1777350577128258 0.1710363791633221
359 -0.2989865898135441 -1.4579701265210863 1.5705145834357697 -3.1834950499556496 -1.178381080376635 0.1716727303874892
360 -0.2986696785452685 -1.457433789287153 1.5702178983909292 -3.1843055881695497 -1.1790256423435135 0.17230378310909417
361 -0.29835405773205986 -1.4568974578051332 1.569922546603383 -3.185119949030707 -1.1796687379044948 0.17292951699314305
362 -0.2980396930262163 -1.4563611362960096 1.5696285142814317 -3.185938081830724 -1.1803103630465945 0.1735499119089663
363 -0.29772655208146775 -1.4558248289645908 1.5693357874837444 -3.186759935699787 -1.1809505152962665 0.17416494793538154
364 -0.29741460440359435 -1.4552885400023616 1.5690443521309918 -3.1875854596119892 -1.181589193575256 0.17477460536556402
365 -0.29710382121277157 -1.4547522735900866 1.568754194016595 -3.1884146023904414 -1.1822263980678858 0.17537886471164457
366 -0.2967941753167239 -1.4542160339001815 1.5684652988166563 -3.1892473127121774 -1.1828621300988769 0.17597770670905366
367 -0.2964856409938411 -1.4536798250988752 1.5681776520991495 -3.190083539112879 -1.1834963920208794 0.17657111232062878
368 -0.2961781938854757 -1.4531436513481784 1.5678912393324187 -3.190923229991427 -1.1841291871109563 0.17715906274050106
369 -0.29587181089670184 -1.452607516807673 1.5676060458930496 -3.1917663336143036 -1.184760519475314 0.1777415393977763
370 -0.2955664701048719 -1.4520714256361384 1.5673220570731627 -3.192612798119841 -1.1853903939616397 0.17831852396002393
371 -0.295262150675358 -1.4515353819930272 1.5670392580871704 -3.193462571522349 -1.1860188160784448 0.17888999833658734
372 -0.29495883278391494 -1.4509993900398017 1.5667576340780496 -3.194315601716113 -1.1866457919208706 0.1794559446817269
373 -0.2946564975451433 -1.450463453941144 1.566477170123165 -3.195171836479288 -1.1872713281024447 0.18001634539760752
374 -0.29435512694657323 -1.4499275778660488 1.5661978512396768 -3.1960312234776844 -1.1878954316923283 0.18057118313714068
375 -0.294054703787927 -1.4493917659888074 1.5659196623895737 -3.196893710268464 -1.1885181101576197 0.18112044080669068
376 -0.2937552116251518 -1.4488560224898934 1.5656425884843552 -3.1977592443037497 -1.1891393713103202 0.18166410156865417
377 -0.2934566347188475 -1.4483203515567582 1.5653666143893947 -3.198627772934154 -1.1897592232585976 0.18220214884392108
378 -0.2931589579867428 -1.44778475738454 1.5650917249280083 -3.199499243412241 -1.1903776743620111 0.18273456631422474
379 -0.29286216695990047 -1.447249244176697 1.564817904885255 -3.200373602895913 -1.1909947331903867 0.1832613379243883
380 -0.29256624774235646 -1.4467138161455708 1.5645451390114877 -3.2012507984517464 -1.191610408486058 0.1837824478844743
381 -0.2922711869739231 -1.4461784775128814 1.564273412025676 -3.202130777058267 -1.1922247091292102 0.18429788067184294
382 -0.2919769717959051 -1.4456432325101647 1.5640027086185206 -3.203013485609175 -1.192837644106085 0.18480762103312562
383 -0.2916835898194984 -1.445108085379152 1.5637330134553749 -3.2038988709165253 -1.19344922247982 0.18531165398611815
384 -0.2913910290966595 -1.4445730403721009 1.563464311178988 -3.2047868797138666 -1.1940594533637217 0.1858099648215991
385 -0.2910992780932493 -1.444038101752077 1.5631965864120896 -3.2056774586593377 -1.1946683458967775 0.18630253910507735
386 -0.29080832566427184 -1.4435032737931923 1.562929823759819 -3.2065705543387364 -1.1952759092212368 0.1867893626784736
387 -0.2905181610310402 -1.4429685607808063 1.5626640078120233 -3.2074661132685494 -1.1958821524620948 0.187270421661739
388 -0.29022877376011885 -1.4424339670116861 1.5623991231454246 -3.2083640818989587 -1.1964870847083373 0.18774570245441496
389 -0.2899401537438989 -1.4418994967941359 1.562135154325675 -3.209264406616819 -1.1970907149958037 0.18821519173713724
390 -0.28965229118267793 -1.4413651544480932 1.5618720859093018 -3.2101670337486143 -1.1976930522915452 0.18867887647308731
391 -0.289365176568124 -1.4408309443051968 1.5616099024455579 -3.211071909563391 -1.1982941054795637 0.18913674390939392
392 -0.28907880066801367 -1.440296870708828 1.5613485884781786 -3.2119789802756733 -1.1988938833478218 0.18958878157848727
393 -0.28879315451214216 -1.439762938014128 1.5610881285470588 -3.212888192048362 -1.1994923945764258 0.1900349772994083
394 -0.28850822937931275 -1.4392291505879897 1.560828507189853 -3.2137994909956173 -1.2000896477268932 0.19047531917907518
395 -0.2882240167853182 -1.4386955128090335 1.5605697089435049 -3.214712823185727 -1.2006856512324198 0.19090979561350904
396 -0.28794050847183544 -1.438162029067558 1.5603117183457138 -3.215628134643967 -1.2012804133890687 0.19133839528902083
397 -0.28765769639616007 -1.4376287037654778 1.5600545199363403 -3.2165453713554433 -1.2018739423478126 0.19176110718336076
398 -0.2873755727217137 -1.4370955413162407 1.5597980982587596 -3.217464479267935 -1.2024662461073603 0.19217792056683222
399 -0.2870941298092614 -1.4365625461447329 1.559542437861164 -3.2183854042947213 -1.2030573325077123 0.19258882500337127
400 -0.28681336020878284 -1.4360297226871683 1.5592875232978192 -3.219308092317401 -1.2036472092243855 0.19299381035159313
401 -0.2865332566519439 -1.4354970753909648 1.5590333391302784 -3.2202324891887146 -1.2042358837632587 0.19339286676580691
402 -0.2862538120451209 -1.4349646087146088 1.558779869928559 -3.22115854073535 -1.2048233634559917 0.19378598469699937
403 -0.2859750194629316 -1.434432327127509 1.5585271002722814 -3.2220861927607523 -1.2054096554559726 0.19417315489378908
404 -0.2856968721422341 -1.433900235109839 1.558275014751777 -3.2230153910479267 -1.2059947667347546 0.1945543684033515
405 -0.2854193634765533 -1.4333683371523716 1.5580235979691643 -3.223946081362237 -1.206578704078948 0.19492961657231592
406 -0.28514248701090217 -1.4328366377563018 1.5577728345394 -3.2248782094542054 -1.207161474087529 0.19529889104763512
407 -0.28486623643696396 -1.4323051414330652 1.5575227090913002 -3.2258117210623074 -1.2077430831695366 0.19566218377742806
408 -0.2845906055886079 -1.4317738527041457 1.5570539225633153 -3.2285008315575885 -1.2083024823721784 0.19587630813446025
409 -0.2844582355029104 -1.4311627143251962 1.557293455905448 -3.2293679495712184 -1.208935159622747 0.19620847184197562
410 -0.2842178675465681 -1.430608208350249 1.5571903324400937 -3.2302816377841843 -1.209524213947422 0.1965411807128299
411 -0.2839461665052615 -1.430070846224112 1.5569850397081144 -3.231209985590073 -1.2100999667737116 0.19686983449286016
412 -0.2836661366101871 -1.4295387417856815 1.556749735534301 -3.2321433753045614 -1.2106714887684262 0.1971930536629553
413 -0.2833845870266064 -1.4290083541998069 1.5565058894607098 -3.233078907976024 -1.211241442150169 0.19751042592883428
414 -0.28310349138463325 -1.4284786370145688 1.5560365902420061 -3.235801785537042 -1.2117918517598905 0.19767994923019636
415 -0.28297078745403037 -1.4278666800561324 1.5562904147571526 -3.236669100897933 -1.2124149968950542 0.19796579627910135
416 -0.2827261817816056 -1.4273136289156794 1.556190398310804 -3.2375839113553098 -1.2129935746110985 0.1982523579111121
417 -0.28245004192800394 -1.4267781186717834 1.5559865821423 -3.2385131159340337 -1.2135591692339005 0.19853486728195627
418 -0.2821660356193618 -1.4262479135536865 1.5557527022145665 -3.239446911738794 -1.2141210353567493 0.19881192248428953
419 -0.28188101755943623 -1.4257194322724227 1.5555103201778608 -3.24038239644847 -1.2146818127375043 0.19908311462596825
420 -0.2815969122748573 -1.4251916352186382 1.5552657056638346 -3.2413186901669073 -1.2152422061133163 0.19934832546301773
421 -0.28131421055086037 -1.4246642247645336 1.5550206699380598 -3.242255502321686 -1.2158023609650614 0.199607521411848
422 -0.28103299154806666 -1.4241371189416843 1.554775729360639 -3.243192713278594 -1.2163622651258115 0.19986069347057145
423 -0.28075322004962217 -1.4236102981921306 1.5545310253367794 -3.244130252721779 -1.2169218652452876 0.20010783977636543
424 -0.280474832325184 -1.4230837609140086 1.5542865909022412 -3.245068064437531 -1.2174811001878187 0.20034896056930987
425 -0.2801977606015575 -1.4225575106143433 1.5540424277269003 -3.246006096161074 -1.2180399103419053 0.20058405675262408
426 -0.27992193978393753 -1.422031552212186 1.5537985282968858 -3.2469442966676603 -1.2185982399874948 0.20081312949115512
427 -0.2796473090812427 -1.4215058909815237 1.5535548822962868 -3.24788261494997 -1.2191560376867443 0.20103618010793087
428 -0.2793738121901717 -1.4209805322529103 1.5533114784490765 -3.2488209999938378 -1.2197132561301418 0.20125321006538122
429 -0.27910139708863196 -1.420455481332183 1.5530683050600391 -3.249759400724531 -1.2202698518481898 0.2014642209699562
430 -0.2788300157383303 -1.419930743480855 1.5528253501831977 -3.2506977660010548 -1.2208257849045734 0.20166921458264964
431 -0.27855962378063703 -1.4194063239137555 1.5525826016831272 -3.251636044623531 -1.2213810186023601 0.2018681928304907
432 -0.27829018024817437 -1.4188822278012803 1.5523400472648141 -3.252574185343748 -1.221935519210751 0.20206115781765097
433 -0.2780216472970982 -1.4183584602726846 1.5520976744936292 -3.2535121368761164 -1.2224892557131593 0.2022481118358316
434 -0.2777539899601815 -1.4178350264194297 1.551855470811598 -3.2544498479082793 -1.2230421995755965 0.2024290573738816
435 -0.27748717591952865 -1.417311931298324 1.5516134235517898 -3.255387267111209 -1.223594324533922 0.20260399712667426
436 -0.27722117529748685 -1.416789179934406 1.5513715199514018 -3.2563243431487665 -1.2241456063984957 0.20277293400328888
437 -0.27695596046433485 -1.4162667773235684 1.5511297471637724 -3.25726102468675 -1.2246960228748465 0.20293587113454606
438 -0.2766915058614106 -1.4157447284349427 1.5508880922694408 -3.258197260401476 -1.2252455533990727 0.20309281187994382
439 -0.2764277878384438 -1.4152230382130586 1.5506465422863442 -3.2591329989879094 -1.2257941789867866 0.20324375983403786
440 -0.2761647845039506 -1.4147017115798017 1.5504050841792265 -3.260068189167396 -1.2263418820945133 0.20338871883230664
441 -0.2759024755876413 -1.414180753436182 1.5501637048683232 -3.2610027796950107 -1.2268886464925415 0.2035276929565389
442 -0.2756408423138745 -1.4136601686639323 1.5499223912373825 -3.261936719366562 -1.2274344571482974 0.2036606865397782
443 -0.2753798672852693 -1.4131399621269487 1.5496811301410813 -3.262869957025273 -1.2279793001193993 0.20378770417085618
444 -0.27511953437565817 -1.4126201386725885 1.5494399084118817 -3.2638024415681657 -1.2285231624556063 0.20390875069854483
445 -0.2748598286316268 -1.4121007031328356 1.5491987128663776 -3.2647341219521637 -1.2290660321089457 0.2040238312353546
446 -0.27460073618195036 -1.411581660325347 1.5489575303111704 -3.2656649471999493 -1.2296078978513572 0.20413295116100377
447 -0.2743422441542897 -1.4110630150543864 1.548716347548319 -3.2665948664055744 -1.2301487491992464 0.2042361161255823
448 -0.27408434059856074 -1.4105447721116606 1.5484751513803887 -3.2675238287398596 -1.2306885763443913 0.20433333205243215
449 -0.2738270144164408 -1.4100269362770614 1.5482339286151443 -3.268451783455586 -1.2312273700906846 0.20442460514076352
450 -0.27357025529651485 -1.4095095123193238 1.5479926660699088 -3.2693786798925037 -1.2317651217962404 0.2045099418680255
451 -0.27331405365460726 -1.408992504996607 1.5477513505756162 -3.270304467482161 -1.232301823320434 0.20458934899204842
452 -0.2730584005788804 -1.408475919057005 1.5475099689805882 -3.2712290957525756 -1.2328374669754725 0.20466283355297318
453 -0.27280328777931406 -1.4079597592389936 1.5472685081540505 -3.2721525143327566 -1.2333720454821286 0.20473040287498248
454 -0.2725487075412132 -1.4074440302718165 1.5470269549894171 -3.2730746729570837 -1.233905551929303 0.20479206456784682
455 -0.27229465268241665 -1.4069287368758197 1.546785296407358 -3.273995521469561 -1.2344379797371017 0.2048478265282981
456 -0.2720411165139088 -1.4064138837627354 1.5465435193586672 -3.2749150098279505 -1.234969322623145 0.2048976969412421
457 -0.27178809280355826 -1.4058994756359218 1.5463016108269492 -3.275833088107792 -1.235499574571846 0.20494168428081996
458 -0.27153557574273113 -1.4053855171905614 1.5460595578311416 -3.2767497065063225 -1.2360287298064154 0.20497979731132918
459 -0.27128355991554504 -1.4048720131138224 1.5458173474278796 -3.2776648153462964 -1.2365567827633739 0.2050120450880123
460 -0.27103204027055156 -1.4043589680849853 1.545574966713724 -3.278578365079718 -1.237083728069364 0.20503843695772214
461 -0.27078101209464883 -1.4038463867755393 1.5453324028272555 -3.2794903062914895 -1.2376095605200788 0.2050589825594709
462 -0.2705304709890457 -1.4033342738492502 1.545089642951056 -3.2804005897029813 -1.2381342750611322 0.2050736918248703
463 -0.2702804128471088 -1.4028226339622019 1.544846674313576 -3.2813091661755296 -1.2386578667707129 0.20508257497846955
464 -0.27003083383394144 -1.402311471762815 1.5446034841909024 -3.2822159867138647 -1.239180330843877 0.2050856425379964
465 -0.2697817303675539 -1.4018007918918434 1.5443600599084366 -3.2831210024694775 -1.2397016625783446 0.20508290531450804
466 -0.2695330991014955 -1.4012905989823536 1.5441163888424856 -3.2840241647439257 -1.2402218573616797 0.20507437441245563
467 -0.2692849369088302 -1.400780897659684 1.5438724584217762 -3.284925424992083 -1.2407409106597342 0.20506006122966833
468 -0.26903724086734676 -1.4002716925413885 1.5436282561288965 -3.285824734825339 -1.2412588180062616 0.20503997745726052
469 -0.2687900082459034 -1.3997629882371674 1.5433837695016732 -3.2867220460147446 -1.2417755749935955 0.20501413507946664
470 -0.26854323649181433 -1.399254789348784 1.543138986134486 -3.287617310494116 -1.2422911772643104 0.20498254637340713
471 -0.2682969232191949 -1.3987471004699692 1.5428938936795271 -3.2885104803630933 -1.242805620503782 0.2049452239087891
472 -0.26805106619818625 -1.398239926186317 1.542648479848009 -3.289401507890155 -1.243318900433575 0.2049021805475449
473 -0.2678056633449891 -1.397733271075168 1.5424027324113259 -3.2902903455155967 -1.2438310128055854 0.2048534294434113
474 -0.2675607127126398 -1.3972271397054867 1.5421566392021677 -3.291176945854472 -1.2443419533968796 0.20479898404145278
475 -0.26731621248247034 -1.3967215366377297 1.5419101881155979 -3.292061261699498 -1.2448517180051706 0.2047388580775301
476 -0.26707216095619485 -1.396216466423708 1.5416633671100894 -3.292943246023924 -1.2453603024448763 0.20467306557771803
477 -0.2668285565485738 -1.3957119336064419 1.5414161642085302 -3.2938228519843737 -1.2458677025437153 0.20460162085767333
478 -0.2665853977806065 -1.3952079427200124 1.5411685674991933 -3.294700032923653 -1.2463739141397905 0.20452453852195537
479 -0.26634268327321253 -1.3947044982894061 1.540920565136679 -3.2955747423735295 -1.2468789330791232 0.2044418334633013
480 -0.2661004117413588 -1.394201604830357 1.540672145342829 -3.296446934057484 -1.2473827552135988 0.2043535208618574
481 -0.265858581988599 -1.3936992668491837 1.5404232964076134 -3.2973165618934335 -1.2478853763992857 0.2042596161843682
482 -0.2656171929019912 -1.3931974888426253 1.5401740066899974 -3.298183579996431 -1.2483867924951015 0.20416013518332496
483 -0.26537624344736216 -1.3926962752976721 1.5399242646187816 -3.2990479426813377 -1.2488869993617924 0.20405509389607487
484 -0.265135732664892 -1.3921956306913965 1.5396740586934246 -3.2999096044654688 -1.2493859928611994 0.20394450864389213
485 -0.2648956596649918 -1.3916955594907805 1.5394233774848451 -3.3007685200712213 -1.249883768855788 0.20382839603101224
486 -0.26465602362445206 -1.3911960661525418 1.5391722096362064 -3.3016246444286725 -1.2503803232084163 0.20370677294363074
487 -0.2644168237828385 -1.39069715512296 1.5389205438636822 -3.30247793267816 -1.2508756517823214 0.20357965654886712
488 -0.26417805943911754 -1.3901988308377002 1.5386683689572096 -3.303328340172838 -1.2513697504413064 0.20344706429369513
489 -0.26393972994849063 -1.389701097721637 1.538415673781225 -3.3041758224812114 -1.251862615050106 0.20330901390384043
490 -0.2637018347194226 -1.3892039601886783 1.538162447275385 -3.305020335389651 -1.2523542414749171 0.2031655233826462
491 -0.2634643732108479 -1.3887074226415885 1.5379086784552773 -3.3058618349048827 -1.2528446255840802 0.2030166110099078
492 -0.2632273449295403 -1.388211489471812 1.537654356413115 -3.3067002772564638 -1.2533337632488937 0.20286229534067712
493 -0.26299074942763334 -1.3877161650592975 1.5373994703184222 -3.3075356188992315 -1.2538216503445534 0.20270259520403713
494 -0.2627545863002802 -1.3872214537723218 1.537144009418707 -3.308367816515736 -1.2543082827512002 0.20253752970184782
495 -0.2625188551834405 -1.3867273599673149 1.5368879630401227 -3.3091968270186514 -1.2547936563550683 0.20236711820746356
496 -0.2622835557517854 -1.3862338879886866 1.53663132058812 -3.310022607553168 -1.2552777670497242 0.20219138036442294
497 -0.2620486877167119 -1.385741042168653 1.5363740715480882 -3.3108451154993643 -1.2557606107373838 0.20201033608511157
498 -0.2618142508244566 -1.3852488268270642 1.5361162054859896 -3.311664308474561 -1.2562421833303044 0.2018240055493981
499 -0.2615802448543017 -1.3847572462712343 1.5358577120489796 -3.312480144335651 -1.2567224807522377 0.2016324092032445
500 -0.2613466696168675 -1.3842663047957722 1.5355985809660229 -3.3132925811814173 -1.2572014989399416 0.20143556775729046
501 -0.26111352495248263 -1.3837760066824132 1.5353388020484988 -3.314101577354825 -1.2576792338447413 0.20123350218541314
502 -0.26088081072962777 -1.3832863561998539 1.5350783651907987 -3.314907091445296 -1.2581556814341346 0.20102623372326198
503 -0.2606485268434465 -1.382797357603586 1.5348172603709163 -3.3157090822909683 -1.2586308376934345 0.20081378386676957
504 -0.2604166732143184 -1.3823090151357356 1.5345554776510268 -3.3165075089809277 -1.259104698627447 0.20059617437063876
505 -0.26018524978649027 -1.3818213330249018 1.5342930071780636 -3.31730233085743 -1.259577260262174 0.20037342724680643
506 -0.25995425652676096 -1.3813343154859978 1.5340298391842835 -3.3180935075180944 -1.2600485186465429 0.20014556476288434
507 -0.2597236934232153 -1.3808479667200937 1.5337659639878263 -3.318880998818084 -1.2605184698541532 0.1999126094405775
508 -0.25949356048400446 -1.3803622909142623 1.5335013719932662 -3.319664764872264 -1.26098710998504 0.1996745840540805
509 -0.2592638577361698 -1.3798772922414275 1.5332360536921572 -3.3204447660573426 -1.26145443516745 0.19943151162845182
510 -0.25903458522450606 -1.3793929748602125 1.532969999663572 -3.3212209630139875 -1.2619204415596255 0.19918341543796697
511 -0.25880574301046166 -1.3789093429147932 1.5327032005746308 -3.321993316648927 -1.262385125351595 0.19893031900445052
512 -0.2585773311710743 -1.3784264005347515 1.532435647181029 -3.3227617881370315 -1.2628484827669666 0.19867224609558737
513 -0.2583493497979384 -1.3779441518349336 1.5321673303275523 -3.323526338923371 -1.2633105100647213 0.19840922072321368
514 -0.2581217989962036 -1.3774626009153077 1.5318982409485893 -3.3242869307252554 -1.2637712035410054 0.1981412671415878
515 -0.257894678883601 -1.3769817518608276 1.5316283700686348 -3.325043525534256 -1.2642305595309185 0.19786840984564152
516 -0.25766798958949705 -1.3765016087412951 1.53135770880279 -3.325796085618204 -1.2646885744102947 0.19759067356921187
517 -0.25744173125397146 -1.3760221756112285 1.5310862483572518 -3.3265445735231682 -1.265145244597477 0.19730808328325397
518 -0.2572159040269198 -1.3755434565097315 1.5308139800297995 -3.3272889520754148 -1.2656005665550796 0.19702066419403508
519 -0.25699050806717755 -1.3750654554603658 1.5305408952102717 -3.3280291843833463 -1.2660545367917422 0.19672844174131032
520 -0.2567655435416666 -1.3745881764710262 1.530266985381042 -3.3287652338394165 -1.2665071518638669 0.19643144159648024
521 -0.25654101062456003 -1.3741116235338175 1.5299922421174825 -3.329497064122029 -1.2669584083773446 0.19612968966073058
522 -0.2563169094964674 -1.3736358006249365 1.5297166570884233 -3.3302246391974095 -1.267408302989264 0.19582321206315467
523 -0.25609324034363734 -1.373160711704554 1.5294402220566081 -3.330947923321464 -1.2678568324096031 0.1955120351588586
524 -0.25587000335717736 -1.372686360716702 1.5291629288791393 -3.3316668810416075 -1.2683039934029037 0.1951961855270495
525 -0.25564719873229075 -1.3722127515891627 1.5288847695079206 -3.3323814771985787 -1.2687497827899255 0.1948756899691074
526 -0.2554248266675285 -1.3717398882333602 1.52860573599009 -3.3330916769282277 -1.2691941974492822 0.19455057550664068
527 -0.25520288736405694 -1.3712677745442556 1.5283258204684493 -3.3337974456632864 -1.269637234319055 0.19422086937952576
528 -0.2549813810249393 -1.3707964144002451 1.5280450151818858 -3.3344987491351126 -1.270078890398383 0.19388659904393107
529 -0.25476030785443177 -1.3703258116630614 1.5277633124657881 -3.3351955533754163 -1.2705191627490346 0.19354779217032567
530 -0.25453966805729306 -1.3698559701776774 1.5274807047524566 -3.335887824717962 -1.270958048496952 0.1932044766414729
531 -0.25431946183810666 -1.3693868937722127 1.5271971845715056 -3.3365755298002493 -1.2713955448337741 0.19285668055040933
532 -0.25409968940061617 -1.3689185862578452 1.5269127445502606 -3.337258635565171 -1.2718316490183328 0.19250443219840924
533 -0.25388035094707284 -1.3684510514287238 1.5266273774141512 -3.337937109262648 -1.272266358378125 0.1921477600929349
534 -0.2536614466775949 -1.3679842930618848 1.5263410759870935 -3.338610918451244 -1.2726996703107598 0.1917866929455733
535 -0.2534429767895387 -1.3675183149171717 1.5260538331918698 -3.339280030999755 -1.2731315822853766 0.19142125966995904
536 -0.25322494147688146 -1.3670531207371575 1.5257656420505017 -3.339944415088778 -1.27356209184404 0.19105148937968436
537 -0.2530073409296144 -1.3665887142470723 1.5254764956846134 -3.340604039212256 -1.2739911966031041 0.19067741138619587
538 -0.25279017533314824 -1.3661250991547313 1.5251863873157956 -3.341258872178999 -1.2744188942545516 0.190299055196679
539 -0.25257344486772776 -1.3656622791504684 1.5248953102659557 -3.341908883114185 -1.274845182567304 0.18991645051192999
540 -0.2523571497078582 -1.3652002579070708 1.524603257957669 -3.342554041460834 -1.2752700593885036 0.18952962722421585
541 -0.25214129002174096 -1.3647390390797194 1.5243102239145168 -3.3431943169812617 -1.2756935226447663 0.18913861541512272
542 -0.25192586597072025 -1.3642786263059319 1.524016201761423 -3.343829679758507 -1.2761155703434062 0.18874344535339277
543 -0.2517108777087399 -1.3638190232055072 1.523721185224984 -3.344460100197741 -1.2765362005736316 0.18834414749274986
544 -0.25149632538180944 -1.363360233380476 1.5234251681337911 -3.3450855490276457 -1.27695541150771 0.18794075246971467
545 -0.25128220912748056 -1.3629022604150525 1.523128144418748 -3.3457059973017733 -1.277373201402104 0.1875332911014091
546 -0.2510685290743327 -1.3624451078755917 1.5228301081133802 -3.3463214163998827 -1.2777895685985787 0.18712179438335053
547 -0.25085528534146895 -1.3619887793105487 1.5225310533541407 -3.3469317780292482 -1.2782045115252771 0.18670629348723616
548 -0.25064247803802153 -1.3615332782504412 1.5222309743807096 -3.3475370542259473 -1.2786180286977664 0.1862868197587178
549 -0.2504301072626655 -1.3610786082078168 1.5219298655362854 -3.348137217356123 -1.279030118720054 0.1858634047151672
550 -0.2502181731031434 -1.360624772677223 1.5216277212678717 -3.348732240117223 -1.2794407802855725 0.18543608004343257
551 -0.25000667563579854 -1.36017177513518 1.521324536126559 -3.3493220955392156 -1.2798500121781349 0.1850048775975861
552 -0.24979561492511698 -1.3597196190401597 1.5210203047677984 -3.3499067569857774 -1.2802578132728577 0.18456982939666342
553 -0.2495849910232796 -1.3592683078325645 1.5207150219516696 -3.3504861981554614 -1.2806641825370553 0.1841309676223945
554 -0.2493748039697233 -1.3588178449347126 1.520408682543146 -3.3510603930828378 -1.2810691190311019 0.1836883246169271
555 -0.2491650537907104 -1.3583682337508263 1.5201012815123498 -3.3516293161396113 -1.2814726219092636 0.18324193288054244
556 -0.2489557404989079 -1.357919477667023 1.5197928139348034 -3.352192942035714 -1.2818746904204983 0.18279182506936367
557 -0.24874686409297556 -1.35747158005131 1.5194832749916745 -3.3527512458203748 -1.2822753239092264 0.18233803399305745
558 -0.24853842455716293 -1.3570245442535844 1.5191726599700164 -3.35330420288316 -1.282674521816069 0.18188059261252879
559 -0.24833042186091514 -1.356578373605635 1.5188609642630004 -3.3538517889549952 -1.2830722836785557 0.18141953403760946
560 -0.24812285595848774 -1.3561330714211486 1.5185481833701446 -3.3543939801091587 -1.2834686091318022 0.1809548915247405
561 -0.24791572678857068 -1.3556886409957194 1.5182343128975364 -3.3549307527622494 -1.283863497909156 0.18048669847464865
562 -0.24770903427392044 -1.3552450856068643 1.5179193485580469 -3.355462083675133 -1.284256949842811 0.18001498843001754
563 -0.24750277832100193 -1.354802408514038 1.5176032861715456 -3.355987949953863 -1.284648964864392 0.17953979507315337
564 -0.24729695881963795 -1.3543606129586558 1.5172861216651026 -3.356508329050572 -1.2850395430055086 0.17906115222364594
565 -0.24709157564266862 -1.3539197021641183 1.5169678510731897 -3.3570231987643457 -1.2854286843982772 0.17857909383602466
566 -0.24688662864561894 -1.3534796793358386 1.516648470537875 -3.357532537242065 -1.2858163892758134 0.1780936539974105
567 -0.24668211766637463 -1.3530405476612763 1.5163279763090116 -3.3580363229792294 -1.286202657972693 0.1776048669251636
568 -0.24647804252486769 -1.3526023103099738 1.5160063647444209 -3.358534534820749 -1.2865874909253836 0.17711276696452719
569 -0.24627440302276976 -1.3521649704335947 1.5156836323100715 -3.359027151961717 -1.2869708886726448 0.1766173885862677
570 -0.2460711989431943 -1.351728531165969 1.5153597755802524 -3.359514153948154 -1.2873528518558974 0.17611876638431195
571 -0.24586843005040732 -1.3512929956231405 1.5150347912377387 -3.3599955206777286 -1.2877333812195648 0.1756169350733811
572 -0.24566609608954726 -1.350858366903418 1.5147086760739565 -3.360471232400452 -1.288112477611382 0.17511192948662177
573 -0.24546419678635234 -1.350424648087431 1.5143814269891391 -3.36094126971935 -1.288490141982676 0.1746037845732349
574 -0.24526273184689731 -1.3499918422381878 1.5140530409924797 -3.361405613591105 -1.2888663753886156 0.1740925353961022
575 -0.2450617009573383 -1.3495599524011408 1.5137235152022783 -3.3618642453266796 -1.2892411789884322 0.17357821712941085
576 -0.24486110378366638 -1.3491289816042507 1.5133928468460849 -3.3623171465919093 -1.2896145540456103 0.17306086505627624
577 -0.244660939971469 -1.3486989328580592 1.5130610332608352 -3.362764299408074 -1.2899865019280499 0.1725405145663636
578 -0.24446120914570077 -1.348269809155763 1.512728071892985 -3.363205686152443 -1.2903570241081983 0.17201720115350816
579 -0.24426191091046168 -1.3478416134732916 1.5123939602986372 -3.3636412895587933 -1.2907261221631543 0.17149096041333461
580 -0.24406304484878416 -1.3474143487693904 1.5120586961436646 -3.3640710927179067 -1.2910937977747419 0.17096182804087576
581 -0.24386461052242836 -1.3469880179857068 1.5117222772038286 -3.36449507907804 -1.2914600527295568 0.17042983982819082
582 -0.24366660747168584 -1.3465626240468807 1.5113847013648924 -3.364913232445369 -1.2918248889189843 0.16989503166198366
583 -0.24346903521519145 -1.3461381698606374 1.5110459666227314 -3.3653255369844097 -1.292188308339188 0.16935743952122084
584 -0.24327189324974324 -1.3457146583178865 1.5107060710834364 -3.365731977218412 -1.2925503130910718 0.16881709947475032
585 -0.2430751810501309 -1.3452920922928229 1.5103650129634145 -3.366132538029734 -1.2929109053802124 0.16827404767892043
586 -0.24287889806897237 -1.3448704746430327 1.5100227905894856 -3.3665272046601835 -1.293270087516766 0.16772832037519986
587 -0.24268304373655836 -1.3444498082096021 1.5096794023989732 -3.3669159627113414 -1.293627861915347 0.1671799538877986
588 -0.24248761746070496 -1.3440300958172318 1.5093348469397923 -3.367298798144858 -1.2939842310948784 0.16662898462129017
589 -0.24229261862661475 -1.3436113402743526 1.508989122870531 -3.367675697282724 -1.294339197678417 0.1660754490582353
590 -0.24209804659674578 -1.3431935443732472 1.5086422289605328 -3.368046646807516 -1.2946927643929513 0.16551938375680744
591 -0.2419039007106881 -1.3427767108901751 1.5082941640899679 -3.3684116337626215 -1.2950449340691714 0.16496082534842021
592 -0.24171018028504931 -1.3423608425855003 1.5079449272499073 -3.3687706455524347 -1.2953957096412159 0.164399810535357
593 -0.24151688461334694 -1.341945942203824 1.5075945175423875 -3.36912366994253 -1.2957450941463902 0.16383637608840287
594 -0.24132401296590975 -1.341532012474121 1.5072429341804763 -3.3694706950598112 -1.29609309072486 0.16327055884447944
595 -0.24113156458978593 -1.3411190561098791 1.5068901764883293 -3.3698117093926365 -1.2964397026193202 0.16270239570428216
596 -0.2409395387086604 -1.340707075809243 1.5065362439012484 -3.3701467017909166 -1.296784933174637 0.16213192362992088
597 -0.24074793452277884 -1.3402960742551606 1.506181135965732 -3.3704756614661933 -1.2971287858374667 0.16155917964256372
598 -0.2405567512088801 -1.3398860541155355 1.5058248523395243 -3.3707985779916885 -1.2974712641558481 0.16098420082008427
599 -0.2403659879201363 -1.3394770180433806 1.50546739279166 -3.371115441302333 -1.2978123717787733 0.16040702429471254
600 -0.24017564378610085 -1.339068968676976 1.5051087572025061 -3.3714262416947696 -1.2981521124557318 0.15982768725068974
601 -0.23998571791266332 -1.338661908640032 1.5047489455637988 -3.371730969827335 -1.2984904900362322 0.15924622692192725
602 -0.23979620938201365 -1.3382558405418539 1.5043879579786799 -3.3720296167200106 -1.2988275084693004 0.15866268058966962
603 -0.23960711725261233 -1.3378507669775106 1.5040257946617273 -3.372322173754359 -1.2991631718029544 0.15807708558016237
604 -0.2394184405591689 -1.337446690528008 1.5036624559389815 -3.37260863267343 -1.2994974841836557 0.15748947926232412
605 -0.23923017831262855 -1.3370436137604642 1.5032979422479738 -3.3728889855816466 -1.29983044985574 0.15689989904542376
606 -0.2390423295001655 -1.3366415392282889 1.5029322541377457 -3.3731632249446637 -1.3001620731608226 0.15630838237676256
607 -0.238854893085184 -1.336240469471367 1.502565392268868 -3.373431343589207 -1.3004923585371844 0.15571496673936153
608 -0.2386678680073276 -1.3358404070162435 1.5021973574134577 -3.3736933347028875 -1.3008213105191362 0.1551196896496541
609 -0.23848125318249447 -1.3354413543763146 1.501828150455188 -3.3739491918339923 -1.3011489337363598 0.15452258865518456
610 -0.23829504750286212 -1.3350433140520184 1.5014577723893021 -3.3741989088912514 -1.3014752329132293 0.15392370133231187
611 -0.23810924983691742 -1.3346462885310328 1.501086224322616 -3.374442480143585 -1.301800212868112 0.15332306528391976
612 -0.23792385902949587 -1.3342502802884735 1.5007135074735256 -3.3746799002198222 -1.302123878512648 0.15272071813713267
613 -0.23773887390182696 -1.333855291787096 1.500339623172007 -3.374911164108401 -1.302446234851011 0.15211669754103804
614 -0.23755429325158736 -1.3334613254775016 1.4999645728596143 -3.3751362671570466 -1.3027672869791471 0.1515110411644149
615 -0.23737011585296142 -1.3330683837983452 1.4995883580894764 -3.3753552050724225 -1.3030870400839965 0.15090378669346918
616 -0.23718634045670917 -1.3326764691765467 1.499210980526291 -3.375567973919763 -1.3034054994426951 0.1502949718295755
617 -0.23700296579024094 -1.332285584027504 1.4988324419463135 -3.37577457012248 -1.3037226704217575 0.14968463428702605
618 -0.23681999055769962 -1.3318957307553119 1.4984527442373456 -3.3759749904617538 -1.3040385584762406 0.1490728117907865
619 -0.23663741344005054 -1.3315069117529792 1.4980718893987222 -3.3761692320760925 -1.3043531691488905 0.14845954207425877
620 -0.23645523309517766 -1.331119129402653 1.497689879541292 -3.376357292460878 -1.3046665080692708 0.1478448628770515
621 -0.2362734481579878 -1.3307323860758418 1.497306716887401 -3.3765391694678826 -1.3049785809528736 0.14722881194275783
622 -0.2360920572405209 -1.330346684133644 1.496922403770867 -3.376714861304773 -1.3052893936002132 0.14661142701674065
623 -0.235911058932069 -1.3299620259269764 1.4965369426369586 -3.3768843665345836 -1.3055989518959028 0.14599274584392571
624 -0.23573045179930086 -1.3295784137968074 1.496150336042366 -3.3770476840751718 -1.3059072618077157 0.14537280616660267
625 -0.2355502343863944 -1.3291958500743903 1.4957625866551734 -3.3772048131986536 -1.3062143293856283 0.14475164572223392
626 -0.2353704052151761 -1.3288143370815002 1.4953736972548264 -3.3773557535308174 -1.3065201607608503 0.14412930224127182
627 -0.23519096278526733 -1.328433877130672 1.4949836707320987 -3.377500505050514 -1.3068247621448363 0.14350581344498395
628 -0.2350119055742378 -1.3280544725254413 1.4945925100890562 -3.3776390680890267 -1.3071281398282837 0.14288121704328677
629 -0.23483323203776585 -1.3276761255605862 1.4942002184390168 -3.3777714433294252 -1.307430300180116 0.142255550732588
630 -0.23465494060980638 -1.3272988385223716 1.4938067990065107 -3.3778976318058915 -1.307731249646451 0.1416288521936373
631 -0.23447702970276496 -1.3269226136887946 1.4934122551272375 -3.3780176349030304 -1.3080309947495552 0.14100115908938593
632 -0.2342994977076792 -1.326547453329832 1.4930165902480192 -3.3781314543551573 -1.3083295420867838 0.1403725090628551
633 -0.23412234299440754 -1.3261733597076888 1.4926198079267539 -3.3782390922455665 -1.3086268983295073 0.1397429397350133
634 -0.23394556391182394 -1.3258003350770478 1.4922219118323623 -3.3783405510057807 -1.3089230702220254 0.1391124887026629
635 -0.23376915878802104 -1.3254283816853212 1.4918229057447392 -3.378435833414778 -1.3092180645804676 0.1384811935363355
636 -0.23359312593051879 -1.3250575017729027 1.491422793554695 -3.378524942598202 -1.3095118882916816 0.13784909177819699
637 -0.23341746362648097 -1.3246876975734199 1.4910215792639006 -3.3786078820275476 -1.3098045483121086 0.13721622093996166
638 -0.2332421701429378 -1.3243189713139893 1.490619266984824 -3.378684655519335 -1.310096051666647 0.136582618500816
639 -0.23306724372701665 -1.3239513252154702 1.4902158609406708 -3.378755267234256 -1.3103864054475056 0.1359483219053518
640 -0.2328926826061785 -1.32358476149272 1.4898113654653193 -3.3788197216763085 -1.3106756168130438 0.1353133685615093
641 -0.23271848498846198 -1.3232192823548499 1.4894057850032507 -3.378878023691905 -1.310963692986602 0.13467779583852968
642 -0.23254464906273384 -1.3228548900054802 1.4889991241094807 -3.3789301784689694 -1.311250641255321 0.1340416410649176
643 -0.23237117299894683 -1.3224915866429963 1.4885913874494854 -3.3789761915360104 -1.3115364689689513 0.13340494152641366
644 -0.23219805494840431 -1.322129374460805 1.4881825797991275 -3.3790160687611777 -1.3118211835386504 0.13276773446397683
645 -0.23202529304403138 -1.3217682556475894 1.4877727060445767 -3.3790498163513 -1.3121047924357752 0.13213005707177686
646 -0.23185288540065346 -1.3214082323875647 1.4873617711822293 -3.3790774408509057 -1.312387303190658 0.13149194649519708
647 -0.2316808301152812 -1.321049306860733 1.486949780318624 -3.3790989491412238 -1.3126687233913807 0.1308534398288472
648 -0.23150912526740325 -1.3206914812431363 1.4865367386703559 -3.37911434843917 -1.3129490606825343 0.13021457411458662
649 -0.23133776891928443 -1.320334757707111 1.486122651563985 -3.3791236462963106 -1.3132283227639732 0.129575386339558
650 -0.2311667591162723 -1.319979138421539 1.4857075244359452 -3.379126850597815 -1.3135065173895597 0.12893591343423133
651 -0.2309960938871097 -1.3196246255520991 1.4852913628324471 -3.379123969561386 -1.313783652365902 0.12829619227045846
652 -0.2308257712442546 -1.3192712212615167 1.4848741724093792 -3.379115011736173 -1.3140597355510835 0.1276562596595384
653 -0.2306557891842066 -1.318918927709811 1.484455958932205 -3.379099986001674 -1.3143347748533833 0.12701615235029298
654 -0.23048614568784045 -1.3185677470545418 1.4840367282758564 -3.3790789015666154 -1.3146087782299942 0.12637590702715362
655 -0.23031683872074685 -1.3182176814510533 1.483616486424625 -3.3790517679678147 -1.314881753685728 0.12573556030825842
656 -0.23014786623357938 -1.3178687330527166 1.4831952394720473 -3.379018595069032 -1.315153709271719 0.12509514874356037
657 -0.22997922616240932 -1.3175209040111688 1.4827729936207898 -3.3789793930598027 -1.3154246530841183 0.12445470881294647
658 -0.2298109164290865 -1.3171741964765509 1.4823497551825255 -3.378934172454251 -1.3156945932627848 0.12381427692436756
659 -0.2296429349416078 -1.3168286125977415 1.4819255305778112 -3.3788829440898933 -1.315963537989967 0.12317388941197933
660 -0.22947527959449202 -1.3164841545225887 1.4815003263359563 -3.378825719126423 -1.3162314954889824 0.12253358253429436
661 -0.22930794826916237 -1.3161408243981378 1.481074149094891 -3.378762509044479 -1.3164984740228909 0.12189339247234508
662 -0.2291409388343351 -1.3157986243708568 1.4806470056010281 -3.3786933256444027 -1.3167644818931616 0.12125335532785807
663 -0.22897424914641562 -1.3154575565868571 1.480218902709119 -3.3786181810449745 -1.3170295274383375 0.1206135071214394
664 -0.22880787704990171 -1.3151176231921116 1.4797898473821092 -3.378537087682141 -1.3172936190326934 0.1199738837907712
665 -0.22864182037779324 -1.3147788263326674 1.4793598466909839 -3.3784500583077235 -1.3175567650848912 0.1193345211888196
666 -0.2284760769520093 -1.3144411681548553 1.4789289078146133 -3.378357105988115 -1.317818974036631 0.11869545508205376
667 -0.22831064458381176 -1.314104650805494 1.478497038039588 -3.3782582441029603 -1.318080254361298 0.11805672114867642
668 -0.22814552107423647 -1.3137692764320903 1.4780642447600532 -3.3781534863438245 -1.3183406145626055 0.1174183549768657
669 -0.2279807042145311 -1.313435047183034 1.4776305354775352 -3.3780428467128463 -1.318600063173236 0.11678039206302836
670 -0.22781619178659987 -1.313101965207787 1.4771959178007632 -3.377926339521377 -1.3188586087534784 0.11614286781006442
671 -0.22765198156345529 -1.3127700326570682 1.4767603994454825 -3.3778039793886077 -1.3191162598898616 0.11550581752564332
672 -0.22748807130967702 -1.3124392516830312 1.4763239882342658 -3.3776757812401814 -1.3193730251937874 0.11486927642049152
673 -0.22732445878187793 -1.312109624439438 1.4758866920963154 -3.3775417603067934 -1.3196289133001593 0.1142332796066916
674 -0.22716114172917654 -1.311781153081824 1.4754485190672595 -3.3774019321227784 -1.3198839328660108 0.11359786209599293
675 -0.22699811789367685 -1.3114538397676592 1.4750094772889426 -3.3772563125246844 -1.320138092569129 0.11296305879813381
676 -0.22683538501095502 -1.3111276866565005 1.474569575009207 -3.377104917649835 -1.32039140110668 0.11232890451917536
677 -0.22667294081055317 -1.3108026959101382 1.4741288205816698 -3.376947763934878 -1.3206438671938292 0.11169543395984682
678 -0.22651078301647962 -1.3104788696927354 1.4736872224654904 -3.376784868114323 -1.3208954995623634 0.11106268171390261
679 -0.22634890934771684 -1.3101562101709594 1.4732447892251326 -3.3766162472190655 -1.321146306959309 0.1104306822664909
680 -0.2261873175187353 -1.3098347195141056 1.4728015295301145 -3.376441918574903 -1.3213962981455507 0.10979946999253397
681 -0.22602600524001548 -1.3095143998942134 1.4723574521547569 -3.3762618998010345 -1.321645481894449 0.10916907915512009
682 -0.2258649702185756 -1.3091952534861746 1.4719125659779184 -3.376076208808552 -1.3218938669904574 0.10853954390390716
683 -0.22570421015850692 -1.3088772824678314 1.4714668799827229 -3.3758848637989183 -1.3221414622277385 0.10791089827353803
684 -0.22554372276151546 -1.308560489020068 1.4710204032562797 -3.375687883262437 -1.3223882764087802 0.10728317618206748
685 -0.2253835057274708 -1.3082448753268916 1.4705731449893935 -3.3754852859767093 -1.3226343183430107 0.10665641142940088
686 -0.22522355675496172 -1.3079304435755044 1.4701251144762664 -3.375277091005079 -1.322879596845416 0.10603063769574464
687 -0.22506387354185778 -1.3076171959563667 1.4696763211141861 -3.375063317695072 -1.3231241207351538 0.10540588854006833
688 -0.22490445378587906 -1.3073051346632496 1.4692267744032121 -3.3748439856768178 -1.3233678988341722 0.10478219739857844
689 -0.2247452951851711 -1.306994261893278 1.4687764839458437 -3.3746191148614697 -1.3236109399658245 0.10415959758320402
690 -0.22458639543888756 -1.3066845798469624 1.4683254594466826 -3.3743887254396068 -1.3238532529534879 0.10353812228009385
691 -0.2244277522477783 -1.306376090728222 1.4678737107120823 -3.374152837879633 -1.324094846619181 0.10291780454812548
692 -0.22426936331478559 -1.3060687967443945 1.4674212476497903 -3.3739114729261606 -1.3243357297821832 0.10229867731742591
693 -0.22411122634564476 -1.3057627001062369 1.4669680802685727 -3.3736646515983897 -1.324575911257654 0.10168077338790399
694 -0.22395333904949308 -1.3054578030279138 1.4665142186778342 -3.373412395188474 -1.3248153998552552 0.10106412542779454
695 -0.22379569913948388 -1.3051541077269748 1.4660596730872215 -3.3731547252598792 -1.3250542043777724 0.10044876597221418
696 -0.22363830433340717 -1.3048516164243193 1.465604453806217 -3.372891663645736 -1.3252923336197393 0.09983472742172883
697 -0.22348115235431676 -1.3045503313441498 1.4651485712437191 -3.3726232324471757 -1.3255297963660635 0.09922204204093292
698 -0.22332424093116307 -1.3042502547139119 1.464692035907611 -3.372349454031667 -1.3257666013906528 0.09861074195704023
699 -0.22316756779943211 -1.3039513887642233 1.464234858404315 -3.3720703510313377 -1.3260027574550441 0.09800085915848648
700 -0.22301113070179027 -1.3036537357287892 1.4637770494383338 -3.37178594634129 -1.3262382733070341 0.0973924254935435
701 -0.2228549273887353 -1.3033572978443033 1.46331861981178 -3.371496263117908 -1.3264731576793116 0.09678547266894509
702 -0.22269895561925265 -1.3030620773503376 1.4628595804238897 -3.37120132477716 -1.326707419288093 0.09618003224852445
703 -0.22254321316147757 -1.3027680764892173 1.4623999422705234 -3.370901154992884 -1.3269410668317583 0.09557613565186326
704 -0.22238769779336245 -1.3024752975058826 1.4619397164436503 -3.3705957776950775 -1.3271741089894904 0.09497381415295245
705 -0.22223240730334992 -1.3021837426477365 1.4614789141308202 -3.370285217068172 -1.3274065544199167 0.09437309887886428
706 -0.22207733949105146 -1.301893414164477 1.4610175466146207 -3.369969497549299 -1.3276384117597535 0.09377402080843628
707 -0.22192249216792992 -1.3016043143079168 1.4605556252721148 -3.3696486438265554 -1.3278696896224522 0.09317661077096656
708 -0.2217678631579883 -1.301316445331788 1.4600931615742683 -3.3693226808372567 -1.328100396596848 0.09258089944492069
709 -0.22161345029846286 -1.3010298094915307 1.4596301670853573 -3.368991633766184 -1.328330541245813 0.09198691735665004
710 -0.2214592514405208 -1.3007444090440676 1.4591666534623613 -3.3686555280438246 -1.3285601321049112 0.09139469487912162
711 -0.22130526444996268 -1.300460246247563 1.458702632454339 -3.368314389344607 -1.3287891776810548 0.09080426223065939
712 -0.22115148720792893 -1.3001773233611673 1.4582381159017874 -3.367968243585127 -1.3290176864511667 0.09021564947369694
713 -0.22099791761161106 -1.2998956426447443 1.457773115735985 -3.367617116922368 -1.329245666860844 0.08962888651354163
714 -0.22084455357496563 -1.299615206358584 1.457307643978313 -3.3672610357519166 -1.3294731273230256 0.08904400309715006
715 -0.22069139302943386 -1.2993360167630992 1.4568417127395652 -3.366900026706169 -1.3297000762166618 0.0884610288119149
716 -0.22053843392466335 -1.2990580761185058 1.4563753342192358 -3.3665341166525344 -1.3299265218853897 0.087879993084463
717 -0.2203856742292336 -1.298781386684487 1.4559085207047895 -3.36616333269163 -1.3301524726362097 0.08730092517946487
718 -0.22023311193138495 -1.2985059507198418 1.4554412845709126 -3.36578770215547 -1.3303779367381667 0.08672385419845534
719 -0.2200807450397504 -1.2982317704821154 1.4549736382787473 -3.365407252605648 -1.3306029224210352 0.08614880907866541
720 -0.21992857158408985 -1.297958848227215 1.4545055943751037 -3.36502201183152 -1.330827437874007 0.08557581859186544
721 -0.21977658961602725 -1.2976871862090078 1.4540371654916553 -3.3646320078483707 -1.3310514912443852 0.08500491134321934
722 -0.21962479720978978 -1.2974167866789017 1.453568364344114 -3.364237268895583 -1.3312750906362785 0.08443611577014996
723 -0.21947319246294883 -1.2971476518854108 1.453099203731383 -3.363837823434798 -1.3314982441093028 0.08386946014121559
724 -0.21932177349716309 -1.2968797840737023 1.4526296965346932 -3.3634337001480707 -1.3317209596772854 0.08330497255499741
725 -0.2191705384589228 -1.2966131854851273 1.4521598557167157 -3.36302492793602 -1.331943245306973 0.08274268093899813
726 -0.21901948552029532 -1.2963478583567338 1.4516896943206563 -3.3626115359159723 -1.332165108916746 0.08218261304855141
727 -0.21886861287967152 -1.296083804920764 1.4512192254693275 -3.362193553420102 -1.3323865583753347 0.08162479646574243
728 -0.21871791876251295 -1.295821027404132 1.450748462364201 -3.361771009993564 -1.3326076015005415 0.08106925859833918
729 -0.2185674014220985 -1.2955595280278878 1.4502774182844356 -3.3613439353926227 -1.3328282460579677 0.08051602667873474
730 -0.21841705914027257 -1.2952993090066605 1.4498061065858883 -3.3609123595827755 -1.3330484997597452 0.07996512776290034
731 -0.2182668902281914 -1.295040372548086 1.4493345407001008 -3.3604763127368704 -1.3332683702632717 0.07941658872934922
732 -0.21811689302706894 -1.2947827208522187 1.4488627341332618 -3.3600358252332216 -1.3334878651699524 0.07887043627811124
733 -0.21796706590892317 -1.2945263561109237 1.4483907004651553 -3.359590927653713 -1.3337069920239464 0.0783266969297182
734 -0.2178174072773187 -1.2942712805072536 1.447918453348076 -3.3591416507819036 -1.333925758310917 0.07778539702419983
735 -0.21766791556810958 -1.2940174962148079 1.4474460065057313 -3.358688025601127 -1.3341441714567892 0.07724656272009034
736 -0.2175185892501793 -1.293765005397075 1.446973373732116 -3.35823008329258 -1.3343622388265126 0.07671021999344571
737 -0.2173694268261783 -1.2935138102067578 1.4465005688903658 -3.3577678552334143 -1.3345799677228274 0.07617639463687133
738 -0.2172204268332587 -1.293263912785082 1.4460276059115889 -3.357301372994815 -1.334797365385039 0.0756451122585603
739 -0.21707158784380587 -1.293015315261089 1.4455544987936713 -3.3568306683400815 -1.335014438987797 0.07511639828134206
740 -0.21692290846616638 -1.2927680197509104 1.4450812616000648 -3.356355773222698 -1.3352311956398806 0.07459027794174157
741 -0.21677438734537208 -1.2925220283570278 1.4446079084585466 -3.3558767197844013 -1.3354476423829902 0.07406677628904872
742 -0.21662602316385965 -1.2922773431675156 1.4441344535599592 -3.3553935403532433 -1.335663786190545 0.07354591818439815
743 -0.21647781464218535 -1.2920339662552676 1.4436609111569263 -3.354906267441648 -1.3358796339664867 0.07302772829985937
744 -0.2163297605397343 -1.2917918996772084 1.4431872955625442 -3.3544149337444633 -1.336095192544092 0.07251223111753705
745 -0.21618185965542477 -1.2915511454734885 1.4427136211490523 -3.353919572137008 -1.3363104686847898 0.07199945092868154
746 -0.21603411082840587 -1.2913117056666639 1.44223990234648 -3.3534202156731117 -1.3365254690769843 0.0714894118328096
747 -0.21588651293874833 -1.2910735822608619 1.4417661536412678 -3.352916897583154 -1.3367402003348898 0.07098213773683519
748 -0.21573906490812947 -1.2908367772409297 1.4412923895748688 -3.3524096512720933 -1.3369546689973681 0.0704776523542103
749 -0.2155917657005097 -1.2906012925715704 1.440818624742326 -3.3518985103174925 -1.3371688815267757 0.06997597920407589
750 -0.21544461432280154 -1.2903671301964637 1.4403448737908253 -3.351383508467541 -1.3373828443078197 0.06947714161042276
751 -0.2152976098255305 -1.2901342920373715 1.4398711514182267 -3.3508646796390664 -1.3375965636464195 0.06898116270126238
752 -0.2151507513034869 -1.2899027799932326 1.439397472371574 -3.350342057915547 -1.337810045768578 0.06848806540780761
753 -0.21500403789636852 -1.2896725959392403 1.4389238514455776 -3.3498156775451116 -1.3380232968192614 0.06799787246366333
754 -0.2148574687894137 -1.2894437417259106 1.438450303481081 -3.3492855729385416 -1.338236322861288 0.06751060640402681
755 -0.21471104321402404 -1.2892162191781342 1.4379768433634978 -3.3487517786672596 -1.3384491298742236 0.06702628956489799
756 -0.21456476044837663 -1.2889900300942188 1.4375034860212328 -3.348214329461318 -1.3386617237532896 0.06654494408229931
757 -0.214418619818025 -1.2887651762449177 1.4370302464240774 -3.347673260207378 -1.338874110308278 0.06606659189150549
758 -0.2142726206964886 -1.2885416593724486 1.436557139581584 -3.347128605946686 -1.3390862952624767 0.06559125472628273
759 -0.21412676250583007 -1.2883194811894993 1.4360841805414175 -3.3465804018730383 -1.3392982842516055 0.06511895411813777
760 -0.2139810447172201 -1.2880986433782247 1.4356113843876899 -3.346028683330748 -1.3395100828227615 0.06464971139557639
761 -0.21383546685148927 -1.2878791475892313 1.4351387662392678 -3.3454734858125974 -1.3397216964333762 0.06418354768337149
762 -0.21369002847966626 -1.2876609954405545 1.4346663412480638 -3.344914844957789 -1.3399331304501818 0.06372048390184079
763 -0.21354472922350198 -1.2874441885166246 1.4341941245973042 -3.344352796549889 -1.340144390148189 0.06326054076613394
764 -0.21339956875597976 -1.2872287283672248 1.433722131499779 -3.3437873765147628 -1.3403554807096791 0.06280373878552907
765 -0.2132545468018096 -1.2870146165064418 1.4332503771960696 -3.343218620918506 -1.3405664072232029 0.062350098262738914
766 -0.2131096631379084 -1.2868018544116064 1.432778876952761 -3.3426465659653686 -1.340777174682596 0.061899639293226144
767 -0.2129649175938629 -1.2865904435222295 1.4323076460606288 -3.3420712479956687 -1.3409877879860044 0.061452381764528254
768 -0.21282031005237734 -1.2863803852389304 1.4318366998328136 -3.3414927034837043 -1.341198251934924 0.06100834535559167
769 -0.2126758404497039 -1.286171680922358 1.4313660536029738 -3.340910969035655 -1.3414085712332517 0.06056754953611526
770 -0.21253150877605587 -1.2859643318921083 1.4308957227234216 -3.340326081387477 -1.3416187504863522 0.060130013565903105
771 -0.21238731507600303 -1.2857583394256358 1.4304257225632409 -3.3397380774027923 -1.3418287942001357 0.05969575649422657
772 -0.2122432594488492 -1.2855537047571612 1.4299560685063888 -3.339146994070768 -1.3420387067801534 0.05926479715919563
773 -0.21209934204899109 -1.2853504290765752 1.4294867759497822 -3.33855286850399 -1.3422484925307046 0.058837154187139404
774 -0.21195556308625765 -1.2851485135283391 1.4290178603013655 -3.33795573793633 -1.3424581556539603 0.058412845991996
775 -0.21181192282623099 -1.2849479592103838 1.4285493369781657 -3.3373556397208013 -1.3426677002491014 0.05799189077471144
776 -0.21166842159054639 -1.2847487671730062 1.4280812214043312 -3.3367526113274106 -1.3428771303114737 0.0575743065226479
777 -0.2115250597571728 -1.2845509384177638 1.4276135290091585 -3.3361466903409998 -1.343086449731757 0.05716011100900107
778 -0.21138183776067226 -1.2843544738963715 1.4271462752251018 -3.33553791445908 -1.3432956622951542 0.05674932179222669
779 -0.21123875609243842 -1.2841593745095954 1.4266794754857732 -3.3349263214896596 -1.343504771680594 0.05634195621547629
780 -0.21109581530091365 -1.2839656411061506 1.4262131452239288 -3.334311949349061 -1.3437137814599522 0.055938031406042026
781 -0.21095301599178454 -1.2837732744815975 1.4257472998694447 -3.3336948360597307 -1.3439226950972922 0.05553756427481074
782 -0.21081035882815452 -1.2835822753772428 1.4252819548472782 -3.3330750197480405 -1.344131515948121 0.055140571515727176
783 -0.21066784453069515 -1.2833926444790429 1.424817125575424 -3.332452538642083 -1.344340247258667 0.05474706960526628
784 -0.2105254738777738 -1.2832043824165105 1.424352827462858 -3.331827431069454 -1.3445488921651738 0.054357074801914734
785 -0.2103832477055583 -1.2830174897616258 1.4238890759074716 -3.3311997354550305 -1.344757453693216 0.05397060314566165
786 -0.2102411669080985 -1.2828319670277533 1.4234258862939997 -3.3305694903187355 -1.3449659347570342 0.05358767045749838
787 -0.21009923243738335 -1.2826478146685634 1.4229632739919391 -3.3299367342733013 -1.3451743381588894 0.05320829233892762
788 -0.20995744530337523 -1.2824650330769627 1.4225012543534632 -3.329301506022016 -1.34538266658844 0.05283248417148156
789 -0.2098158065740191 -1.2822836225840284 1.4220398427113292 -3.328663844356466 -1.3455909226221394 0.052460261116249386
790 -0.20967431737522713 -1.282103583457954 1.42157905437678 -3.328023788154269 -1.3457991087226542 0.05209163811341395
791 -0.2095329788908394 -1.2819249159030013 1.421118904637442 -3.327381376376797 -1.3460072272383072 0.05172662988179765
792 -0.20939179236255875 -1.2817476200584639 1.4206594087552202 -3.326736648066891 -1.346215280402541 0.0513652509184177
793 -0.20925075908986143 -1.2815716959976386 1.4202005819641903 -3.3260896423465685 -1.3464232703334043 0.05100751549805053
794 -0.20910988042988202 -1.28139714372681 1.4197424394684908 -3.325440398414716 -1.3466311990330648 0.050653437672805654
795 -0.20896915779727235 -1.2812239631842453 1.4192849964402086 -3.3247889555447814 -1.3468390683873428 0.05030303127170884
796 -0.20882859266403653 -1.281052154239202 1.4188282680172724 -3.32413535308245 -1.347046880165271 0.04995630990029458
797 -0.20868818655933852 -1.2808817166909485 1.4183722693013416 -3.323479630443316 -1.347254636018679 0.049613286940208126
798 -0.20854794106928495 -1.280712650267799 1.4179170153556986 -3.3228218271105416 -1.3474623374818027 0.04927397554881686
799 -0.2084078578366818 -1.280544954626162 1.4174625212031426 -3.32216198263251 -1.3476699859709198 0.04893838865883121
800 -0.20826793856076542 -1.280378629349605 1.4170088018238898 -3.3215001366204664 -1.3478775827840124 0.04860653897793511
801 -0.20812818499690725 -1.2802136739479335 1.4165558721534734 -3.3208363287461546 -1.3480851291004547 0.048278438988426
802 -0.2079888560079633 -1.2800459765145251 1.4161174676506438 -3.320161240845934 -1.3482929324388426 0.047954100946864454
803 -0.20784575991177945 -1.2798831529041477 1.415663042830816 -3.319488825592588 -1.348499393765043 0.04763380317281275
804 -0.20770313395086532 -1.279722911369262 1.4152055517189763 -3.3188174264941055 -1.3487059670560129 0.04731731040645857
805 -0.20756206146790532 -1.2795646011651876 1.4147486673682235 -3.3181465900404197 -1.3489129731793823 0.047004556591029825
806 -0.2074227451417826 -1.2794080351611563 1.4142934376817442 -3.3174762024713003 -1.3491204215370924 0.04669552333026469
807 -0.20728514792523403 -1.2792531573160968 1.413840166231564 -3.31680624583151 -1.349328241311613 0.04639020554542664
808 -0.20714917349046028 -1.2790999486036918 1.4133889447591175 -3.316136728943339 -1.34953634615301 0.04608860176394787
809 -0.20701471657199555 -1.2789484003566303 1.4129398042409191 -3.3154676678703745 -1.3497446518368603 0.04579071137763812
