ZJU-PLP/Project_IFAC_2020/src/custom_codes/csv_files/joint_traj_1_AAPF.csv
Index Joint1 Joint2 Joint3 Joint4 Joint5 Joint6
0 0.0 -1.5707 0.0 -1.5707 -1.5707 -1.5707
1 -0.0006673776981413824 -1.5698232258549327 0.01800306961805558 -1.562081276074729 -1.575165090171633 -1.5667252848107383
2 -0.0013409264043174123 -1.568947374651666 0.03608283784128135 -1.5534592613848093 -1.5807109859185928 -1.5613900101394178
3 -0.0020193442838426943 -1.5680724370958672 0.0542381102164024 -1.544834093872598 -1.586119063209025 -1.555906958906999
4 -0.0027030192165023847 -1.5671984879176137 0.07246594495916725 -1.536205966738538 -1.5914305953554004 -1.5502209275091863
5 -0.003392301173495419 -1.5663255962455296 0.09076337836734542 -1.5275750255329903 -1.5966486907354673 -1.5443146066973872
6 -0.004087556860639802 -1.5654538281042358 0.1091273648859977 -1.518941383950935 -1.60176948216687 -1.5381771001161761
7 -0.0047891820214704395 -1.564583246706539 0.12755476035383786 -1.5103051242710452 -1.6067866472593968 -1.5317993113469135
8 -0.005497607946002831 -1.5637139124303927 0.1460423101507629 -1.5016662962362899 -1.6116925965302888 -1.525172687492905
9 -0.006213306783868385 -1.5628458827186957 0.16458663728167194 -1.493024915769887 -1.6164788782127504 -1.518288748054544
10 -0.006936796787057997 -1.5619792119610048 0.1831842289740874 -1.4843809638718402 -1.6211363302050845 -1.5111388629004312
11 -0.007668647893950888 -1.5611139513802048 0.2018314210414485 -1.4757343858782312 -1.6256551312638148 -1.5037141248802304
12 -0.008409487870103862 -1.5602501489382168 0.22052437939147876 -1.4670850912503168 -1.6300248046347783 -1.4960052624656304
13 -0.009160009161207442 -1.559387849273351 0.23925907802888885 -1.4584329540867957 -1.6342341953331168 -1.4880025700808415
14 -0.009920976598637738 -1.5585270936833922 0.25803127280253324 -1.449777814600078 -1.6382714302423502 -1.4796958459194682
15 -0.010693236101107582 -1.5576679201717538 0.2768364700005797 -1.44111948186341 -1.64212386510352 -1.4710743321802664
16 -0.011477724527604344 -1.5568103635788646 0.295669888705185 -1.432457738222968 -1.6457780200856313 -1.4621266550714098
17 -0.012275480853215016 -1.5559544558275518 0.3145264155747875 -1.4237923458828836 -1.6492195044224411 -1.452840763215609
18 -0.013087658858506117 -1.55510022631999 0.3334005504172569 -1.4151230563192008 -1.6524329299496252 -1.443203863892972
19 -0.013915541543133928 -1.5542477025354122 0.3522863405372374 -1.4064496233710442 -1.6554018130202575 -1.4332023571927308
20 -0.014760557493194224 -1.5533969108930827 0.37117730136944854 -1.397771821106924 -1.6581084641092112 -1.4228217687806193
21 -0.015624299446328323 -1.5525478779651125 0.3900663203271088 -1.3890894678878078 -1.6605338644090875 -1.4120466827483142
22 -0.016508545303855787 -1.5517006321499625 0.4089455400798261 -1.3804024584674188 -1.6626575288899679 -1.4008606770090652
23 -0.0174152818274866 -1.550855205951695 0.42780621660743584 -1.3717108065099848 -1.6644573557016331 -1.3892462650687667
24 -0.018346731217532684 -1.5500116390542877 0.4466385463394548 -1.3630147005968718 -1.6659094625435047 -1.3771848498959978
25 -0.019305380681772517 -1.5491699824370337 0.4654314554819671 -1.3543145776699737 -1.666988011875014 -1.3646566982471942
26 -0.02029401494189151 -1.5483303038485907 0.4841723432827891 -1.345611218954298 -1.6676650288241568 -1.3516409474441176
27 -0.021315751347499072 -1.5474926950455041 0.5028467695782526 -1.336905874737627 -1.6679102187131716 -1.3381156615890613
28 -0.022374076818319894 -1.5466572813060337 0.5214380756947112 -1.3282004259552338 -1.6676907957272544 -1.3240579609409449
29 -0.023472885132934922 -1.545824233847815 0.5399269270255896 -1.3194975922621721 -1.6669713410309746 -1.309444257090091
30 -0.024616512021027267 -1.5449937858958758 0.5582907660626385 -1.310801197978352 -1.665713718372505 -1.2942506380090883
31 -0.02580976396532326 -1.544166253238008 0.5765031675149759 -1.302116508536693 -1.663877088790393 -1.2784534610578369
32 -0.027057934442349767 -1.5433420601130932 0.5945330943265397 -1.2934506500365113 -1.6614180842274584 -1.2620302278502815
33 -0.028366798432081092 -1.5425217711080794 0.6123440678283258 -1.2848131217738283 -1.6582912228456952 -1.2449608302342883
34 -0.029742572456936713 -1.5417061292336651 0.6298932910043546 -1.2762164038900923 -1.6544496752407258 -1.2272292662999917
35 -0.031191823566547424 -1.540896099277629 0.6471308057797289 -1.2676766462302878 -1.6498465159138336 -1.208825919472108
36 -0.032721307619024836 -1.5400929136137578 0.6639988274998168 -1.2592143960669053 -1.6444366078156945 -1.1897504561373715
37 -0.03433771701145392 -1.539298114628345 0.6804314819637507 -1.2508552780893307 -1.6381792505290746 -1.17001530527711
38 -0.036047324024288424 -1.5385135838461859 0.6963552604194461 -1.2426304805475425 -1.6310416464224868 -1.1496495133953477
39 -0.03785552225555728 -1.5377415434225807 0.7116905722954278 -1.2345768372042376 -1.6230030724528055 -1.1287025103943429
40 -0.03976629798597485 -1.5369845128376884 0.7263547527097973 -1.2267362531738075 -1.614059373468967 -1.107247011672963
41 -0.04178170302915325 -1.5362452055949831 0.7402666937654141 -1.219154249306225 -1.6042270535714662 -1.0853800309628816
42 -0.04390143793339939 -1.5355263608456327 0.7533528667467173 -1.2118775420512524 -1.593545960648216 -1.0632209802027826
43 -0.04612266663209592 -1.5348305237465678 0.7655539461948165 -1.2049508428867468 -1.582079537184826 -1.0409062800599633
44 -0.04844014914878088 -1.534159810586678 0.7768307572533708 -1.1984133784276016 -1.5699120185518065 -1.0185808164880719
45 -0.05084669702222451 -1.533515708987918 0.787168155598074 -1.1922958420257586 -1.5571427641523943 -0.9963876502222018
46 -0.05333385865195004 -1.5325664302511468 0.8062195511331368 -1.18541709322979 -1.5438994736318143 -0.9744580730546363
47 -0.05593457073498979 -1.5317418672877514 0.8214626293698626 -1.1794448145728815 -1.529698790745244 -0.9526563313144573
48 -0.05862026003928343 -1.5310203109370846 0.8336123597001535 -1.1742853423273474 -1.514877253462201 -0.9312793221673034
49 -0.061369237117524476 -1.5303831088852533 0.8432735601130413 -1.169844068655376 -1.4997004427703726 -0.9105040228973365
50 -0.06416621767130437 -1.5298144315672884 0.8507830294383247 -1.167357998801632 -1.4842841192157714 -0.8904881339235493
51 -0.06700352095051475 -1.5292983022589244 0.8568467558551275 -1.1652024957393217 -1.4688816439847023 -0.8711557396222965
52 -0.0698742834864906 -1.5288248534781461 0.8617606057880234 -1.1633288248438636 -1.45356956334302 -0.8524991762759928
53 -0.0727736830462606 -1.5283859267515398 0.865764763723838 -1.1616986175071764 -1.4383970468828 -0.8344952315246397
54 -0.07569827565233918 -1.5279748178529093 0.8690536301954729 -1.1602815168577196 -1.4233941666038554 -0.8171133540183745
55 -0.07864553833213209 -1.527586042646359 0.8717842240254212 -1.1590533844546496 -1.408577850319338 -0.8003204898236442
56 -0.08161356422908558 -1.527215130106444 0.8740831814627547 -1.1579949286019822 -1.3939560471289354 -0.7840837719911327
57 -0.08460086298796762 -1.526858444301517 0.8760525166101046 -1.157090649838244 -1.3795306073197933 -0.768371909862888
58 -0.08760623109605832 -1.5265130341423276 0.8777743263982958 -1.1563280260437316 -1.3652992676290419 -0.7531558202140144
59 -0.09062866766802559 -1.5261765081846912 0.8793146153068934 -1.155696879621863 -1.351257022744565 -0.7384088322563852
60 -0.09366731937030191 -1.5258469312176302 0.8807263954983459 -1.155188883901658 -1.3373970772092085 -0.7241066638724448
61 -0.0967214439074016 -1.5255227393530482 0.8820521952715589 -1.1547971766548828 -1.3237115096054382 -0.7102272836102242
62 -0.09979038531135251 -1.5252026705877597 0.8833260867151217 -1.154516056502445 -1.3101917380916972 -0.6967507232985997
63 -0.10287355675597709 -1.5248857081730411 0.8845753237989956 -1.1543407437974353 -1.2968288475599121 -0.6836588768909205
64 -0.10597042820330517 -1.5245710345134895 0.885821665360748 -1.1542671918912613 -1.2836138194619504 -0.6709353041862078
65 -0.10908051719235427 -1.5242579936824405 0.8870824434449611 -1.1542919379244159 -1.2705376925270433 -0.6585650484091342
66 -0.11220338171045204 -1.5239460609668856 0.888371425944784 -1.1544119847263732 -1.2575916739908584 -0.6465344712390431
67 -0.11533861448092478 -1.5236348181353305 0.8896995131104548 -1.1546247072683253 -1.2447672151391957 -0.634831105970488
68 -0.11848583824605283 -1.523323933358607 0.8910752998769155 -1.1549277785377696 -1.232056060991483 -0.6234435280043846
69 -0.12164470177637256 -1.5230131449104696 0.8925055298050729 -1.1553191108037957 -1.2194502811960248 -0.6123612411891924
70 -0.1248148764317698 -1.522702247937111 0.8939954614587868 -1.1557968090956254 -1.2069422872786475 -0.601574578294284
71 -0.12799605315834242 -1.5223910837177719 0.895549164027491 -1.1563591343830042 -1.194524840015451 -0.5910746138943779
72 -0.13118793984142488 -1.5220795309472273 0.8971697557680433 -1.1570044744689827 -1.18219104971456 -0.580853088055876
73 -0.13439025895798043 -1.5217674986593708 0.8988595962289456 -1.157731321016216 -1.1699343714746644 -0.570902339376796
74 -0.13760274548604287 -1.5214549204829848 0.9005229465167895 -1.1593182082301225 -1.1576454560218656 -0.5614993693302174
75 -0.14137674777278048 -1.520765391097184 0.9032744068592596 -1.162533296710315 -1.1453551539914542 -0.5523578933637223
76 -0.145149021362456 -1.52009287617456 0.905964752846341 -1.1657962960365893 -1.1330831397458256 -0.5434413293598392
77 -0.1489187337278482 -1.519436415843737 0.9086206812298734 -1.1691041618652078 -1.1208317792225826 -0.5347464709595148
78 -0.15268507152194477 -1.5187952380641168 0.9112635440258864 -1.1724545955137518 -1.1086024915587052 -0.5262705255680459
79 -0.1564472411513655 -1.5181687208770134 0.9139104074578388 -1.1758458973142245 -1.0963959794651514 -0.5180110497605259
80 -0.16020446931618015 -1.517556362167063 0.9165749010876967 -1.1792768501147315 -1.084212411515888 -0.5099658930036817
81 -0.1639560034156573 -1.5169577554306133 0.9192678986393951 -1.1827466267038587 -1.0720515666550756 -0.5021331493683465
82 -0.16770111178802333 -1.5163725703543365 0.9219980637650771 -1.1862547162321264 -1.0599129488805425 -0.494511116493852
83 -0.1714390837892942 -1.5158005372490888 0.9247722874121089 -1.189800865730586 -1.047795878297756 -0.48709826091347097
84 -0.17516922973421065 -1.515241434575547 0.9275960381763035 -1.1933850336358425 -1.0356995633985278 -0.47989318884014337
85 -0.17889088072917333 -1.5146950789503488 0.9304736428048944 -1.1970073528695735 -1.0236231583908673 -0.4728946215738803
86 -0.18260338842774432 -1.5141613171427692 0.933408510628954 -1.200668101525256 -1.0115658086109187 -0.4661013747858552
87 -0.18630612473674435 -1.5136400196688535 0.9364033129907331 -1.2043676796138372 -0.9995266864273896 -0.4595123410365303
88 -0.18999848149701035 -1.513131075667472 0.9394601265529898 -1.2081065906358723 -0.9875050195614318 -0.45312647498417463
89 -0.19367987015849972 -1.5126343888048899 0.9425805476282315 -1.2118854269977664 -0.9755001133598171 -0.44694278083002625
90 -0.19734972146519184 -1.5121498740042922 0.945765783260856 -1.2157048584880066 -0.9635113682534597 -0.4409603016249113
91 -0.20100748516141279 -1.5116774548367262 0.9490167236664793 -1.2195656231865037 -0.9515382933895608 -0.43517811012910057
92 -0.2046526297279047 -1.511217061442067 0.9523339997258329 -1.2234685203049225 -0.9395805172306525 -0.4295953009732989
93 -0.2082846421531906 -1.5107686288744564 0.9557180285019007 -1.2274144045549091 -0.9276377957573961 -0.424210983915105
94 -0.21190302774351538 -1.5103320957874324 0.9591690491634131 -1.2314041817197496 -0.9157100187862091 -0.4190242780233683
95 -0.21550730997281947 -1.5099074033906725 0.9626871512273651 -1.2354388051673988 -0.9037972148114329 -0.41403430665388496
96 -0.21909703037275746 -1.5094944946236972 0.9662722966552744 -1.239519273092371 -0.8918995546998841 -0.4092401931049884
97 -0.2226717484616521 -1.5090933135026863 0.969924337034332 -1.2436466263132868 -0.8800173544993629 -0.4046410568618207
98 -0.22623104171041458 -1.5087038046052348 0.9736430268308397 -1.2478219464840457 -0.8681510775689035 -0.4002360103542961
99 -0.22977450554281614 -1.5083259126648592 0.97742803350765 -1.2520463546012783 -0.8563013361947488 -0.39602415616671033
100 -0.23330175336702277 -1.5079595822526721 0.9812789451403285 -1.2563210097102895 -0.8444688928202155 -0.39200458464722165
101 -0.23681241663496636 -1.5076047575281502 0.9851952760408511 -1.2606471077271237 -0.8326546609881759 -0.3881763718735167
102 -0.24030614492589486 -1.5072613820445375 0.9891764707967493 -1.265025880306579 -0.8208597060705125 -0.38453857793728274
103 -0.243782606050295 -1.5069293985973389 0.9932219070528483 -1.2694585936955747 -0.8090852458385696 -0.38109024551495896
104 -0.24724148617029654 -1.5066087491066813 0.9973308972981435 -1.273946547518819 -0.7973326509114674 -0.3778303986958943
105 -0.250682489932629 -1.5062993745262006 1.0015026898687973 -1.2784910734496269 -0.7856034451045073 -0.3747580420416997
106 -0.25410534061019935 -1.506001214772602 1.005736469337158 -1.2830935337233862 -0.7738993056872134 -0.37187215985242317
107 -0.2575097802483829 -1.505714208671249 1.0100313564240593 -1.2877553194548172 -0.7622220635494186 -0.3691717156163174
108 -0.2608955698121578 -1.5054382939140885 1.0143864075458364 -1.2924778487230701 -0.7505737032638616 -0.36665565162052527
109 -0.2642624893302669 -1.5051734070269973 1.018800614087131 -1.2972625643910451 -0.7389563630247677 -0.36432288870005514
110 -0.2676103380326486 -1.5049194833442325 1.0232729014746447 -1.3021109316272714 -0.7273723344336466 -0.36217232610203054
111 -0.27093893447743816 -1.5046764569881657 1.0278021281146308 -1.3070244351003848 -0.715824062095938 -0.36020284144143006
112 -0.2742481166639065 -1.504444260852862 1.0323870842474367 -1.3120045758178374 -0.7043141429850858 -0.3584132907234376
113 -0.27753774212776455 -1.5042228265903699 1.0370264907652342 -1.3170528675820654 -0.6928453255241106 -0.3568025084061478
114 -0.28074687076153243 -1.503980722937124 1.0417217254423685 -1.3221803172313902 -0.6813983450400685 -0.35536930747576445
115 -0.2839369748258288 -1.5037488579952019 1.046464389009693 -1.3273790653481052 -0.670001718623544 -0.35411375172744414
116 -0.2871079328333286 -1.5035271811966864 1.0512534615150237 -1.3326504753602118 -0.6586586877115279 -0.353034420875181
117 -0.29025964312334673 -1.5033156450860916 1.0560877545741578 -1.3379959191590678 -0.6473726080796042 -0.35212988559002006
118 -0.2933920237943301 -1.5031142045358696 1.0609659305193673 -1.3434167687630607 -0.6361469523317218 -0.3513987056221426
119 -0.29650501261642837 -1.5029228160953798 1.0658865176973065 -1.3489143879653755 -0.6249853105184034 -0.3508394280457147
120 -0.2995985669202532 -1.5027414374439498 1.0708479227520478 -1.354490123868786 -0.6138913890410499 -0.35045058553545766
121 -0.3026726634579333 -1.502570026924597 1.0758484405679207 -1.3601452982345088 -0.6028690079580727 -0.3502306945934163
122 -0.30572729823259975 -1.5024085431398004 1.080886262417723 -1.36588119859335 -0.5919220967772987 -0.35017825365236577
123 -0.3087624862924951 -1.5022569445946414 1.085959482758228 -1.3716990690864161 -0.5810546887970175 -0.3502917409892387
124 -0.3117782614859939 -1.502115189375825 1.0910661050315045 -1.3776001010201937 -0.5702709140440626 -0.3505696123883519
125 -0.314774676173958 -1.5019832348577349 1.0962040467631786 -1.3835854231372757 -0.5595749908505134 -0.35101029850046633
126 -0.31775180089603045 -1.5018610374288288 1.101371144194052 -1.3896560916197656 -0.548971216110218 -0.35161220185019626
127 -0.3207097239877059 -1.5017485522334901 1.1065651566366674 -1.3958130798575898 -0.5384639542616538 -0.35237369345128927
128 -0.32364855114530366 -1.5016457329259323 1.1117837707113614 -1.40205726802871 -0.5280576250540125 -0.35329310899708266
129 -0.32653873576212755 -1.5015470630411896 1.1169712868039032 -1.408404570895979 -0.5177350390966542 -0.3543687446021868
130 -0.3294111631794763 -1.5014572951374399 1.1221886586215282 -1.41483878722404 -0.5075284642984297 -0.3555983535156511
131 -0.33226596025129107 -1.5013764932970552 1.1274310728988832 -1.421360662477657 -0.4974414385600116 -0.3569801993176451
132 -0.3351032654965522 -1.501304700842507 1.1326941465907747 -1.427970756478805 -0.487477667860063 -0.3585124660400785
133 -0.3379232287807218 -1.5012419437843696 1.1379738330376996 -1.4346694439744294 -0.47764097558994806 -0.3601932580193621
134 -0.34066233774251004 -1.5011925270848867 1.1432117056449602 -1.4414691514395648 -0.4679081009577739 -0.36202059807109366
135 -0.34338484336385594 -1.501151603267716 1.148471652675873 -1.4483550705006452 -0.45831901807213704 -0.3639918254297493
136 -0.3460909179482859 -1.5011192929381836 1.1537472927808314 -1.4553272502083585 -0.4488763902314492 -0.3661048152984733
137 -0.3487807423252857 -1.5010956819111752 1.15903299265365 -1.4623854789538429 -0.4395830715010556 -0.36835731851388526
138 -0.3514545055718713 -1.50108082701922 1.1643237146047665 -1.4695292949968086 -0.4304420333471787 -0.37074696345041586
139 -0.35411240462420734 -1.5010747607289625 1.1696148966858508 -1.4767579945456208 -0.4214563032717096 -0.3732712559382851
140 -0.35675464378660304 -1.5010774948132737 1.1749023587293494 -1.4840706381769755 -0.41262891347299446 -0.37592757773389895
141 -0.35938143414679 -1.501089023278016 1.180182228989719 -1.4914660562355935 -0.4039628579743913 -0.37871318399394677
142 -0.3619929929068408 -1.5011093247034666 1.1854508871318024 -1.4989428537288483 -0.39546105699086737 -0.381625200133854
143 -0.36458954263891924 -1.5011383641288343 1.1907049201588782 -1.5064994151237208 -0.3871263275593163 -0.3846606183927608
144 -0.36717131047456714 -1.5011760945827926 1.1959410885509132 -1.5141339093608122 -0.3789613596535717 -0.3878162943773549
145 -0.3697385272355979 -1.5012224583422764 1.2011563004266559 -1.5218442953199653 -0.370968697151463 -0.39108894381313053
146 -0.3722914265139897 -1.5012773879850656 1.2063475919787479 -1.5296283279025038 -0.3631507231283388 -0.39447513969218584
147 -0.37527536070722467 -1.500995811115704 1.2127557652353202 -1.5378853069145002 -0.35566924342237405 -0.3979713099703167
148 -0.37824469726032117 -1.5007309918639729 1.2188585802360374 -1.546248251259397 -0.348265054417446 -0.4015918260648206
149 -0.38119860092663954 -1.5004808017923152 1.224712137919929 -1.5547060478032708 -0.34096367917036147 -0.4053303226717667
150 -0.38413635517124595 -1.5002436022483832 1.2303597163610667 -1.563249124002333 -0.33378557719259344 -0.40918085773554413
151 -0.38705732942865395 -1.5000181355509214 1.2358345652957223 -1.5718690590381934 -0.3267471956147102 -0.41313776512761363
152 -0.38996095690016447 -1.4998034399524447 1.2411621018174719 -1.5805582906231896 -0.3198617934839514 -0.4171955404917073
153 -0.39284671927604514 -1.4995987831993787 1.2463616340124652 -1.589309893511498 -0.31314008874410115 -0.4213487537440994
154 -0.3957141360301025 -1.4994036106450166 1.2514477129573338 -1.5981174121672268 -0.3065907666295542 -0.4255919828159927
155 -0.3985627567512903 -1.4992175047553182 1.2564311924300366 -1.6069747346198946 -0.3002208796912584 -0.42991976424579903
156 -0.4013921555052185 -1.4990401535364966 1.2613200589299582 -1.6158759978265171 -0.2940361630190108 -0.434326557107833
157 -0.40420192656058873 -1.498871325950098 1.26612008132945 -1.6248155172429672 -0.28804128303892257 -0.4388067174895319
158 -0.40695724527873506 -1.498659008441937 1.2708850078466782 -1.6337851367392597 -0.2822463368654639 -0.44335448131397515
159 -0.40969261637014903 -1.4984560010339092 1.2755480072934602 -1.6427837907043412 -0.2766432265759252 -0.4479649431952679
160 -0.41240762819740545 -1.498262090937127 1.2801150435625652 -1.65180543786182 -0.271235907441378 -0.45263180442412865
161 -0.4151018878115782 -1.4980771223983413 1.2845904014284246 -1.6608442111240038 -0.2660274910117833 -0.45734867524695855
162 -0.41777501737878486 -1.4979009827468543 1.2889770774690867 -1.6698943797089263 -0.2610204000745077 -0.4621090679492881
163 -0.42041678810598404 -1.497723753865148 1.2932372999021304 -1.6789576562187583 -0.2562072164050206 -0.4669063946924975
164 -0.42303735637802864 -1.49755494114846 1.2974187594064428 -1.6880196783738355 -0.25160173159729887 -0.47173346771550095
165 -0.4256945791244408 -1.497389320025541 1.301562553116698 -1.6970691320377385 -0.24721940061285985 -0.4765835660181198
166 -0.4283290705361232 -1.4972329039797763 1.3056146095552503 -1.7061100459499168 -0.24303893194987275 -0.48145102126454764
167 -0.43094040444027865 -1.4970856407731323 1.3095767704919468 -1.7151368281223738 -0.23906150513879176 -0.48632883063688076
168 -0.4335281598172407 -1.4969474979075035 1.3134502475300651 -1.7241440048734094 -0.23528789540230952 -0.49120993230603616
169 -0.43609191912605527 -1.496818457096832 1.3172357814217555 -1.7331262095749453 -0.23171853587785254 -0.4960872123447114
170 -0.4386312668257441 -1.4966985100168466 1.3209337661438114 -1.7420781757150903 -0.22835356565528858 -0.500953513467155
171 -0.44114578805603594 -1.4965876550448727 1.3245443455538688 -1.7509947332614668 -0.2251928665794239 -0.5058016452164324
172 -0.44363506745543163 -1.4964858947644122 1.3280674887299873 -1.759870807544495 -0.22223609113814546 -0.5106243953113171
173 -0.44609868810459347 -1.4963932340580373 1.331503048752507 -1.768701420061533 -0.21948268326782133 -0.5154145419356597
174 -0.4485362305903672 -1.4963096786504886 1.3348508086355158 -1.7774816907440436 -0.2169318935271617 -0.5201648668074903
175 -0.4509472721910352 -1.4962352339939842 1.3381105172929386 -1.7862068413396066 -0.21458278979521597 -0.5248681689065002
176 -0.45333138618719016 -1.496169904411405 1.3412819177814344 -1.7948721996453338 -0.21243426441981392 -0.529517278769471
177 -0.4556881413052758 -1.4961136924316325 1.3443647695599672 -1.8034732043943136 -0.21048503856491863 -0.5341050732856029
178 -0.4580171013026155 -1.496066598265965 1.3473588661135147 -1.81200541064617 -0.208733664367596 -0.538624490939052
179 -0.46031782470380894 -1.4960286193860977 1.3502640489819393 -1.8204644955698408 -0.20717852540865878 -0.5430685474554928
180 -0.4625898646988371 -1.4959997501732822 1.3530802189957927 -1.8288462645338046 -0.20581783591849248 -0.5474303518141344
181 -0.4648327692131576 -1.495979981615538 1.355807345334087 -1.837146657438194 -0.2046496390756047 -0.5517031225870974
182 -0.46704608115953805 -1.4959693010355426 1.3584454728733644 -1.8453617552361172 -0.20367180470572166 -0.5558802045650789
183 -0.46922933888040874 -1.4959676918364542 1.3609947281837764 -1.8534877865993717 -0.20288202665036148 -0.5599550856223463
184 -0.4713695867899107 -1.495931477775764 1.3634879305393417 -1.861518574719008 -0.2022861935499084 -0.5639214137658511
185 -0.47347906548909785 -1.4959050143830983 1.365877771008031 -1.86945478284063 -0.20186849305692262 -0.5677737010133636
186 -0.4755572861919102 -1.4958881582462022 1.3681679003405651 -1.877292615990448 -0.2016272020081062 -0.5715058274921629
187 -0.47760376116518827 -1.4958807854369476 1.370361353157588 -1.8850285686442194 -0.20156014770138517 -0.5751119218492805
188 -0.4796180048631595 -1.495882785673312 1.372460708037611 -1.8926594067255529 -0.2016647657185717 -0.5785863710309858
189 -0.4815995353884208 -1.4958940577355984 1.3744682119069815 -1.9001821549572289 -0.20193814546767166 -0.5819238314033164
190 -0.48354787622874745 -1.4959145058601546 1.3763858765998458 -1.9075940882742253 -0.20237706649477702 -0.5851192407082532
191 -0.4854625582285221 -1.4959440368969648 1.3782155536937915 -1.9148927262789586 -0.2029780279447576 -0.5881678304267245
192 -0.48734312175890254 -1.495982558066482 1.3799589923588198 -1.9220758299279155 -0.2037372730251611 -0.591065138177211
193 -0.4892316535911713 -1.4960445788146348 1.3816202567233271 -1.9291408014551765 -0.20465307024366255 -0.5938070198229904
194 -0.49277027959634007 -1.4959962727759026 1.3835500461433454 -1.9360842520924204 -0.20620731059673927 -0.5963896073046067
195 -0.49613381546723373 -1.4959735073003095 1.3852399621844722 -1.9429400140911457 -0.20779889562941103 -0.5988039127202992
196 -0.49933081473766366 -1.495973812774093 1.386736681588043 -1.9496965870954308 -0.20944397802558473 -0.6010444552758791
197 -0.5023692210930769 -1.4959951516243561 1.3880758626635774 -1.9563448700824484 -0.21115413104076472 -0.6031068616943358
198 -0.5052564408789522 -1.49603582091143 1.389284775926996 -1.9628777209545052 -0.21293728605826098 -0.6049877353096997
199 -0.5079994029322472 -1.496094378050349 1.39038431492041 -1.9692896187336728 -0.21479847939648894 -0.6066845543823213
200 -0.5106046086353133 -1.4961695840568527 1.3913905334235193 -1.9755764005864762 -0.21674044899257075 -0.6081955898075427
201 -0.5130781743047239 -1.4962603601068987 1.3923158203958277 -1.9817350538661618 -0.21876411281521166 -0.6095198356780848
202 -0.5154258674778486 -1.496365754234735 1.3931697975398134 -1.9877635489589396 -0.22086895388066027 -0.6106569483769353
203 -0.5176531382708593 -1.4964849157674844 1.3939600042996205 -1.9936607026779019 -0.2230533312659938 -0.6116071913757918
204 -0.5197651467022861 -1.4966170756731132 1.3946924198530508 -1.9994260647638074 -0.22531473224315413 -0.6123713839299032
205 -0.5217667866725062 -1.496761531434057 1.3953718600427603 -2.005059822069207 -0.22764997734189857 -0.6129508525494552
206 -0.5236627071390888 -1.4969176353875193 1.396002278340824 -2.0105627164573168 -0.2300553875819535 -0.6133473845937162
207 -0.5254573309154574 -1.4970847857226097 1.3965869931823467 -2.015935973502106 -0.23252692112784507 -0.6135631836458622
208 -0.5271548714353808 -1.4972624195139272 1.3971288588353081 -2.0211812398441267 -0.23506028508314672 -0.6136008265302403
209 -0.5287593477610177 -1.4974500073156873 1.397630393015094 -2.0263005276168005 -0.23765102695190082 -0.6134632219617129
210 -0.5302745980624117 -1.497647048950971 1.3980938714153286 -2.0312961647664167 -0.24029460937412694 -0.6131535708910185
211 -0.5317042917576696 -1.4978530702153556 1.398521396993439 -2.03617075038643 -0.24298647102786503 -0.6126753286467344
212 -0.5330519404728151 -1.4980676202792167 1.398914950054125 -2.040927114402121 -0.2457220760343139 -0.6120321689850401
213 -0.5343209079564234 -1.4982902696230036 1.3992764237905178 -2.04556828109693 -0.24849695376841105 -0.6112279501516089
214 -0.5355144190650838 -1.4985206083783145 1.39960764887526 -2.050097436082856 -0.2513067306362367 -0.6102666830419478
215 -0.536635567920361 -1.4987582449772827 1.3999104098687962 -2.054517896396072 -0.2541471551111074 -0.6091525015220804
216 -0.537687325325351 -1.4990028050356876 1.4001864555738743 -2.0588330834543798 -0.25701411710546457 -0.6078896349440929
217 -0.5386725455185094 -1.4992539304128658 1.4004375049708335 -2.0630464986518846 -0.25990366258295494 -0.6064823828632383
218 -0.539593972333676 -1.4995112784051154 1.4006652499849195 -2.06716170139334 -0.2628120041747909 -0.6049350919367854
219 -0.5404542448277487 -1.4997745210397826 1.4008713560394512 -2.071182289389602 -0.265735528449265 -0.6032521349607359
220 -0.5412559024310056 -1.5000433444452894 1.401057461117865 -2.0751118810492577 -0.26867080038766955 -0.6014378919796443
221 -0.5420013896694277 -1.5003174482785702 1.4012251738785688 -2.0789540998116682 -0.27161456553968377 -0.5994967333873751
222 -0.5426930605033738 -1.5005965451961245 1.4013760712276981 -2.0827125602747074 -0.27456375026341184 -0.5974330049228244
223 -0.5433480213546664 -1.5009167319535504 1.4014872291547182 -2.086393245383679 -0.27750865926859314 -0.5952510144542894
224 -0.5439534688955948 -1.5012411239615473 1.4015963761838914 -2.0899959441611173 -0.28045765570145037 -0.5929539382886196
225 -0.5445114679012398 -1.5015695587288396 1.4017025023175644 -2.0935245115257315 -0.2834072381878311 -0.5905460206334754
226 -0.5450240209152756 -1.501901864718982 1.4018050906885202 -2.0969826824288726 -0.2863542828412164 -0.5880314280851456
227 -0.5455037353851798 -1.5022149799075422 1.401886169062284 -2.100376659090971 -0.28929986955417736 -0.5854142447186124
228 -0.5459411871845283 -1.5025317481358147 1.401962165577676 -2.1037070610068236 -0.2922364324035695 -0.5826985886531716
229 -0.5463382213085268 -1.5028519747889786 1.402033802556404 -2.1069772877231094 -0.2951618567833651 -0.5798884100213114
230 -0.5466966191559125 -1.5031754703600049 1.4021018749034047 -2.110190651260071 -0.2980742236478207 -0.5769875639813155
231 -0.5470181000339269 -1.503502051052536 1.4021672231004478 -2.113350376256068 -0.3009717928807999 -0.5739998081409774
232 -0.5473043227074319 -1.503831539184734 1.4022307122139122 -2.116459600047424 -0.30385298886996254 -0.5709288006822709
233 -0.547556886969088 -1.5041637634394105 1.4022932156539258 -2.119521372774299 -0.30671638786076516 -0.5677780991173359
234 -0.5477773352136391 -1.5044985589959294 1.4023556026898736 -2.122538657572338 -0.3095607067596271 -0.5645511596075728
235 -0.5479671540040085 -1.5048357675716675 1.402418728937107 -2.125514330886899 -0.31238479312843814 -0.5612513367804108
236 -0.5481277756204451 -1.5051752373947922 1.4024834291943444 -2.128451182929932 -0.31518761616873464 -0.5578818839819742
237 -0.5482605795866141 -1.5055168231253855 1.402550512140621 -2.1313519182875393 -0.31796825853716304 -0.5544459539080809
238 -0.5483668941685097 -1.5058603857382273 1.4026207565024562 -2.1342191566777866 -0.32072590886722413 -0.5509465995604919
239 -0.548447997843537 -1.5062057923776428 1.4026949083821463 -2.1370554338525776 -0.32345985489803286 -0.5473867754799177
240 -0.5485051207381819 -1.5065529161925266 1.4027736795014407 -2.1398632026336215 -0.3261694771306879 -0.5437693392118306
241 -0.5485394460334659 -1.506901636157859 1.4028577461649727 -2.142644834070282 -0.3288542429481885 -0.5400970529655333
242 -0.5485521113379316 -1.5072518368876147 1.4029477487874997 -2.145402618705882 -0.3315137011467079 -0.5363725854311323
243 -0.5485442100282857 -1.5076034084428496 1.4030442918605377 -2.148138767938662 -0.3341474768352375 -0.5325985137230146
244 -0.5485167925580845 -1.50795624613788 1.4031479442590278 -2.150855415463711 -0.33675526666778144 -0.5287773254221027
245 -0.5484708677350085 -1.5083102503467718 1.4032592398086492 -2.1535546187827315 -0.33933683437788004 -0.5249114206925519
246 -0.5484074039673744 -1.5086653263118253 1.4033786780503439 -2.1562383607692506 -0.34189200658964036 -0.5210031144516624
247 -0.5483273304805789 -1.5090213839553033 1.4035067251513764 -2.1589085512778112 -0.34442066888293543 -0.5170546385745979
248 -0.5482315385041889 -1.509378337695326 1.4036438149224746 -2.161567028786657 -0.346922762093216 -0.5130681441180595
249 -0.5481208824303888 -1.5097361062665855 1.4037903499088116 -2.1642155620644465 -0.3493982788286205 -0.5090457035493535
250 -0.547996180944473 -1.5100946125463313 1.4039467025291967 -2.166855851852534 -0.35184726018890283 -0.5049893129693498
251 -0.5478582181280481 -1.510453783385915 1.404113216243156 -2.1694895325553065 -0.35426979267220976 -0.5009008943196487
252 -0.5477077445355754 -1.5108135494480621 1.4042902067298786 -2.1721181739320086 -0.3566660052570137 -0.4967822975659004
253 -0.5475454782448511 -1.5111738450499335 1.4044779630664685 -2.1747432827843123 -0.35903606664758725 -0.4926353028506466
254 -0.5473721058819901 -1.5115346080119767 1.4046767488957381 -2.177366304634688 -0.3613801826723413 -0.4884616226103092
255 -0.5471882836214469 -1.5118957795125023 1.404886803576042 -2.179988625391349 -0.3636985938251697 -0.48426290365205105
256 -0.5469946381615791 -1.5122573039478777 1.4051083433074762 -2.182611572996186 -0.36599157294066986 -0.4800407291871879
257 -0.5467917676762362 -1.512619128798209 1.405341562230241 -2.1852364190526856 -0.3682594229947641 -0.47579662081865814
258 -0.5465802427428281 -1.5129812044983482 1.4055866334921556 -2.187864380431353 -0.3705024750228411 -0.4715320404807718
259 -0.5463606072473176 -1.513343484314055 1.4058437102832628 -2.190496620850618 -0.37272108614807997 -0.46724839233006915
260 -0.5461333792665545 -1.513705924223128 1.4061129268362331 -2.193134252431596 -0.3749156377131231 -0.46294702458664166
261 -0.5458990519283654 -1.5140684828013191 1.406394399391882 -2.195778337225441 -0.37708653350872773 -0.45862923132570604
262 -0.5456580942497947 -1.514431121112837 1.406688227129598 -2.1984298887123304 -0.37923419809346165 -0.45429625421959163
263 -0.5454109519538879 -1.5147938026052532 1.406994493062858 -2.2010898732713904 -0.3813590751989122 -0.44994928423060704
264 -0.5451580482653988 -1.5151564930086177 1.4073132649003004 -2.2037592116210987 -0.38346162621525803 -0.44558946325550314
265 -0.5448997846857977 -1.5155191602386022 1.407644595873052 -2.2064387802298926 -0.3855423287524077 -0.4412178857224522
266 -0.5446365417479528 -1.515881774303493 1.407988525529167 -2.209129412696884 -0.38760167527224354 -0.43683560014162404
267 -0.5443686797508542 -1.516244307214854 1.408345080496168 -2.211831901102721 -0.38964017178782195 -0.43244361061056547
268 -0.5440965394747469 -1.5166067329016995 1.4087142752127482 -2.214546997330743 -0.3916583366256735 -0.42804287827568144
269 -0.5438204428770366 -1.5169690271280099 1.409096112630765 -2.2172754143586872 -0.39365669924762325 -0.4236343227511839
270 -0.543540693769333 -1.5173311674134393 1.4094905848886634 -2.220017827521272 -0.3956357991288082 -0.4192188234969159
271 -0.5432575784759898 -1.5176931329570689 1.4098976739574982 -2.2227748757440455 -0.3975961846888095 -0.41479722115648376
272 -0.542971366474504 -1.5180549045640621 1.4103173522606973 -2.225547162748942 -0.3995384122730433 -0.41037031885713454
273 -0.5426823110181321 -1.5184164645750944 1.4107495832687058 -2.2283352582320233 -0.4014630451817642 -0.4059388834728111
274 -0.542390649741082 -1.518777796798425 1.4111943220696088 -2.2311396990139105 -0.40337065274422973 -0.40150364685179574
275 -0.5420966052466357 -1.5191388864444981 1.4116515159168086 -2.2339609901634265 -0.40526180943575957 -0.39706530701032655
276 -0.5418003856785599 -1.5194997200629536 1.4121211047547768 -2.2367996060949893 -0.40713709403559 -0.39262452929353325
277 -0.5415021852761547 -1.5198602854819452 1.4126030217238714 -2.2396559916402925 -0.40899708882358243 -0.38818194750499685
278 -0.5412021849132927 -1.5202205717496624 1.4130971936451513 -2.2425305630948174 -0.41084237881399077 -0.3837381650061902
279 -0.5409005526217979 -1.5205805690779635 1.4136035414860784 -2.2454237092397116 -0.41267355102462644 -0.37929375578700547
280 -0.540597444099506 -1.520940268788026 1.414121980807948 -2.2483357923395686 -0.4144911937798843 -0.3748492655085204
281 -0.5402930032033536 -1.521299663257934 1.414652422195838 -2.251267149116622 -0.416295896046207 -0.3704052125190999
282 -0.5399873624278314 -1.5216587458721205 1.415194771671823 -2.25421809170187 -0.4180882467986709 -0.36596208884487386
283 -0.5396806433691401 -1.5220175109725884 1.4157489310921478 -2.257188908563616 -0.41986883441747286 -0.3615203611555735
284 -0.5393729571753781 -1.5223759538118433 1.4163147985290205 -2.2601798654139147 -0.4216382461131851 -0.3570804717066545
285 -0.5390644049830898 -1.522734070507467 1.4168922686376277 -2.2631912060933743 -0.4233970673797275 -0.3526428392585772
286 -0.5387550783404975 -1.5230918579982726 1.4174812330089495 -2.266223153434776 -0.4251458814740781 -0.3482078599740601
287 -0.5384450596177351 -1.5234493140019798 1.4180815805088989 -2.2692759101059243 -0.42688526892181167 -0.34377590829407073
288 -0.5381344224043975 -1.5238064369743562 1.4186931976042871 -2.2723496594321553 -0.42861580704761465 -0.3393473377932637
289 -0.5378232318947131 -1.524163226069772 1.4193159686760706 -2.27544456619889 -0.4303380695299814 -0.3349224820155291
290 -0.5375115452606455 -1.524519681103117 1.4199497763203115 -2.278560777434618 -0.4320526259793445 -0.33050165529026365
291 -0.5371994120132189 -1.524875802513037 1.420594501637252 -2.281698423174671 -0.43376004153893777 -0.32608515352993417
292 -0.5368868743523632 -1.5252315913264414 1.4212500245088742 -2.2848576172061343 -0.43546087650772863 -0.32167325500945726
293 -0.5365739675055642 -1.5255870491242436 1.4219162238652916 -2.288038457794236 -0.43715568598479326 -0.31726622112788005
294 -0.5362607200556008 -1.5259421780082936 1.4225929779403017 -2.2912410283905245 -0.43884501953453914 -0.3128642971528073
295 -0.5359471542576459 -1.526296980569465 1.4232801645163986 -2.2944653983231467 -0.4405294208722067 -0.30846771294798375
296 -0.5356332863460005 -1.526651459856864 1.4239776611595332 -2.297711623469517 -0.4422094275691074 -0.30407668368440827
297 -0.5353191268307261 -1.5270056193481227 1.424685345443888 -2.30097974691166 -0.4438855707770759 -0.29969141053532294
298 -0.5350046807844349 -1.5273594629207496 1.4254030951669208 -2.3042697995744943 -0.4455583749716337 -0.2953120813553931
299 -0.5346899481194906 -1.5277129948245032 1.4261307885549133 -2.3075818008473212 -0.44722835771337727 -0.2909388713443663
300 -0.5343749238558676 -1.528066219654762 1.426868304459255 -2.3109157591887675 -0.44889602942711704 -0.286571943695474
301 -0.5340595983799117 -1.5284191423268643 1.4276155225436749 -2.314271672715423 -0.45056189319830653 -0.2822114502288183
302 -0.5337439576942378 -1.528771768051388 1.428372323462631 -2.3176495297744077 -0.45222644458630995 -0.2778575320099644
303 -0.5334279836589968 -1.52912410231035 1.4291385890310562 -2.3210493095000975 -0.4538901714540652 -0.27351031995394276
304 -0.5331116542247379 -1.529476150834297 1.4299142023856477 -2.3244709823552245 -0.4555535538137064 -0.2691699354148475
305 -0.5327949436570861 -1.5298279195802675 1.430699048137894 -2.3279145106565755 -0.45721706368771436 -0.2648364907612045
306 -0.5324778227534509 -1.530179414710599 1.4314930125190133 -2.3313798490854847 -0.4588811649851698 -0.2605100899372692
307 -0.5321602590519775 -1.5305306425725638 1.4322959835169833 -2.3348669451833413 -0.46054631339268515 -0.2561908290104041
308 -0.5318422170329443 -1.5308816096788085 1.4331078510058357 -2.338375739832304 -0.4622129562795955 -0.25187879670467583
309 -0.5315236583128093 -1.5312323226885787 1.4339285068673864 -2.3419061677214263 -0.4638815326169901 -0.24757407492080574
310 -0.5312045418310999 -1.5315827883897082 1.4347578451055694 -2.345458157798383 -0.4655524729101662 -0.2432767392425992
311 -0.530884824030338 -1.5319330136813551 1.435595761953543 -2.349031633707 -0.46722619914409036 -0.23898685942997697
312 -0.5305644590291878 -1.5322830055574648 1.4364421559737337 -2.3526265142107734 -0.46890312474145 -0.23470449989872597
313 -0.530243398789008 -1.5326327710909426 1.4372969281509838 -2.3562427136025716 -0.4705836545328799 -0.23042972018708613
314 -0.5299215932739864 -1.5329823174185175 1.4381599819789683 -2.3598801421007125 -0.4722681847389475 -0.22616257540928753
315 -0.5295989906050331 -1.5333316517262803 1.4390312235400464 -2.363538706231603 -0.47395710296348104 -0.22190311669615242
316 -0.5292755372075999 -1.533680781235878 1.439910561578714 -2.367218309199134 -0.4756507881978252 -0.21765139162287755
317 -0.528951177953593 -1.5340297131913485 1.4407979075688215 -2.3709188512410186 -0.47734961083560656 -0.21340744462411276
318 -0.5286258562975436 -1.5343784548465804 1.4416931757747242 -2.3746402299722686 -0.4790539326975935 -0.20917131739645523
319 -0.5282995144071911 -1.5347270134533775 1.4425962833065347 -2.378382340715998 -0.48076410706623446 -0.20494304928848106
320 -0.5279720932886404 -1.535075396250116 1.4435071501696402 -2.3821450768217454 -0.4824804787294583 -0.20072267767843932
321 -0.5276435329062379 -1.5354236104509773 1.4444256993086562 -2.385928329971516 -0.4842033840333219 -0.19651023833973819
322 -0.5273137722973225 -1.5357716632357399 1.4453518566459866 -2.3897319904737313 -0.4859331509430904 -0.19230576579435696
323 -0.5269827496819917 -1.5361195617401158 1.4462855511151567 -2.393555947545287 -0.4876700991123373 -0.1881092936543231
324 -0.5266504025680279 -1.536467313046616 1.4472267146890891 -2.397400089581921 -0.48941453995965195 -0.18392085495139812
325 -0.5263166678511247 -1.53681492417593 1.4481752824034955 -2.401264304417085 -0.4911667767525468 -0.1797404824551222
326 -0.5259814819105492 -1.5371624020788035 1.449131192375551 -2.4051484795695264 -0.4929271046981539 -0.17556820897937297
327 -0.5256447807003739 -1.537509753628401 1.4500943858180253 -2.4090525024797884 -0.49469581104030896 -0.1714040676775996
328 -0.5253064998364123 -1.5378569856131374 1.4510648070490364 -2.4129762607358223 -0.4964731751626201 -0.1672480923268996
329 -0.5249665746789829 -1.5382041047299644 1.452042403497599 -2.4169196422879335 -0.49825946869712245 -0.16310031760111157
330 -0.5246249404116325 -1.5385511175780973 1.4530271257051384 -2.4208825356532593 -0.5000549556381275 -0.15896077933310315
331 -0.5242815321159396 -1.5388980306531688 1.454018927323135 -2.424864830109995 -0.5018598924608741 -0.15482951476643958
332 -0.523936284842521 -1.5392448503417937 1.4550177651070688 -2.428866415881579 -0.5036745282445994 -0.1507065627966237
333 -0.5235891336783606 -1.5395915829165323 1.4560235989068315 -2.432887184311055 -0.5054991047996483 -0.14659196420210457
334 -0.5232400138105792 -1.5399382345312391 1.4570363916537674 -2.4369270280258157 -0.5073338567982497 -0.14248576186525688
335 -0.5228888605867579 -1.5402848112167808 1.458056109344511 -2.440985841092958 -0.5091790119085904 -0.13838800098353904
336 -0.5225356095719313 -1.540631318877112 1.4590827210217792 -2.445063519165457 -0.511034790931826 -0.1342987292710426
337 -0.5221801966023591 -1.540977763285695 1.460116198752279 -2.449159959619384 -0.5129014079416759 -0.1302179971506513
338 -0.5218225578361875 -1.5413241500822503 1.4611565176018901 -2.45327506168238 -0.514779070426254 -0.12614585793703106
339 -0.5214626298011062 -1.5416704847698255 1.4622036556082698 -2.4574087265536178 -0.5166679794317978 -0.12208236801067857
340 -0.5211003494391085 -1.542016772712167 1.4632575937510433 -2.461560857515453 -0.5185683297079625 -0.11802758698325812
341 -0.520735654148456 -1.5423630191313866 1.464318315919717 -2.4657313600370037 -0.52048030985436 -0.1139815778544611
342 -0.5203684818229523 -1.5427092291059066 1.4653858088794696 -2.4699201418698697 -0.5224041024680255 -0.10994440716062537
343 -0.5199987708886238 -1.5430554075686724 1.4664600622349577 -2.47412711313621 -0.5243398842915094 -0.1059161451153545
344 -0.5196264603379089 -1.5434015593056218 1.4675410683922794 -2.478352186409402 -0.5262878263612959 -0.10189686574237965
345 -0.51925148976145 -1.5437476889543968 1.4686288225192283 -2.482595276787501 -0.5282480941562628 -0.09788664700090842
346 -0.5188737993775849 -1.544093801003289 1.4697233225039739 -2.486856301959716 -0.5302208477459043 -0.09388557090370739
347 -0.5184933300596324 -1.5444398997904047 1.4708245689122892 -2.4911351822661185 -0.5322062419380491 -0.08989372362816551
348 -0.5181100233610616 -1.5447859895030407 1.4719325649434583 -2.495431840750806 -0.5342044264258169 -0.08591119562058724
349 -0.5177238215386384 -1.545132074177258 1.4730473163849764 -2.4997462032087205 -0.536215545933564 -0.08193808169396408
350 -0.5173346675736358 -1.5454781576976446 1.474168831566162 -2.5040781982263542 -0.5382397403615821 -0.07797448111947378
351 -0.5169425051911973 -1.5458242437972558 1.4752971213107917 -2.5084277572165297 -0.5402771449293201 -0.07402049771195615
352 -0.5165472788779379 -1.546170336057722 1.4764321988888616 -2.5127948144474823 -0.5423278903169143 -0.07007623990961336
353 -0.5161489338978678 -1.5465164379095135 1.4775740799675818 -2.5171793070664363 -0.5443921028048172 -0.0661418208481821
354 -0.5157474163067215 -1.5468625526323565 1.4787227825616989 -2.5215811751178885 -0.5464699044113297 -0.0622173584298234
355 -0.5153426729647735 -1.5472086833557834 1.4798783269832387 -2.5260003615567865 -0.5485614130278486 -0.058302975386974085
356 -0.5149346515482199 -1.5475548330598168 1.481040735790762 -2.5304368122568106 -0.5506667425516532 -0.05439879934140201
357 -0.514523300559205 -1.5479010045757726 1.4822100337382111 -2.534890476013946 -0.5527860030160646 -0.05050496285870467
358 -0.5141085693345688 -1.548247200587176 1.4833862477234312 -2.5393613045455337 -0.5549193007178198 -0.046621603498488325
359 -0.5136904080533904 -1.5485934236307806 1.4845694067364386 -2.543849252484995 -0.5570667383415147 -0.042748863860461596
360 -0.5132687677434016 -1.5489396760976861 1.4857595418075065 -2.5483542773724004 -0.5592284150809775 -0.0388868916266745
361 -0.5128436002863421 -1.549285960234543 1.4869566859551322 -2.55287633964107 -0.5614044267574476 -0.03503583960013032
362 -0.5124148584223268 -1.5496322781448384 1.4881608741339487 -2.557415402600375 -0.5635948659344363 -0.031195865739994038
363 -0.5119824957532941 -1.5499786317902569 1.4893721431826346 -2.5619714324149143 -0.5657998220291661 -0.02736713319361709
364 -0.5115464667456031 -1.5503250229921086 1.4905905317718744 -2.566544398080226 -0.5680193814204832 -0.023549810325594243
365 -0.5111067267318444 -1.5506714534328176 1.4918160803524179 -2.5711342713951986 -0.570253627553155 -0.01974407074406405
366 -0.5106632319119296 -1.5510179246574662 1.493048831103279 -2.575741026931338 -0.572502641038467 -0.01595009332445976
367 -0.5102159393535217 -1.5513644380753864 1.4942888278801147 -2.580364641999038 -0.5747664997510458 -0.012168062230913303
368 -0.5097648069918682 -1.5517109949617962 1.4955361161638172 -2.5850050966110074 -0.5770452789218395 -0.008398166935509994
369 -0.5093097936290947 -1.5520575964594732 1.4967907430093497 -2.5896623734429842 -0.5793390512271986 -0.004640602235586949
370 -0.5088508589330188 -1.552404243580461 1.498052756994854 -2.5943364577918837 -0.5816478868740014 -0.0008955682692633059
371 -0.5083879634355403 -1.5527509372078032 1.4993222081710498 -2.599027337531506 -0.5839718536807832 0.0028367294706145344
372 -0.5079210685306602 -1.5530976780973023 1.5005991480109435 -2.603735003065928 -0.5863110171548279 0.006556080123934556
373 -0.5074501364721861 -1.5534444668792966 1.5018836293598665 -2.608459447280704 -0.5886654405651919 0.010262267452014343
374 -0.5069751303711708 -1.5537913040604547 1.50317570638585 -2.613200665491984 -0.5910351850116335 0.013955069827361801
375 -0.5064960141931383 -1.55413819002558 1.504475434530344 -2.617958655393664 -0.5934203094894294 0.01763426022433816
376 -0.5060127527551425 -1.554485125039424 1.505782870459289 -2.6227334170026686 -0.5958208709500615 0.021299606210565064
377 -0.5055253117227081 -1.5548321092485078 1.507098072014537 -2.62752495260247 -0.5982369243577681 0.02495086993892253
378 -0.5050336576066975 -1.5551791426829422 1.5084210981656256 -2.632333266684926 -0.6006685227419521 0.028587808139989422
379 -0.5045377577601485 -1.5555262252582513 1.5097520089618948 -2.637158365890537 -0.6031157172454477 0.03221017211478288
380 -0.5040375803751246 -1.555873356777193 1.511090865484944 -2.64200025894719 -0.605578557168649 0.03581770772765796
381 -0.5035330944796194 -1.5562205369315745 1.5124377298014176 -2.646858956607476 -0.6080570900095104 0.03941015539923331
382 -0.5030242699345543 -1.556567765304064 1.5137926649161046 -2.651734471584649 -0.610551361499428 0.04298725009921337
383 -0.5025110774309076 -1.5569150413699928 1.51515573472534 -2.656626818487287 -0.6130614156350176 0.046548721338981885
384 -0.501993488487011 -1.5572623644991512 1.5165270039706888 -2.661536013752719 -0.6155872947058073 0.0500942931638458
385 -0.5014714754460489 -1.5576097339575716 1.5179065381928953 -2.6664620755792665 -0.6181290393178649 0.05362368414481301
386 -0.500945011473795 -1.557957148909304 1.519294403686071 -2.6714050238573543 -0.6206866884133804 0.05713660736979117
387 -0.5004140705566169 -1.5583046084181797 1.520690667452105 -2.6763648800995274 -0.6232602792862304 0.06063277043409881
388 -0.4998786274997812 -1.5586521114495622 1.5220953971552644 -2.681341667369411 -0.6258498475935487 0.06411187543018357
389 -0.49933865792608734 -1.558999656872088 1.5235086610769608 -2.686335410209648 -0.6284554273633289 0.0675736189364461
390 -0.49879413827485963 -1.559347243459397 1.5249305280706538 -2.691346134568837 -0.6310770509980898 0.07101769200507133
391 -0.498245045801324 -1.559694869891848 1.5263610675168617 -2.696373867727491 -0.6337147492746287 0.07444378014877205
392 -0.49769135857639485 -1.5600425347582285 1.527800349278245 -2.701418638223032 -0.6363685513398951 0.07785156332635286
393 -0.49713305548689735 -1.5603902365574511 1.5292484436547311 -2.7064804757738297 -0.6390384847030101 0.08124071592700503
394 -0.49657011623624814 -1.560737973700243 1.5307054213386477 -2.7115594112022867 -0.641724575223463 0.08461090675324594
395 -0.4960025213456165 -1.561085744510826 1.532171353369824 -2.71665547635697 -0.6444268470955131 0.08796179900241856
396 -0.49543025215558734 -1.5614335472285923 1.5336463110906287 -2.7217687040337806 -0.6471453228288212 0.09129305024666917
397 -0.49485329082834606 -1.561781380009773 1.5351303661009024 -2.7268991278961434 -0.6498800232253424 0.09460431241132317
398 -0.4942716203504044 -1.5621292409291054 1.5366235902127479 -2.732046782394205 -0.6526309673525013 0.09789523175158081
399 -0.4936852245358845 -1.5624771279814975 1.5381260554051392 -2.737211702683007 -0.6553981725126745 0.1011654488274563
400 -0.4930940880303793 -1.5628250390836942 1.5396378337783059 -2.7423939245396127 -0.6581816542090033 0.10441459847688507
401 -0.49249819631540465 -1.5631729720759466 1.5411589975078526 -2.747593484279141 -0.6609814261075542 0.10764230978692504
402 -0.49189753571345834 -1.5635209247236854 1.5426896187985755 -2.7528104186696747 -0.6637974999958484 0.11084820606297906
403 -0.491292093393701 -1.5638688947192034 1.5442297698379248 -2.7580447648459883 -0.6666298857377708 0.11403190479596616
404 -0.4906818573782716 -1.5642168796833493 1.5457795227490774 -2.763296560222043 -0.6694785912248749 0.11719301762737001
405 -0.490066816549251 -1.5645648771672334 1.5473389495435703 -2.768565842402191 -0.6723436223240897 0.12033115031209334
406 -0.4894469606562857 -1.564912884653951 1.5489081220734526 -2.773852649091019 -0.6752249828218382 0.12344590267904702
407 -0.4888222803248825 -1.5652608995603272 1.5504871119829085 -2.779157018001762 -0.6781226743645661 0.1265368685894031
408 -0.48819276706538595 -1.5656089192386822 1.5520759906593071 -2.7844789867632027 -0.6810366963956827 0.12960363589244003
409 -0.48755841328264754 -1.5659569409786263 1.553674829183631 -2.7898185928249766 -0.6839670460889086 0.13264578637890864
410 -0.4869192122863977 -1.5663049620088838 1.5552836982802352 -2.795175873361185 -0.6869137182780204 0.1356628957318466
411 -0.4862751583023287 -1.5666529794991524 1.5569026682658897 -2.8005508651722217 -0.6898767053829796 0.13865453347476797
412 -0.48562624648389807 -1.5670009905620008 1.558531808998057 -2.8059436045846993 -0.6928559973324276 0.14162026291715427
413 -0.48497247292486 -1.5673489922548096 1.5601711898223516 -2.8113541273493654 -0.6958515814825246 0.1445596410971714
414 -0.48431383467253386 -1.5676969815817587 1.561820879519135 -2.8167824685368896 -0.6988634425321044 0.14747221872153643
415 -0.48365032974181665 -1.5680449554958664 1.563480946249194 -2.8222286624313795 -0.7018915624341131 0.1503575401024559
416 -0.48298195712994746 -1.5683929109010855 1.5651514574984473 -2.8276927424215024 -0.704935920303291 0.15321514309155623
417 -0.48230871683203075 -1.5687408446544588 1.56683248002163 -2.8331747408890533 -0.7079964923200571 0.1560445590107251
418 -0.4816306098573261 -1.569088753568343 1.5685240797849018 -2.838674689094816 -0.7110732516305439 0.15884531257977982
419 -0.4809476382463112 -1.5694366344127009 1.5702263219073216 -2.844192617061558 -0.7141661682427273 0.16161692184087817
420 -0.4802598050885249 -1.5697844839174715 1.5719392706011335 -2.8497285534539722 -0.7172752089185884 0.16435889807958318
421 -0.4795671145411976 -1.5701322987750215 1.5736629891108067 -2.855282525455391 -0.72040033706224 0.1670707457424925
422 -0.47886957184867596 -1.5704800756426842 1.575397539650768 -2.8608545586410647 -0.7235415126039396 0.1697519623513396
423 -0.47816718336264846 -1.5708278111453904 1.5771429833417685 -2.8664446768478045 -0.7266986918799067 0.17240203841347163
424 -0.4774599565631803 -1.5711755018783982 1.5788993801458193 -2.8720529020397643 -0.729871827507854 0.1750204573286064
425 -0.47674790008056345 -1.5715231444101283 1.5806667887996355 -2.877679254170132 -0.7330608682581339 0.17760669529176767
426 -0.476031023717991 -1.5718707352851093 1.5824452667465183 -2.8833237510384797 -0.7362657589203943 0.18016022119229527
427 -0.4753093384750627 -1.5722182710270398 1.5842348700666096 -2.8889864081435115 -0.7394864401656274 0.18268049650882393
428 -0.47458285657213056 -1.5725657481419755 1.586035653405446 -2.8946672385309404 -0.7427228484034916 0.18516697520012085
429 -0.473851591475493 -1.5729131631216444 1.5876919040273612 -2.90161237962324 -0.746599410669669 0.18511606250142554
430 -0.4731081396757041 -1.5732573369904008 1.5894794138886899 -2.908478134289872 -0.7504991139346535 0.18507602594110156
431 -0.4723523616237404 -1.5735993579077938 1.5913645382817945 -2.915271130885951 -0.7544156649056688 0.1850462765106729
432 -0.4715842960127536 -1.5739400401704555 1.5933218547426604 -2.9219967700225875 -0.7583442135357482 0.18502610062588004
433 -0.47080411221182095 -1.5742799895150084 1.5953321807113952 -2.9286594931108443 -0.7622809882865261 0.1850146985539978
434 -0.47001207422584823 -1.5746196533166728 1.5973810646451185 -2.935262994384736 -0.7662230272121878 0.1850112127510355
435 -0.4692085134643414 -1.5749593590202355 1.5994576388847994 -2.9418103864263756 -0.770167978906963 0.18501474899722192
436 -0.46839380821818516 -1.575299343469967 1.6015537484028957 -2.9483043283839683 -0.7741139546412561 0.18502439227121592
437 -0.46756836823108516 -1.575639775238978 1.6036632896266658 -2.954747124751724 -0.7780594181631899 0.1850392187090502
438 -0.46673262313277925 -1.5759807715956142 1.605781709036877 -2.961140801186814 -0.7820031033151681 0.18505830460886757
439 -0.4658870137952333 -1.5763224113740637 1.6079056231682805 -2.9674871625595234 -0.7859439522538428 0.18508073318463167
440 -0.46503198589887573 -1.5766647447243252 1.6100325307815564 -2.9737878373373023 -0.7898810689712021 0.18510559959344217
441 -0.4641679851684797 -1.577007800488883 1.6121605949679159 -2.9800443115018243 -0.7938136842046102 0.1851320146336979
442 -0.46329545386967264 -1.5773515917770697 1.6142884782829978 -2.986257954474387 -0.7977411288410557 0.18515910741813335
443 -0.4624148282567955 -1.5776961201723336 1.6164152180720919 -2.992430038953712 -0.8016628136687424 0.18518602725614275
444 -0.46152653673841054 -1.5780413789035377 1.618540132242657 -2.998561756124339 -0.8055782138808246 0.18521194492701767
445 -0.4606309985839383 -1.5783873552318708 1.6206627480924618 -3.004654227348731 -0.809486857144171 0.18523605348524452
446 -0.45972862303811657 -1.578734032244296 1.6227827485888142 -3.010708513190664 -0.8133883143485533 0.18525756870772858
447 -0.4588198087426072 -1.5790813901983052 1.6248999318512165 -3.0167256204140513 -0.8172821923763157 0.1852757292685139
448 -0.457904943388702 -1.5794294075276627 1.6270141806194203 -3.022706507445975 -0.8211681283996292 0.18528979670763612
449 -0.45698440354365866 -1.5797780615921901 1.6291254392698094 -3.028652088674355 -0.8250457853367863 0.18529905524596482
450 -0.4560585546072113 -1.5801273292344453 1.6312336965351362 -3.0345632378607146 -0.8289148481916355 0.1853028114863432
451 -0.45512775086537 -1.5804771871908367 1.633338972531366 -3.0404407908801683 -0.8327750210693157 0.1853003940323064
452 -0.4541923356165986 -1.5808276123931195 1.6354413090353594 -3.046285547948977 -0.8366260247129792 0.18529115304860644
453 -0.45325264135147675 -1.5811785821874351 1.637540762214596 -3.0520982754607733 -0.8404675944446433 0.1852744597822622
454 -0.45231864681315437 -1.5815457002578508 1.639663580305411 -3.0578791147130433 -0.8442980909275531 0.1852497060585525
455 -0.4513806792385666 -1.5819134966021158 1.64178097264279 -3.0636302160878977 -0.848118519893322 0.18521632246942296
456 -0.45043906513460685 -1.5822819240080739 1.6438937274846885 -3.0693521375550232 -0.8519287416601057 0.1851737167401061
457 -0.44949411680046253 -1.5826509423341846 1.6460024539611802 -3.075045435714866 -0.8557286045371324 0.18512132113384178
458 -0.4485461335925894 -1.583020516991306 1.648107624872214 -3.0807106598494456 -0.8595179489660503 0.1850585906121337
459 -0.4475954029592644 -1.583390617793449 1.6502096089409275 -3.086348347577674 -0.8632966104597478 0.18498500131492626
460 -0.4466422013004763 -1.583761218086433 1.65230869512165 -3.0919590217130963 -0.8670644216568998 0.18490004929108128
461 -0.4456867946948501 -1.5841322940858913 1.6544051109221356 -3.0975431880213993 -0.8708212137283002 0.1848032494254575
462 -0.44472943952478994 -1.5845038243730032 1.656499036217048 -3.1031013336498394 -0.8745668173098364 0.1846941345211952
463 -0.4437703830231618 -1.5848757895091068 1.6585906136657385 -3.1086339260570917 -0.8783010630914219 0.1845722545052927
464 -0.44280986375896725 -1.5852481717399447 1.6606799565728758 -3.1141414123144417 -0.8820237821573856 0.18443717573286594
465 -0.44184811207506935 -1.5856209547675326 1.6627671548235412 -3.1196242186812135 -0.8857348061486946 0.18428848037110024
466 -0.44088535048775657 -1.5859941235730894 1.6648522793684009 -3.1250827503814027 -0.8894339672987721 0.1841257658482204
467 -0.439921794055487 -1.5863676642785631 1.6669353856170284 -3.130517391526631 -0.8931210983808836 0.18394864435612165
468 -0.43895765072232956 -1.5867415640373759 1.6690165160088766 -3.135928505144209 -0.8967960325948513 0.1837567423978469
469 -0.4379931216402612 -1.587115810947329 1.6710957019647126 -3.141316433279375 -0.9004586034133251 0.18354970037304857
470 -0.4370284014734648 -1.587490393980358 1.673172965371094 -3.146681497148541 -0.9041086444022686 0.18332717219607023
471 -0.43606367868701956 -1.5878653029251408 1.6752483197126693 -3.152023997326205 -0.9077459890262223 0.18308882494243084
472 -0.4350991358218136 -1.5882405283395475 1.6773217709386277 -3.157344213952581 -0.9113704704458916 0.18283433852037675
473 -0.4341349497570901 -1.5886160615106641 1.6793933181282228 -3.162642406952308 -0.9149819213133988 0.18256340536484197
474 -0.43317129196172993 -1.5889918944206807 1.6814629540041919 -3.1679188162570657 -0.9185801735689222 0.1822757301516783
475 -0.43220832873514003 -1.5893680197173534 1.6835306653307838 -3.1731736620268207 -0.9190232406168933 0.18180562905158998
476 -0.43129759858516753 -1.5897415873460652 1.6856100674686065 -3.1784203351601485 -0.9195282515589258 0.18130624373901655
477 -0.430435616334922 -1.590112905899009 1.6876966055529112 -3.1836575795003665 -0.9233433582631165 0.1809315738568586
478 -0.4295661248207804 -1.5904851735052787 1.6897738288200503 -3.188871102512476 -0.9238959169502571 0.18039840633001758
479 -0.42874265053803506 -1.5908554109927993 1.6918558179966015 -3.1940738306499203 -0.9245029318341894 0.17983790553904544
480 -0.4279621491913142 -1.5912238543970132 1.6943176293451077 -3.196240897036169 -0.925227964842576 0.17996988302034875
481 -0.42721224030609095 -1.591601659174356 1.6964598444713017 -3.1984462797749345 -0.9259748179913702 0.180101198758382
482 -0.4264918584436015 -1.5919861965611422 1.698361473136186 -3.2006804629591237 -0.9267440660734799 0.18022893406883345
483 -0.42579979395291634 -1.5923755296873994 1.7000818327583183 -3.202936301547791 -0.927535729363736 0.18035091634982436
484 -0.42513475930040695 -1.5927682314786102 1.701665484983064 -3.2052084217482664 -0.9317837669626282 0.18059302509614272
485 -0.42443976426855806 -1.5931663498972566 1.7031313313099632 -3.2074979362069724 -0.9325500976798207 0.1807058976940714
486 -0.42377286188876107 -1.593565685809097 1.704524437136369 -3.2097959820195308 -0.9333408797553742 0.18080885057988325
487 -0.4231325059062065 -1.5939657305246675 1.7058623848558063 -3.212100412060858 -0.9341549027504251 0.18090129743851324
488 -0.4225172061348934 -1.5943661174665562 1.7071584135776952 -3.2144095974801155 -0.9349909168897899 0.1809828129925956
489 -0.4219255357803464 -1.5947665855272957 1.7084224996285724 -3.2167222985812107 -0.93584766391727 0.18105309188994767
490 -0.4213561354543055 -1.595166951792221 1.7096621673900756 -3.219037567991265 -0.9367238988237958 0.18111191790755604
491 -0.4208077148474753 -1.595567091208214 1.7108830979653435 -3.221354677992683 -0.9376184048288737 0.18115914088960752
492 -0.42027905275889943 -1.5959669214182728 1.712089586198801 -3.2236730659583963 -0.9385300033986319 0.18119465948610558
493 -0.4197689959883987 -1.5963663914459962 1.7132848839055852 -3.225992293361289 -0.939457560632015 0.18121840824310662
494 -0.419276457459556 -1.5967654732537022 1.7144714576928466 -3.2283120149685525 -0.9403999910065886 0.18123034795791323
495 -0.41880041383968225 -1.5971641554478393 1.7156511826622245 -3.230631955681954 -0.9413562592202621 0.1812304584838428
496 -0.41833990284942646 -1.5975624385901717 1.7168254879680738 -3.2329518931203864 -0.9423253806743468 0.18121873337251668
497 -0.41789402040068846 -1.5979603317103364 1.7179954662212507 -3.2352716445165752 -0.9433064210008358 0.18119517589412298
498 -0.41746191766189794 -1.598357849717411 1.7191619557392632 -3.237591056855986 -0.9442984949305889 0.18115979609056126
499 -0.41704279812067774 -1.5987550114842075 1.7203256024007347 -3.239909999453056 -0.9453007647200667 0.18111260860230935
500 -0.41663591469261346 -1.5991518384348393 1.7214869061787377 -3.2422283583601748 -0.9463124382955556 0.18105363107439065
501 -0.416240566909264 -1.5995483535085924 1.7226462561638216 -3.244546032155207 -0.9473327672302659 0.18098288299530157
502 -0.41585609820716657 -1.5999445804049555 1.7238039569387311 -3.246862928766226 -0.9483610446374433 0.18090038485918192
503 -0.41548189333132 -1.6003405430384818 1.7249602484543456 -3.249178963076906 -0.9493966030387876 0.18080615756888013
504 -0.41511737586064973 -1.600736265150017 1.7261153210213407 -3.251494055119706 -0.9504388122499046 0.18070022201812996
505 -0.4147620058586773 -1.60113177003422 1.7272693266302734 -3.25380812871181 -0.9514870773115821 0.18058259880650696
506 -0.4144152776495795 -1.6015270803533468 1.728422387511022 -3.2561211104247585 -0.9525408364862139 0.18045330805244433
507 -0.4140767177177076 -1.6019222180148018 1.7295746026158803 -3.258432928805708 -0.9535995593317765 0.18031236927830963
508 -0.4137458827271956 -1.602317204095615 1.7307260525403727 -3.2607435137885794 -0.9546627448607555 0.1801598013480956
509 -0.41342235765733976 -1.6027120588012427 1.7318768032680179 -3.2630527962486084 -0.9557299197877984 0.17999562244319964
510 -0.4130958745093839 -1.6031274544811007 1.733043052262199 -3.265363360135156 -0.9567938254789904 0.1798198500654596
511 -0.4127768637341547 -1.6035426538529116 1.7342098089408489 -3.267672292193161 -0.9578616839195518 0.17963241149893014
512 -0.4124649252763556 -1.603957686144137 1.7353768044549693 -3.2699795632343664 -0.9589330323859444 0.17943333815959614
513 -0.4121596854908019 -1.604372576999753 1.7365438406418483 -3.2722851347625963 -0.9600074352558482 0.17922265760797654
514 -0.41186079531818826 -1.6047873491707045 1.7377107717114437 -3.2745889611751955 -0.9610844819412576 0.17900039437644508
515 -0.41156792861812197 -1.6052020230426514 1.7388774905380453 -3.2768909914158018 -0.96216378504981 0.1787665706090241
516 -0.41128078063889206 -1.6056166170441633 1.7400439184068004 -3.279191170215518 -0.9632449787345145 0.17852120655913079
517 -0.41099906660739527 -1.6060311479637865 1.7412099973516308 -3.2814894390253677 -0.9643277172011371 0.1782643209795265
518 -0.4107225204256752 -1.6064456311981015 1.7423756844364704 -3.2837857367172485 -0.9654116733493163 0.17799593143027562
519 -0.4104508934628755 -1.6068600809474038 1.7435409474934422 -3.2860800001113284 -0.9664965375286134 0.17771605452417014
520 -0.4101839534332306 -1.6072745103715256 1.744705761952973 -3.288372164373352 -0.9675820163945733 0.1774247061242988
521 -0.40992148335214595 -1.6076889317152145 1.7458701084919457 -3.2906621633144737 -0.9686678318528104 0.177121901504847
522 -0.4096632805635478 -1.6081033564101714 1.7470339712943703 -3.2929499296180653 -0.9697537200813635 0.1768076554835081
523 -0.4094091558325832 -1.6085177951590985 1.7481973367703898 -3.2952353950118454 -0.9708394306232809 0.1764819825318528
524 -0.40915893249847773 -1.608932258005802 1.7493601926179507 -3.2975184903990744 -0.9719247255427131 0.17614489686846893
525 -0.4089124456829493 -1.6093467543944082 1.7505225271403926 -3.299799145959118 -0.9730093786388201 0.17579641253853037
526 -0.4086695415500674 -1.6097612932200114 1.7516843287549053 -3.302077291225093 -0.9740931747126046 0.17543654348258267
527 -0.4084300766138545 -1.6101758828725157 1.7528455856430913 -3.3043528551443844 -0.9751759088824218 0.1750653035966764
528 -0.4081939170902739 -1.6105905312750146 1.7540062855070921 -3.306625766126345 -0.976257385944429 0.17468270678548373
529 -0.4079609382905432 -1.6110052459177377 1.7551664154039102 -3.3088959520804284 -0.9773374197746567 0.17428876700965834
530 -0.4077310240529703 -1.6114200338883529 1.7563259616374345 -3.311163340447163 -0.9784158327697239 0.1738834983284156
531 -0.40750406621073426 -1.6118349018992373 1.7574849096928533 -3.3134278582237764 -0.979492455323508 0.17346691493809452
532 -0.4072799640932311 -1.6122498563121945 1.758643244201994 -3.315689431985822 -0.9805671253373232 0.1730390312072997
533 -0.4070586240587836 -1.6126649031609877 1.7598009489310473 -3.3179479879058076 -0.9816396877613668 0.17259986170909672
534 -0.4068399590566735 -1.6130800481719876 1.7609580067843085 -3.3202034517695775 -0.9827099941653774 0.1721494212506399
535 -0.40662388821659806 -1.61349529678317 1.7621143998191966 -3.3224557489910023 -0.9837779023366022 0.17168772490053744
536 -0.40641033646378716 -1.6139106541616544 1.7632701092690406 -3.3247048046253904 -0.9848432759033179 0.17121478801420395
537 -0.40619923415813436 -1.6143261252199401 1.7644251155710375 -3.3269505433819275 -0.98590598398227 0.17073062625740584
538 -0.40599051675580977 -1.6147417146309688 1.765579398397468 -3.3291928896353666 -0.9869659008485145 0.17023525562817193
539 -0.40578412449192097 -1.6151574268421238 1.766732936688775 -3.331431767437139 -0.9880229056262444 0.1697286924772145
540 -0.40558000208288636 -1.615573266088256 1.7678857086874897 -3.3336671005260077 -0.9890768819992831 0.16921095352698554
541 -0.4053780984472697 -1.6159892364038189 1.7690376919722728 -3.33589881233835 -0.9901277179400119 0.16868205588947555
542 -0.40517836644390764 -1.6164053416341795 1.7701888634915572 -3.338126826018139 -0.9911753054555766 0.16814201708284965
543 -0.4049807626262376 -1.6168215854461687 1.7713391995964307 -3.34035106442667 -0.9922195403502986 0.16759085504700363
544 -0.4047852470118028 -1.6172379713379235 1.772488676072518 -3.3425714501520627 -0.9932603220032776 0.1670285881581146
545 -0.4045917828659777 -1.6176545026480713 1.7736372681707058 -3.3447879055185714 -0.9942975531602453 0.1664552352422526
546 -0.4044003364990181 -1.6180711825643004 1.7747849506366187 -3.3470003525957144 -0.9953311397387791 0.16587081558811356
547 -0.40421087707559705 -1.618488014131356 1.7759316977387978 -3.3492087132072372 -0.9963609906460533 0.16527534895892845
548 -0.40402337643604197 -1.6189050002585 1.77707748329557 -3.351412908939922 -0.9973870176083444 0.16466885560359878
549 -0.40383780892853643 -1.6193221437264669 1.7782222807006183 -3.353612861152244 -0.9984091350115646 0.1640513562671045
550 -0.4036541512515993 -1.6197394471939515 1.7793660629472794 -3.355808490982889 -0.9994272597521414 0.16342287220022667
551 -0.4034723823061956 -1.6201569132036495 1.7805088026516078 -3.3579997193591193 -1.0004413110975992 0.1627834251686247
552 -0.40329248305687465 -1.6205745441878876 1.7816504720742512 -3.360186467005009 -1.0014512105562452 0.16213303746130386
553 -0.4031144364013703 -1.6209923424738597 1.7827910431411855 -3.36236865444954 -1.0024568817553954 0.16147173189850741
554 -0.4029382270481322 -1.6214103102885002 1.783930487463367 -3.3645462020345627 -1.0034582503276108 0.16079953183906479
555 -0.40276384140129207 -1.6218284497630098 1.7850687763553517 -3.36671902992262 -1.0044552438044514 0.16011646118722506
556 -0.402591267452599 -1.6222467629370578 1.786205880852934 -3.3688870581046455 -1.0054477915172777 0.15942254439900339
557 -0.40242049467988816 -1.6226652517626805 1.7873417717298603 -3.3710502064075203 -1.0064358245046694 0.15871780648806563
558 -0.4022515139516743 -1.6230839181078904 1.7884764195136673 -3.37320839450151 -1.0074192754260478 0.15800227303117576
559 -0.40208431743748657 -1.6235027637600175 1.7896097945006928 -3.3753615419075658 -1.008398078481121 0.15727597017322778
560 -0.40191889852358686 -1.623921790428792 1.7907418667703072 -3.3775095680044984 -1.0093721693347888 0.1565389246318839
561 -0.4017552517337347 -1.6243409997491904 1.7918726061984114 -3.379652392036028 -1.0103414850471708 0.15579116370183815
562 -0.4015933726546838 -1.6247603932840524 1.7930019824702406 -3.381789933117705 -1.0113059640084425 0.15503271525872436
563 -0.4014332578661153 -1.625179972526485 1.7941299650925189 -3.3839221102437063 -1.0122655458781784 0.15426360776268552
564 -0.40127500210988815 -1.6256033396700642 1.7952466096065227 -3.3860572296032196 -1.013217154434441 0.1534838702616213
565 -0.40111853991740887 -1.626023405816325 1.7963747654591373 -3.388178527833519 -1.0141666768150814 0.15269333462544546
566 -0.4009637427971251 -1.626440336721168 1.797509982804666 -3.390286462805475 -1.015113899757795 0.15189225463996864
567 -0.400810499260553 -1.626854261018005 1.7986489047780345 -3.392381360100576 -1.01605862696065 0.15108083842440584
568 -0.4006587117641821 -1.6272652793189726 1.7997889984854911 -3.394463445697273 -1.017000676100219 0.1502592597430137
569 -0.4005082943338634 -1.6276734710806509 1.8009283521376693 -3.39653287062422 -1.0179398765976926 0.14942766653894704
570 -0.4003583711963718 -1.6281013249447065 1.8020572752275967 -3.3985952640547668 -1.0188741413563607 0.14858618737217386
571 -0.40021004410514516 -1.6285259340138838 1.8031906592956697 -3.400643947118722 -1.019805624443548 0.1477346106187611
572 -0.4000632116317937 -1.6289474133331716 1.8043256734534767 -3.4026791880900515 -1.0207341475657725 0.146873125187814
573 -0.39991778467649514 -1.6293658538029157 1.8054601848158327 -3.4047011709835293 -1.021659543950414 0.14600189095317487
574 -0.3997736844308791 -1.6297813281056117 1.8065925860377752 -3.406710016515521 -1.0225816567212394 0.14512104599925083
575 -0.3996308407810313 -1.6301938951730346 1.807721665417148 -3.408705797897323 -1.023500337659402 0.14423071208052496
576 -0.3994891910457247 -1.6306036035534277 1.808846509068492 -3.410688552735641 -1.024415446244866 0.14333099873488028
577 -0.39934867897049287 -1.6310104939499448 1.809966427258815 -3.412658292000509 -1.0253268489028569 0.1424220063824699
578 -0.3992092539175015 -1.631414601134734 1.8110808989446205 -3.4146150067841585 -1.0262344184010663 0.14150382866014624
579 -0.39907087020580817 -1.631815955392675 1.8121895300186839 -3.416558673395896 -1.0271380333584712 0.14057655417985826
580 -0.3989334865676514 -1.6322145836107953 1.8132920218823982 -3.418489257203598 -1.0280375778374748 0.13964026785299125
581 -0.3987970656947557 -1.6326105101007606 1.8143881477941053 -3.420406715531121 -1.028932940998877 0.1386950518876258
582 -0.398661573854931 -1.6330037572202674 1.8154777350727644 -3.422310999844612 -1.0298240168047945 0.13774098653931646
583 -0.39852698056398816 -1.633394345842909 1.8165606517102322 -3.42420205740319 -1.030710703758696 0.136778150676115
584 -0.3983932583015714 -1.6337822957138481 1.8176367963025204 -3.4260798325061517 -1.0315929046746302 0.135806622203586
585 -0.3982603822622039 -1.6341676257194064 1.8187060904794052 -3.427944267436233 -1.032470526469827 0.1348264783842783
586 -0.3981283301348794 -1.6345503540917397 1.8197684732144317 -3.4297953031738646 -1.0333434799763703 0.1338377960776147
587 -0.3979970819060696 -1.634930498564538 1.8208238965500025 -3.4316328799388662 -1.0342116797687322 0.13284065191975744
588 -0.3978666196821767 -1.6353080764917571 1.8218723223872202 -3.433456937602061 -1.0350750440047543 0.13183512245818318
589 -0.39773692752834267 -1.6356831049384162 1.8229137200767411 -3.4352674159988155 -1.035933494278228 0.13082128425206704
590 -0.3976079913211902 -1.6360556007502753 1.8239480646121102 -3.4370642551685893 -1.0367869554816482 0.1297992139468387
591 -0.3974797986135795 -1.6364255806075199 1.8249753352761404 -3.438847395538629 -1.0376353556780127 0.1287689883292121
592 -0.3973523385098499 -1.6367930610663166 1.8259955146278808 -3.4406167780654666 -1.038478625980757 0.12773068436743823
593 -0.3972256015503104 -1.6371580585911545 1.8270085877455395 -3.4423723443445 -1.0393167004410904 0.12668437924036086
594 -0.3970995796039715 -1.637520589580167 1.8280145416616862 -3.4441140366953964 -1.0401495159421004 0.1256301503579755
595 -0.396974265768684 -1.6378806703850934 1.8290133649428322 -3.4458417982291505 -1.040977012099103 0.12456807537552829
596 -0.39684965427798735 -1.638238317327128 1.830005047377351 -3.4475555729011877 -1.0417991311657695 0.12349823220269243
597 -0.39672574041407666 -1.6385935467096056 1.8309895797446423 -3.449255305553815 -1.0426158179456229 0.12242069900898386
598 -0.39660252042638044 -1.6389463748282358 1.8319669536451608 -3.4509409419505186 -1.0434270197085391 0.12133555422629444
599 -0.39647999145530904 -1.6392968179794287 1.832937161375994 -3.4526124288039766 -1.0442326861119167 0.12024287654920775
600 -0.3963581514607862 -1.6396448924671227 1.8339001958404724 -3.4542697137992184 -1.0450327691262118 0.11914274493360173
601 -0.39623699915522065 -1.639990614608426 1.8348560504831697 -3.4559127456129817 -1.0458272229645582 0.11803523859392138
602 -0.3961165339406103 -1.6403340007383114 1.8358047192437912 -3.4575414739300903 -1.0466160040162107 0.11692043699941317
603 -0.39599675584950106 -1.640675067213547 1.8367461965250782 -3.459155849457452 -1.0473990707835703 0.11579841986954421
604 -0.39587766548954845 -1.6410138304159991 1.8376804771710682 -3.4607558239361462 -1.048176383822563 0.11466926716877715
605 -0.3957592639914511 -1.641350306755419 1.838607556452971 -3.4623413501519504 -1.0489479056861633 0.1135330591008322
606 -0.39564155296004383 -1.6416845126717954 1.8395274300606044 -3.463912381944568 -1.0497136008708607 0.1123898761025385
607 -0.39552453442835467 -1.6420164646373396 1.8404400940978538 -3.4654688742157673 -1.0504734357658851 0.11123979883735437
608 -0.3954082108144448 -1.6423461791581522 1.8413455450810068 -3.467010782936585 -1.0512273786050137 0.11008290818861849
609 -0.39529258488086255 -1.6426736727756135 1.842243779939106 -3.468538065153713 -1.0519753994207992 0.10891928525258214
610 -0.39517765969655466 -1.642998962067532 1.8431347960156839 -3.470050678995165 -1.05271747000106 0.10774901133126154
611 -0.3950634386010889 -1.643322063649075 1.844018591071404 -3.471548583675289 -1.0534535638474904 0.10657216792514282
612 -0.39494992517105093 -1.6436429941735047 1.8448951632872643 -3.473031739499192 -1.0541836561362548 0.10538883672576582
613 -0.3948371231884875 -1.643961770332737 1.8457645112680956 -3.4745001078666142 -1.0549077236804352 0.10419909960820858
614 -0.39472503661127667 -1.6442784088577398 1.8466266340461777 -3.475953651275295 -1.0556257448942161 0.103003038623491
615 -0.3946130341669164 -1.644603122563583 1.8474877000916847 -3.4773946056855722 -1.056336427328583 0.10180073599091341
616 -0.3945019281818405 -1.6449256101607712 1.848342576728473 -3.47882040030262 -1.0570412023385836 0.10059221677679436
617 -0.3943917097672384 -1.6452458994245378 1.8491909732360945 -3.480231038460708 -1.0577400429040695 0.09937757658365752
618 -0.394282371382692 -1.645564015608145 1.8500326725243557 -3.4816265156774646 -1.0584329236766008 0.09815690808428763
619 -0.39417390661828755 -1.645879982078285 1.8508675128391627 -3.4830068218694112 -1.0591198210268438 0.0969303017757933
620 -0.3940663100200329 -1.6461938207919897 1.8516953740363868 -3.4843719430150126 -1.059800713069732 0.09569784654362526
621 -0.3939595769483945 -1.646505552654578 1.8525161672839812 -3.4857218624030257 -1.060475579672662 0.09445963008300078
622 -0.39385370346228776 -1.6468151977883045 1.8533298273367755 -3.4870565615695375 -1.0611444024508947 0.09321573921334197
623 -0.3937486862227425 -1.647122775733975 1.854136306741758 -3.4883760210012973 -1.061807164753433 0.09196626011244804
624 -0.3936445224118821 -1.647428305602234 1.854935571491838 -3.489680220663587 -1.0624638516419278 0.09071127849045116
625 -0.39354120966391765 -1.6477318061870658 1.8557275977663452 -3.4909691403963357 -1.0631144498645966 0.08945087971860002
626 -0.3934387460056571 -1.6480332960509154 1.856512369486783 -3.4922427602112784 -1.0637589478266831 0.08818514892415931
627 -0.3933371298046265 -1.6483327935884908 1.857289876484123 -3.49350106051478 -1.0643973355586305 0.08691417105989425
628 -0.3932363597233527 -1.6486303170745464 1.8580601131247703 -3.4947440222747863 -1.0650296046828576 0.08563803095449539
629 -0.39313643467869386 -1.6489258846996226 1.8588230772805052 -3.4959716271457726 -1.0656557483798113 0.08435681334871144
630 -0.3930373538053598 -1.6492195145967263 1.8595787695563541 -3.497183857562088 -1.0662757613537956 0.08307060292076833
631 -0.39293911642295637 -1.6495112248611938 1.8603271927118252 -3.498380696807505 -1.066889639798948 0.08177948430375902
632 -0.3928417220060325 -1.649801033565416 1.8610683512270882 -3.499562129066827 -1.0674973813656268 0.0804835420970189
633 -0.3927451701567201 -1.6500889587696908 1.8618022509777723 -3.5007281394639618 -1.0680989851273994 0.07918286087299914
634 -0.3926494605796389 -1.6503750185301471 1.8625288989911355 -3.5018787140897567 -1.0686944515487606 0.07787752518077316
635 -0.392554593058803 -1.650659230904459 1.8632483032631786 -3.5030138400220734 -1.0692837824536616 0.07656761954702865
636 -0.3924605674363144 -1.6509416139558797 1.8639604726213783 -3.504133505339969 -1.0698669809948993 0.07525322847518529
637 -0.3923673835926659 -1.651222185756002 1.8646654166215564 -3.5052376991333802 -1.0704440516243883 0.07393443644311948
638 -0.3922750414285054 -1.6515009643865464 1.8653631454702695 -3.5063264115093644 -1.0710150000643204 0.07261132789985746
639 -0.3921835408477358 -1.6517779679404057 1.8660536699662704 -3.5073996335956887 -1.0715798332792013 0.07128398726150897
640 -0.3920928817418427 -1.6520532145221198 1.8667370014561981 -3.5084573575423597 -1.0721385594487431 0.06995249890664636
641 -0.39200306397535584 -1.6523267222479083 1.867413151800877 -3.509499576521551 -1.0726911879415888 0.06861694717128326
642 -0.3919140873723624 -1.6525985092453608 1.8680821333495095 -3.510526284726261 -1.0732377292898363 0.06727741634356947
643 -0.3918259517039985 -1.65286859365286 1.86874395891973 -3.5115374773679617 -1.073778195164328 0.06593399065828982
644 -0.3917386566768532 -1.653136993618794 1.8693986417820012 -3.5125331506734345 -1.0743125983506714 0.06458675429123377
645 -0.3916522019222262 -1.6534037273006006 1.8700461956472119 -3.5135133018809337 -1.0748409527259544 0.06323579135348605
646 -0.39156658698618396 -1.6536688128636772 1.8706866346566295 -3.514477929235805 -1.0753632732361185 0.06188118588567691
647 -0.39148181132036597 -1.6539322684801832 1.8713199733735721 -3.515427031985633 -1.0758795758739568 0.06052302185222122
648 -0.39139787427349465 -1.6541941123277533 1.8719462267763236 -3.5163606103749934 -1.0763898776577023 0.059161383135568624
649 -0.3913147750835468 -1.6544543625881374 1.8725654102519438 -3.517278665639857 -1.0768941966101713 0.05779635353048223
650 -0.3912325128705476 -1.6547130374457812 1.873177539590708 -3.5181812000016963 -1.077392551738433 0.05642801673835895
651 -0.39115108662995046 -1.6549701550863547 1.8737826309809829 -3.5190682166613136 -1.0778849630139757 0.05505645636160176
652 -0.3910704952265685 -1.655225733695238 1.874380701004395 -3.519939719792433 -1.0783714513533376 0.05368175589805198
653 -0.39099073738902623 -1.655479791455972 1.8749717666311874 -3.5207957145350655 -1.0788520385991789 0.05230399873548774
654 -0.39091181170470113 -1.6557323465486762 1.875555845215683 -3.5216362069886737 -1.0793267475017694 0.05092326814619364
655 -0.3908337166151273 -1.655983417148441 1.876132954491805 -3.522461204205147 -1.0797956017008659 0.04953964728160547
656 -0.39075645041183493 -1.6562330214236984 1.8767031125686062 -3.5232707141816033 -1.0802586257079578 0.04815321916703307
657 -0.390680011232601 -1.6564811775345702 1.8772663379257866 -3.524064745853029 -1.0807158448888614 0.04676406669646386
658 -0.3906043970580875 -1.6567279036312037 1.8778226494091723 -3.524843309084766 -1.0811672854466408 0.04537227262744886
659 -0.3905296057088461 -1.6569732178520904 1.8783720662261472 -3.5256064146648534 -1.0816129744048386 0.04397791957607295
660 -0.39045563484266754 -1.6572171383223748 1.8789146079410266 -3.5263540742962425 -1.082052939591 0.04258109001201041
661 -0.3903824819522577 -1.6574596831521538 1.8794502944703688 -3.5270863005888784 -1.082487209620471 0.041181866253666835
662 -0.39031014436322115 -1.6577008704347673 1.8799791460782211 -3.5278031070516693 -1.0829158138804593 0.03978033046340813
663 -0.3902386192323349 -1.6579407182450845 1.8805011833713026 -3.528504508084342 -1.0833387825143428 0.03837656464287706
664 -0.39016790354609665 -1.6581792446377854 1.8810164272941192 -3.5291905189691937 -1.083756146406211 0.036970650628397876
665 -0.39009799411953217 -1.65841646764564 1.8815248991240199 -3.5298611558627493 -1.0841679371656312 0.035562670086469156
666 -0.3900288875952464 -1.658652405277786 1.8820266204661904 -3.530516435787323 -1.0845741871126229 0.03415270450934496
667 -0.3899605804427061 -1.658887075518007 1.8825216132485918 -3.531156376622501 -1.084974929262836 0.032740835210704464
668 -0.3898930689577399 -1.659120496323012 1.8830098997168452 -3.531780997096539 -1.0853701973129177 0.031327143321409734
669 -0.3898263492622442 -1.6593526856207184 1.8834915024290668 -3.532390316777693 -1.0857600256260638 0.029911709785351716
670 -0.3897604173040831 -1.659583661308537 1.8839664442506572 -3.532984356065476 -1.0861444492177408 0.028494615355383952
671 -0.38969526885717215 -1.6598134412516643 1.8844347483490473 -3.53356313618186 -1.0865235037415781 0.027075940589343817
672 -0.38963089952173435 -1.660042043281378 1.8848964381884084 -3.534126679162413 -1.0868972254754168 0.025655765846160788
673 -0.3895673047247203 -1.660269485193342 1.8853515375243248 -3.5346750078473934 -1.087265651307511 0.02423417128205128
674 -0.389504479720382 -1.6604957847459165 1.8858000703984374 -3.535208145872789 -1.0876288187228764 0.022811236846799497
675 -0.38944241959099235 -1.6607209596584795 1.8862420611330588 -3.53572611766132 -1.0879867657897804 0.02138704228012371
676 -0.3893811192477019 -1.660945027609756 1.8866775343257656 -3.5362289484134055 -1.0883395311463657 0.019961667108127263
677 -0.38932057343152493 -1.6611680062361571 1.8871065148439699 -3.5367166640980914 -1.0886871539874075 0.01853519063983362
678 -0.3892607767144478 -1.661389913130132 1.8875290278194732 -3.5371892914439593 -1.0890296740511949 0.017107691963804704
679 -0.3892017235006526 -1.6616107658385293 1.8879450986430086 -3.5376468579300053 -1.0893671316065359 0.015679249944841676
680 -0.38914340802784886 -1.6618305818609724 1.8883547529587699 -3.5380893917765026 -1.0896995674398817 0.01424994322076736
681 -0.3890858243687085 -1.6620493786482478 1.8887580166589346 -3.53851692193585 -1.0900270228425648 0.012819850199289403
682 -0.389028966432396 -1.662267173600705 1.8891549158781837 -3.5389294780834075 -1.0903495395981508 0.011389049054943215
683 -0.3889728279661904 -1.662483984066674 1.8895454769882172 -3.539327090608327 -1.090667159969899 0.009957617726113784
684 -0.3889174025571922 -1.662699827340894 1.8899297265922719 -3.5397097906043795 -1.0909799266883293 0.008525633912135339
685 -0.38886268363411064 -1.6629147206629586 1.8903076915196448 -3.540077609860782 -1.0912878829388941 0.0070931750704678505
686 -0.3888086644691271 -1.6631286812157786 1.8906793988202202 -3.540430580853033 -1.091591072349752 0.005660318413949327
687 -0.388755338179829 -1.6633417261240568 1.8910448757590068 -3.5407687367337504 -1.091889538979641 0.0042271409081227835
688 -0.3887026977312109 -1.6635538724527836 1.8914041498106873 -3.541092111323527 -1.0921833273058519 0.002793719268636863
689 -0.3886507359377382 -1.6637651372057467 1.8917572486541798 -3.5414007391017965 -1.0924724822122953 0.0013601299587189131
690 -0.3885994454654693 -1.6639755373240588 1.8921042001672173 -3.541694655197719 -1.092757048977667 -7.355081328059253e-05
691 -0.3885488188342335 -1.6641850896847037 1.8924450324209425 -3.5419738953810898 -1.0930370732637038 -0.0015072470962734156
692 -0.3884988484198598 -1.6643938110990995 1.8927797736745264 -3.5422384960532707 -1.0933126011035343 -0.002940883198749959
693 -0.3884495264564547 -1.6646017183116806 1.893108452369805 -3.5424884942381505 -1.0935836788901205 -0.004374383691027823
694 -0.3884008450387242 -1.6648088279984983 1.8934310971259438 -3.542723927573134 -1.0938503533647879 -0.005807673407433786
695 -0.38835279612433876 -1.6650151567658393 1.8937477367341267 -3.5429448343001657 -1.0941126716058471 -0.007240677448420381
696 -0.38830537153633693 -1.6652207211488648 1.8940584001522733 -3.54315125325679 -1.094370681017303 -0.008673321182618328
697 -0.3882585629655656 -1.6654255376102678 1.8943631164997843 -3.5433432238672475 -1.0946244293176515 -0.010105530248826015
698 -0.388212361973154 -1.6656296225389504 1.8946619150523198 -3.5435207861336164 -1.0948739645287628 -0.01153723055793736
699 -0.3881667599930194 -1.6658329922487205 1.8949548252366109 -3.5436839806269935 -1.0951193349648536 -0.01296834829480922
700 -0.38812174833440144 -1.6660356629770088 1.8952418766253023 -3.5438328484787234 -1.095360589221541 -0.01439880992006964
701 -0.38807731818442354 -1.6662376508836054 1.8955230989318361 -3.543967431371677 -1.0955977761649853 -0.015828542171868215
702 -0.38803346061067884 -1.666438972049417 1.8957985220053672 -3.5440877715315766 -1.0958309449211163 -0.017257472067569814
703 -0.3879901665638388 -1.666639642475244 1.8960681758257218 -3.544193911718378 -1.0960601448649434 -0.018685526905392928
704 -0.3879474268802823 -1.6668396780805785 1.8963320904983925 -3.5442858952177057 -1.0962854256099512 -0.02011263426599392
705 -0.3879052322847437 -1.6670390947024223 1.8965902962495766 -3.5443637658323426 -1.0965068369975774 -0.021538722013998462
706 -0.38786357339297806 -1.667237908094126 1.8968428234212567 -3.5444275678737807 -1.096724429086775 -0.022963718299481378
707 -0.38782244071444105 -1.6674361339242483 1.897089702466323 -3.544477346153832 -1.096938252143658 -0.02438755155939619
708 -0.3877818246549834 -1.6676337877754364 1.8973309639437417 -3.5445131459763 -1.097148356631228 -0.025810150518955598
709 -0.387741715519557 -1.667830885143327 1.897566638513769 -3.5445350131287165 -1.097354793199186 -0.02723144419296422
710 -0.38770210351493173 -1.6680274414354685 1.8977967569332106 -3.544542993874142 -1.097557612673826 -0.028651361887104723
711 -0.38766297875242184 -1.668223471970263 1.8980213500507288 -3.544537134943033 -1.0977568660480086 -0.030069833199178712
712 -0.38762433125062 -1.6684189919759307 1.898240448802199 -3.54451748352518 -1.097952604471219 -0.03148678802030351
713 -0.3875861509381381 -1.6686140165894934 1.8984540842061144 -3.544484087261712 -1.0981448792397062 -0.03290215653606615
714 -0.38754842765635344 -1.6688085608557806 1.8986622873590406 -3.544436994237174 -1.0983337417867047 -0.03431586922763573
715 -0.38751115116215934 -1.6690026397264546 1.8988650894311223 -3.5443762529716745 -1.0985192436727353 -0.03572785687283537
716 -0.38747431113071856 -1.6691962680590582 1.8990625216616388 -3.544301912413107 -1.0987014365759904 -0.03713805054717498
717 -0.3874378971582191 -1.6693894606160815 1.899254615354614 -3.5442140219294487 -1.0988803722827976 -0.038546381624846034
718 -0.3874018987646306 -1.6695822320640505 1.8994414018744783 -3.544112631301128 -1.0990561026781664 -0.0399527817796795
719 -0.3873663053964614 -1.6697745969726363 1.8996229126417832 -3.543997790713478 -1.0992286797364161 -0.04135718298606812
720 -0.38733110642951385 -1.6699665698137838 1.8997991791289706 -3.5438695507492555 -1.099398155511882 -0.04275951751985425
721 -0.3872962911716386 -1.6701581649608621 1.8999702328561954 -3.5437279623812494 -1.0995645821297049 -0.04415971795918426
722 -0.38726184886548565 -1.670349396687835 1.900136105387204 -3.5435730769649587 -1.0997280117767003 -0.04555771718533084
723 -0.3872277686912521 -1.6705402791684512 1.9002968283252675 -3.543404946231357 -1.0998884966923068 -0.04695344838348407
724 -0.38719403976942546 -1.6707308264754555 1.90045243330917 -3.5432236222797333 -1.1000460891596167 -0.048346845043512644
725 -0.3871606511635222 -1.6709210525798197 1.9006029520092538 -3.543029157570613 -1.100200841496485 -0.04973784096069609
726 -0.3871275918828201 -1.6711109713499939 1.9007484161235204 -3.5428216049187666 -1.1003528060467198 -0.05112637023642923
727 -0.3870948508850843 -1.6713005965511774 1.9008888573737883 -3.5426010174862905 -1.1005020351713513 -0.05251236727889987
728 -0.38706241707928607 -1.671489941844609 1.9010243075019073 -3.5423674487757784 -1.1006485812399809 -0.053895766803740794
729 -0.387030279328314 -1.6716790207868781 1.9011547982660306 -3.542120952623572 -1.1007924966222093 -0.05527650383465701
730 -0.38699842645167637 -1.6718678468292545 1.9012803614369436 -3.541861583193096 -1.1009338336791459 -0.05665451370402943
731 -0.38696684722819474 -1.672056433317037 1.90140102879445 -3.5415893949682737 -1.1010726447549943 -0.05802973205349584
732 -0.38693553039868794 -1.6722447934889226 1.9015168321238174 -3.541304442747031 -1.1012089821687192 -0.059402094834510186
733 -0.38690446466864575 -1.6724329404763945 1.9016278032122773 -3.5410067816348794 -1.101342898205791 -0.060771538308881136
734 -0.38687363871089225 -1.6726208873031276 1.901733973845587 -3.5406964670385874 -1.101474445110009 -0.062137999049290925
735 -0.3868430411682375 -1.6728086468844152 1.901835375804646 -3.5403735546599324 -1.1016036750754046 -0.0635014139397953
736 -0.38681266065611786 -1.6729962320266123 1.9019320408621727 -3.54003810048954 -1.1017306402382205 -0.06486172017630559
737 -0.3867824857652245 -1.673183655426598 1.9020240007794376 -3.539690160800803 -1.1018553926689696 -0.06621885526705376
738 -0.3867525050641186 -1.6733709296712567 1.902111287303056 -3.539329792143892 -1.1019779843645707 -0.06757275703304128
739 -0.3867227071018344 -1.6735580672369774 1.9021939321618375 -3.5389570513398425 -1.102098467240564 -0.06892336360847279
740 -0.38669308041046796 -1.6737450804891698 1.902271967063694 -3.5385719954747303 -1.1022168931234015 -0.07027061344117524
741 -0.38666361350775313 -1.6739319816817997 1.9023454236926058 -3.538174681893931 -1.1023333137428164 -0.07161444529300352
742 -0.38663429489962253 -1.674118782956941 1.9024143337056447 -3.5377651681964615 -1.1024477807242696 -0.07295479824023322
743 -0.3866051130827544 -1.6743054963443458 1.9024787287300564 -3.537343512229407 -1.1025603455814725 -0.07429161167394141
744 -0.38657605654710464 -1.674492133761031 1.902538640360399 -3.536909772082429 -1.1026710597089875 -0.0756248253003762
745 -0.38654711377842327 -1.6746787070108828 1.9025941001557396 -3.5364640060823613 -1.1027799743749036 -0.07695437914131581
746 -0.38651827326075566 -1.6748652277842775 1.9026451396369084 -3.5360062727878807 -1.1028871407135907 -0.07828021353441791
747 -0.386489523478928 -1.6750517076577192 1.9026917902838096 -3.53553663098427 -1.1029926097185276 -0.07960226913355993
748 -0.38646085292101623 -1.6752381580934939 1.902734083532789 -3.5350551396782555 -1.1030964322352077 -0.08092048690917103
749 -0.386432250080799 -1.6754245904393401 1.90277205077406 -3.5345618580929297 -1.1031986589541198 -0.08223480814855652
750 -0.38640370346019365 -1.6756110159281357 1.9028057233491835 -3.5340568456627564 -1.103299340403805 -0.08354517445621518
751 -0.38637520157167515 -1.6757974456775995 1.9028351325486066 -3.5335401620286526 -1.1033985269439879 -0.08485152775415039
752 -0.3863467329406783 -1.6759838906900104 1.9028603096092558 -3.5330118670331574 -1.1034962687587846 -0.08615381028217546
753 -0.38631828610798175 -1.6761703618519412 1.9028812857121862 -3.532472020715674 -1.1035926158499847 -0.08745196459821394
754 -0.386289849632075 -1.676356869934007 1.902898091980287 -3.531920683307795 -1.1036876180304078 -0.08874593357859543
755 -0.38626141209150716 -1.6765434255906302 1.9029107594760417 -3.5313579152287087 -1.1037813249173365 -0.09003566041834747
756 -0.38623296208721736 -1.676730039359819 1.9029193191993432 -3.5307837770806785 -1.103873785926021 -0.09132108863148407
757 -0.3862044882448472 -1.6769167216629621 1.9029238020853636 -3.530198329644604 -1.1039650502632607 -0.09260216205129149
758 -0.38617597921703456 -1.6771034828046365 1.9029242390024779 -3.52960163387566 -1.1040551669210583 -0.09387882483061163
759 -0.38614742368568833 -1.6772903329724307 1.9029206607502422 -3.528993750899008 -1.1041441846703488 -0.09515102144212378
760 -0.38611881036424467 -1.6774772822367816 1.9029130980574263 -3.528374742005589 -1.1042321520548009 -0.09641869667862493
761 -0.3860901279999037 -1.6776643405508256 1.9029015815800971 -3.527744668647987 -1.1043191173846936 -0.0976817956533094
762 -0.38606136537584745 -1.677851517750263 1.9028861418997576 -3.5271035924363723 -1.1044051287308654 -0.098940263800048
763 -0.3860325113134375 -1.6780388235532369 1.902866809521537 -3.526451575134513 -1.1044902339187366 -0.10019404687366741
764 -0.386003554674394 -1.6782262675602238 1.9028436148724328 -3.525788678655866 -1.1045744805224051 -0.10144309095022991
765 -0.385974484362954 -1.6784138592539395 1.902816588299606 -3.5251149650597347 -1.104657915858815 -0.10268734242731416
766 -0.38594528932801053 -1.678601607999256 1.9027857600687255 -3.524430496547504 -1.1047405869819977 -0.10392674802429716
767 -0.38591595856523114 -1.6787895230431327 1.902751160362366 -3.523735335458944 -1.1048225406773866 -0.10516125478263806
768 -0.3858864811191564 -1.678977613514559 1.9027128192784544 -3.5230295442685837 -1.1049038234562034 -0.1063908100661638
769 -0.385856846085278 -1.6791658884245109 1.9026707668287675 -3.5223131855821554 -1.104984481549917 -0.10761536156135734
770 -0.3858270426120963 -1.679354356665917 1.902625032937479 -3.5215863221331096 -1.1050645609047751 -0.10883485727764847
771 -0.38579705990315755 -1.6795430270136404 1.902575647439756 -3.520849016779194 -1.1051441071764074 -0.1100492455477077
772 -0.38576688721906977 -1.679731908124469 1.9025226400804038 -3.5201013324991055 -1.105223165724501 -0.11125847502774348
773 -0.3857365138794984 -1.6799210085371188 1.9024660405125595 -3.5193433323892025 -1.1053017816075486 -0.11246249469780303
774 -0.3857059292651406 -1.6801103366722492 1.9024058782964348 -3.5185750796602897 -1.105379999577666 -0.11366125386207705
