ZJU-PLP/Project_IFAC_2020/src/custom_codes/csv_files/joint_traj_1_AAPF.csv
Index Joint1 Joint2 Joint3 Joint4 Joint5 Joint6
0 0.0 -1.5707 0.0 -1.5707 -1.5707 -1.5707
1 -0.000744545500242411 -1.5696388460237731 0.020033832476018778 -1.5636862366742197 -1.5741247950334047 -1.5676514152659855
2 -0.001495789604976352 -1.5685767501497403 0.04011227858435803 -1.556709879154552 -1.5784594877860398 -1.5634641870052803
3 -0.002252404428050232 -1.5675138162447004 0.06022842311246687 -1.549773151667656 -1.5826832736876715 -1.5591542306870512
4 -0.003014651343979708 -1.5664502054127372 0.08037405211256786 -1.5428782851880787 -1.5868205581299537 -1.5546882665309831
5 -0.003782755989056038 -1.5653860838011584 0.10054057556578005 -1.5360275800933343 -1.5908723328118033 -1.5500564265495975
6 -0.004556944616090099 -1.5643216243893174 0.12071898403375297 -1.5292234168294763 -1.5948352054510808 -1.5452531418110649
7 -0.005337450926070731 -1.5632570078889647 0.14089982242132693 -1.5224682607428812 -1.598704276327792 -1.5402742618344685
8 -0.006124518407545672 -1.5621924235751299 0.1610731655663185 -1.5157646663908408 -1.6024739230155087 -1.5351162801443754
9 -0.006918401404602502 -1.5611280701556676 0.18122859387301493 -1.5091152817935396 -1.6061380874901956 -1.529776063822328
10 -0.007719365665873357 -1.560064156705912 0.20135516878634346 -1.5025228526542966 -1.609690403600878 -1.5242507475535365
11 -0.008527688603425742 -1.5590009036760346 0.22144140831043982 -1.4959902264815024 -1.6131242633777416 -1.5185376935805064
12 -0.009343659336942926 -1.5579385439713034 0.24147526297420718 -1.4895203565028279 -1.6164328573920015 -1.5126344826742768
13 -0.010167578542816254 -1.5568773241005174 0.2614440928048994 -1.4831163052275282 -1.619609203815358 -1.5065389219757508
14 -0.010999758103901459 -1.555817505383168 0.28133464602968034 -1.4767812474771607 -1.6226461730905481 -1.5002490633757048
15 -0.011840520544137248 -1.5547593652006064 0.3011330403964511 -1.4705184726666876 -1.6255365118823377 -1.4937632293742036
16 -0.01269019822629401 -1.5537031982703613 0.3208247481917644 -1.4643313860765883 -1.628272868500871 -1.4870800448286263
17 -0.01354913228837041 -1.552649317915618 0.34039458623363855 -1.458223508813038 -1.6308478212658526 -1.4801984736736546
18 -0.01441767129374169 -1.551598057293696 0.3598267123252674 -1.4521984761090132 -1.6332539108962774 -1.4731178599840338
19 -0.015296169571913274 -1.5505497705382414 0.3791046298630105 -1.4462600335767928 -1.6354836777802249 -1.4658379728287567
20 -0.01618498523077768 -1.5495048337599937 0.3982112024854388 -1.4404120309851263 -1.6375297048108466 -1.4583590543152696
21 -0.017084477827870682 -1.5484636458407792 0.4171286808116597 -1.4346584131068185 -1.6393846663181086 -1.4506818700849229
22 -0.017995005697552288 -1.5474266289453993 0.435838743423716 -1.4290032071701542 -1.6410413834509585 -1.442807761319074
23 -0.01891692294350659 -1.546394228667165 0.45432255427178586 -1.4234505064570073 -1.6424928861517534 -1.4347386970655227
24 -0.019850576121505828 -1.5453669137160042 0.47256083859062326 -1.4180044496288287 -1.6437324816013572 -1.4264773254134713
25 -0.020796300655804616 -1.5443451750546522 0.4905339791777335 -1.4126691954363242 -1.6447538286927177 -1.418027021751192
26 -0.021754417053254385 -1.5433295243898604 0.5082221344662123 -1.4074488925861368 -1.6455510177130792 -1.4093919320582946
27 -0.02272522700125848 -1.542320491933335 0.5256053792021308 -1.4023476447029481 -1.6461186539882553 -1.400577008943871
28 -0.02370900945755342 -1.541318623362614 0.5426638676940176 -1.3973694705395836 -1.6464519437838 -1.3915880379779029
29 -0.024706016859571356 -1.5403244759363168 0.5593780185452477 -1.3925182598475834 -1.6465467802947307 -1.382431651814063
30 -0.025716471596524057 -1.5393386137515284 0.5757287185389807 -1.3877977256167748 -1.6463998271247369 -1.3731153297045757
31 -0.02674056289590524 -1.5383616021728983 0.5916975419796436 -1.3832113537080961 -1.646008596302609 -1.363647380293059
32 -0.027778444275535528 -1.5373940015116736 0.6072669803961936 -1.3787623512156137 -1.6453715176571568 -1.3540369060578323
33 -0.02883023170079503 -1.536436360085269 0.6224206761999739 -1.3744535951718988 -1.6444879963197594 -1.3442937484658368
34 -0.029896002563447065 -1.5354892068399717 0.6371436528018826 -1.3702875834229915 -1.6433584552845524 -1.3344284137620501
35 -0.030975795563859647 -1.534553043765908 0.6514225329708397 -1.3662663896132599 -1.6419843603519628 -1.3244519803109167
36 -0.032069611534344615 -1.5336283383691371 0.6652457369820718 -1.362391624210432 -1.6403682254101062 -1.314375989450444
37 -0.03317741519104607 -1.532715516485793 0.6786036524447432 -1.3586644033515747 -1.6385135968409839 -1.304212322824079
38 -0.034299137749733415 -1.5318149557239853 0.6914887686416781 -1.3550853270011485 -1.6364250168173298 -1.2939730700215204
39 -0.03543468029197767 -1.5309269797990375 0.703895769718207 -1.351654467498557 -1.634107966301594 -1.283670390995709
40 -0.03658391772736637 -1.53005185398739 0.715821583012154 -1.3483713690668548 -1.6315687895781403 -1.2733163780592478
41 -0.03774670316862621 -1.5291897818673446 0.7272653810547489 -1.345235058300746 -1.628814603050091 -1.262922922262277
42 -0.038922872522284074 -1.5283409034460758 0.73822853808982 -1.342244065101234 -1.6258531917331787 -1.2525015886173134
43 -0.04011224909850197 -1.527505294698539 0.7487145441468043 -1.3393964530258482 -1.6226928973243275 -1.242063504005359
44 -0.04131464805883345 -1.5266829684719831 0.7587288815757992 -1.3366898576189588 -1.6193425018874692 -1.2316192607438186
45 -0.042529880547201734 -1.525873876645941 0.7682788703711814 -1.3341215310048695 -1.6158111110906745 -1.221178837812129
46 -0.043757757383723124 -1.525077913386619 0.7773734894969598 -1.331688390879852 -1.612108040582919 -1.2107515407125244
47 -0.044998092239046175 -1.5242949192993862 0.7860231817694452 -1.329387072025038 -1.6082427085720095 -1.2003459599800692
48 -0.04625070424481965 -1.5235246862644163 0.7942396496957885 -1.3272139785639285 -1.604224537024139 -1.1899699475186574
49 -0.047515420030582727 -1.5227669627374625 0.8020356490978355 -1.325165335380942 -1.6000628632174332 -1.179630609274672
50 -0.048792075206570196 -1.52202145930793 0.8094247864812463 -1.3232372373712744 -1.59576686270636 -1.1693343122887796
51 -0.05008051533442714 -1.5212878543266786 0.8164213250581076 -1.3214256954776988 -1.5913454841376737 -1.1590867038876442
52 -0.05138059644333071 -1.5205657994429345 0.8230400032072231 -1.3197266787604143 -1.5868073958330822 -1.1488927406726326
53 -0.05269218515794046 -1.5193578679951742 0.8435807432794759 -1.3163182288178978 -1.5821280958929922 -1.1387567250020623
54 -0.054023143523154155 -1.5183020284789912 0.8596371511783801 -1.3136631002079675 -1.5771194649633458 -1.1286619174429904
55 -0.0553704072950855 -1.5173672462718957 0.8721417670457735 -1.311591398667727 -1.571861924944139 -1.1186380454657652
56 -0.05673208914669965 -1.5165283069844488 0.8818461414720031 -1.3099728470915526 -1.5664183469867963 -1.1086994854408163
57 -0.05810705164597412 -1.515764972885109 0.8893493933941133 -1.3087077586599074 -1.5608372702533604 -1.0988516414335785
58 -0.05949461461169999 -1.5150611250253263 0.8951260192815838 -1.3077198286026206 -1.5551559728824955 -1.0890950025960728
59 -0.06089436623587474 -1.5144039873232762 0.8995503609921206 -1.3069505574912745 -1.5494030431126338 -1.0794275869608934
60 -0.06230604597127727 -1.5137834645373829 0.9029170730788992 -1.3063550042569942 -1.5436004087446078 -1.0698463475475375
61 -0.06372947416625642 -1.513191595399102 0.9054577794318599 -1.3058985727547667 -1.5377648960828454 -1.0603479428955693
62 -0.06516451104730868 -1.5126221093642591 0.9073544192503187 -1.305554582953426 -1.531909414446689 -1.0509291320691188
63 -0.0666110336516878 -1.512070071453412 0.9087498447779655 -1.305302431611226 -1.5260438542583983 -1.041586954950062
64 -0.06806892349864084 -1.5115315996887195 0.9097561930925917 -1.3051261945658374 -1.5201757696700224 -1.032318794331128
65 -0.06953806053882068 -1.5110036412882168 0.9104614797339888 -1.3050135603366546 -1.514310899875922 -1.0231223763388824
66 -0.07101832067014319 -1.5104837959011046 0.9109347830540397 -1.304955013214973 -1.5084535694331567 -1.0139957414965823
67 -0.07250957519753297 -1.5099701762512066 0.9112303166889266 -1.3049432051214094 -1.5026069973617033 -1.0049372043417717
68 -0.07401169128280857 -1.5094612984025852 0.9113906270403466 -1.3049724710058523 -1.4967735370111543 -0.9959453111033387
69 -0.07552453283682263 -1.5089559954184701 0.9114491031623021 -1.305038453926846 -1.4909548630129583 -0.9870188001221836
70 -0.07704796154936547 -1.508453349462079 0.9114319467248735 -1.3051378143031798 -1.4851521175214408 -0.9781565670048543
71 -0.07858183789625992 -1.5079526384191935 0.9113597181712576 -1.3052680040100386 -1.4793660249459017 -0.9693576350476436
72 -0.08012602204660176 -1.5074532939468637 0.9112485502659888 -1.3054270905930558 -1.4735969821712105 -0.9606211307323261
73 -0.0816803746402949 -1.5069548685078575 0.911111100619165 -1.305613620323527 -1.467845129629025 -0.9519462637617332
74 -0.083244757431617 -1.5064570094691616 0.9109572993615469 -1.305826511422529 -1.4621104073567803 -0.9433323109906958
75 -0.08481903380748268 -1.505959438752443 0.9107949360489191 -1.3060649707602874 -1.4563925992551148 -0.9347786036096675
76 -0.08640306919475306 -1.5054619368472877 0.910630120382674 -1.3063284288485892 -1.450691368047482 -0.9262845169944052
77 -0.08799673137260369 -1.504964330252316 0.9104676438873461 -1.306616489104197 -1.4450062829021402 -0.917849462712178
78 -0.08959989070551659 -1.504466481609377 0.9103860003570382 -1.3063309961524479 -1.439386738410601 -0.909414845069551
79 -0.09121180076824353 -1.5039701828645182 0.910255817975761 -1.3061010080569593 -1.4337735241997482 -0.9010438227041843
80 -0.09283238877328118 -1.5034748599520986 0.9100934231991257 -1.305924205463586 -1.4281673486378674 -0.8927355068368901
81 -0.09446158039253111 -1.5029800624967027 0.9099115902390663 -1.3057987984095332 -1.4225686288096813 -0.8844891030297806
82 -0.09609930056720688 -1.502485436949716 0.9097203151932463 -1.3057234059102694 -1.4169775542660492 -0.8763038938416187
83 -0.09774547415747731 -1.5019907055793649 0.9095274209577505 -1.3056969625224095 -1.4113941371059366 -0.8681792248580724
84 -0.09940002645332749 -1.5014956500356147 0.9093390300456766 -1.305718645792029 -1.405818251353567 -0.8601144935007585
85 -0.10106288356864225 -1.50100009849119 0.9091599342552977 -1.3057878198970323 -1.4002496639369078 -0.8521091400945926
86 -0.10273397273894719 -1.5005039155785032 0.9089938837639117 -1.3059039918609974 -1.3946880590677935 -0.8441626407535093
87 -0.10441322254079281 -1.5000069945129144 0.9088438132636487 -1.3060667775355568 -1.3891330574324914 -0.83627450172054
88 -0.10610056304809536 -1.4995092509259813 0.9087120188902944 -1.3062758751790025 -1.3835842312972801 -0.8284442548654286
89 -0.10779592593818924 -1.4990106180363982 0.9086002966826641 -1.3065310449452632 -1.378041116396428 -0.8206714541002534
90 -0.10949924455805267 -1.4985110428675938 0.908510050959565 -1.306832092973505 -1.3725032212845518 -0.8129556725211905
91 -0.11121045395919224 -1.4980104832844343 0.9084423791673375 -1.307178859059885 -1.3669700346900984 -0.8052965001235826
92 -0.11292949090801216 -1.4975089056710782 0.9083981383193712 -1.3075712071189116 -1.3614410312927216 -0.7976935419690598
93 -0.11465629387712381 -1.4970062831107889 0.9083779970311863 -1.3080090178173096 -1.355915676257786 -0.7901464167088085
94 -0.11639080302193354 -1.496502593958809 0.9083824762815836 -1.3084921828996519 -1.3503934287907764 -0.7826547553873081
95 -0.11813296014594317 -1.4959978207230842 0.9084119813482519 -1.30902060083112 -1.344873744918945 -0.7752182004669238
96 -0.11988270865747251 -1.495491949186145 0.9084668268331416 -1.3095941734653398 -1.339356079663824 -0.767836405026455
97 -0.12163999351993349 -1.494984967715944 0.9085472562762151 -1.3102128035095693 -1.3338398887337914 -0.7605090320967867
98 -0.12340476119732398 -1.4944768667247736 0.908653457530372 -1.3108763926096483 -1.3283246298387117 -0.7532357541047036
99 -0.1251769595962435 -1.4939676382442588 0.908785574815543 -1.3115848399162031 -1.322809763707234 -0.7460162524021605
100 -0.1269565380054427 -1.4934572755913558 0.9089437181706314 -1.3123380410240777 -1.3172947548704177 -0.7388502168631991
101 -0.12874344703368973 -1.4929457731057203 0.9091279708660348 -1.3131358872007395 -1.311779072261996 -0.7317373455345506
102 -0.13053763854655512 -1.4924331259430623 0.9093383952174501 -1.3139782648379634 -1.3062621896750406 -0.7246773443289872
103 -0.13233906560257502 -1.4919193299124285 0.9095750371461441 -1.3148650550755727 -1.3007435861064662 -0.7176699267528518
104 -0.1341476823891398 -1.4914043813479663 0.9098379297561037 -1.315796133557322 -1.295222746014227 -0.7107148136610596
105 -0.13596344415836703 -1.4908882770077643 0.9101270961399287 -1.316771370287826 -1.2896991595068623 -0.7038117330343189
106 -0.13778630716314857 -1.4903710139939614 0.9104425515794873 -1.3177906295663326 -1.2841723224809412 -0.6969604197744628
107 -0.139616228593507 -1.489852589689574 0.9107843052714402 -1.3188537699785097 -1.2786417367187095 -0.6901606155146766
108 -0.1414531665133542 -1.4893330017084703 0.9111523616796144 -1.319960644431623 -1.2731069099556784 -0.6834120684421072
109 -0.14329707979771159 -1.4888122478556929 0.9115467215941654 -1.3211111002217553 -1.2675673559258664 -0.676714533130888
110 -0.14514792807042506 -1.4882903260959344 0.9119673829601995 -1.3223049791242782 -1.262022594390806 -0.6700677703840409
111 -0.14700567164238845 -1.4877672345284396 0.9124143415249946 -1.3235421175007915 -1.2564721511571622 -0.6634715470830529
112 -0.14887027145027226 -1.4872429713669872 0.9128875913423499 -1.3248223464172943 -1.2509155580868057 -0.6569256360441861
113 -0.15074168899574364 -1.486717534923886 0.9133871251642822 -1.3261454917695825 -1.245352353102401 -0.6504298158807823
114 -0.1526198862851531 -1.4861909235971549 0.9139129347437649 -1.3275113744128029 -1.2397820801909405 -0.6439838708709849
115 -0.1545048257696572 -1.4856631358602335 0.9144650110670965 -1.3289198102928452 -1.2342042894071643 -0.6375875908304217
116 -0.15639647028574027 -1.4851341702537082 0.9150433445304799 -1.3303706105778217 -1.228618536878423 -0.6312407709894922
117 -0.15829478299609465 -1.4846040253786523 0.9156479250722429 -1.3318635817883395 -1.2230243848122277 -0.624943211874973
118 -0.16019972733081614 -1.484072699891263 0.9162787422696753 -1.3333985259256125 -1.2174214015074936 -0.6186947191957173
119 -0.16211126692886832 -1.4835401924985463 0.9169357854075125 -1.3349752405967399 -1.2118091613702946 -0.612495103732266
120 -0.16402936557976894 -1.4830065019548557 0.9176190435235864 -1.336593519136679 -1.2061872449348017 -0.606344181230225
121 -0.1659539871654498 -1.4824716270591303 0.9183285054359679 -1.3382531507266113 -1.20055523888995 -0.6002417722972878
122 -0.16788509560224155 -1.481935566652711 0.9190641597549932 -1.3399539205085205 -1.1949127361123046 -0.5941877023038049
123 -0.16982265478293412 -1.4813983196176423 0.9198259948828288 -1.3416956096959003 -1.1892593357055095 -0.5881818012868163
124 -0.17176662851886362 -1.4808598848753836 0.9206139990026562 -1.3434779956805867 -1.1835946430466626 -0.5822239038574752
125 -0.17371698048197695 -1.4803202613858715 0.9214281600591016 -1.345300852135758 -1.1779182698399113 -0.5763138491118015
126 -0.17567367414682536 -1.4797794481468896 0.92226846573118 -1.3471639491152012 -1.172229834177528 -0.5704514805447092
127 -0.17763667273243872 -1.4792374441937066 0.9231349033987446 -1.3490670531489644 -1.1665289606087135 -0.5646366459672584
128 -0.17960593914403303 -1.4786942485989591 0.9240274601032045 -1.3510099273355445 -1.1608152802163476 -0.5588691974270863
129 -0.18158143591450404 -1.478149860472753 0.9249461225031095 -1.352992331430777 -1.155088430701899 -0.5531489911319741
130 -0.1835631251456607 -1.47760427896297 0.9258908768250537 -1.3550140219336093 -1.1493480564786978 -0.5474758873765103
131 -0.18555096844915275 -1.4770575032557656 0.9268617088102454 -1.3570747521689406 -1.1435938087737711 -0.5418497504718114
132 -0.1875449268870478 -1.4765095325762485 0.9278586036570032 -1.3591742723677278 -1.1378253457384366 -0.5362704486782631
133 -0.1895449609120138 -1.4759603661893346 0.9288815459593676 -1.361312329744554 -1.1320423325678488 -0.5307378541412472
134 -0.191551030307064 -1.4754100034007707 0.9299305196419653 -1.3634886685728596 -1.126244441629698 -0.5252518428298169
135 -0.19356309412482178 -1.4748584435583254 0.931005507891216 -1.3657030302580382 -1.1204313526022591 -0.5198122944782883
136 -0.19558111062626465 -1.4743056860531438 0.9321064930829378 -1.3679551534085992 -1.1146027526219962 -0.5144190925307124
137 -0.19760503721890668 -1.4737517303212655 0.933233456706375 -1.3702447739055978 -1.1087583364409266 -0.5090721240881945
138 -0.19963483039438037 -1.4731965758453078 0.9343863792846533 -1.372571624970532 -1.1028978065939605 -0.5037712798590278
139 -0.2016704456653799 -1.4726402221563133 0.9356177498328715 -1.374515360902066 -1.097100985454476 -0.49835233454031164
140 -0.20371129462783144 -1.4720841259325816 0.9368348885494284 -1.3764942297499354 -1.0912806400653023 -0.4929792672249479
141 -0.2057573531822011 -1.4715279814802542 0.9380462810023824 -1.3785073636394491 -1.0854375573802493 -0.48765190992080826
142 -0.20780859366309448 -1.4709715489363722 0.9392585648414591 -1.3805541281158011 -1.0795722802344754 -0.48237015336943756
143 -0.20986498542935075 -1.4704146397508628 0.9404769379291797 -1.3826340710242055 -1.0736851616359833 -0.47713393657883535
144 -0.21192649532468108 -1.4698571053553884 0.9417054766683013 -1.3847468828233682 -1.0677764074330358 -0.4719432385623536
145 -0.21399308803114342 -1.4692988283226123 0.9429473842114539 -1.3868923657759926 -1.0618461098635519 -0.46679807184039207
146 -0.21606472633501764 -1.4687397154709092 0.9442051839380581 -1.389070410034871 -1.0558942739522854 -0.4616984773438018
147 -0.21814137132168726 -1.4681796924882857 0.9454808702188328 -1.391280975087107 -1.0499208382985903 -0.45664452042773973
148 -0.22022298251331085 -1.4676186997422893 0.9467760258566723 -1.3935240753625964 -1.043925691466026 -0.45163628776272186
149 -0.22230951796054624 -1.4670566890154997 0.9480919135352397 -1.3957997690791784 -1.0379086849250174 -0.4466738849170686
150 -0.2242751184809295 -1.4664764250979148 0.9494237052978114 -1.3981172542037363 -1.0318199133592263 -0.4417574344833265
151 -0.22624711692162164 -1.4658946768539023 0.9507781696590495 -1.400468765896106 -1.0257118690270717 -0.43688780928356064
152 -0.22822545108148465 -1.4653114421951325 0.9521558556672437 -1.402854414434062 -1.0195843234252036 -0.4320651415542516
153 -0.2302100575616631 -1.4647267229395495 0.9535572191416976 -1.4052743269016672 -1.0134370450792278 -0.4272895763761749
154 -0.232200871730794 -1.4641405240218432 0.9549826435655097 -1.4077286447267336 -1.0072698029904792 -0.4225612711553482
155 -0.2341978276793989 -1.4635528528782855 0.9564324562604466 -1.4102175217935755 -1.0010823694543458 -0.4178803952335496
156 -0.23620085816533504 -1.462963718967086 0.9579069408904762 -1.4127411230016398 -0.9948745223930135 -0.41324712959972154
157 -0.23820989455175032 -1.4623731333940047 0.9594063471084087 -1.415299623169466 -0.9886460473148255 -0.40866166667973786
158 -0.2402248667386452 -1.4617811086196424 0.9609308979792432 -1.4178932062058405 -0.9823967389884092 -0.4041242101868364
159 -0.24224570308887705 -1.4611876582300594 0.962480795672949 -1.4205220644874197 -0.9761264029008594 -0.3996349750187937
160 -0.24427233034923138 -1.460592796756428 0.964056225809709 -1.423186398395605 -0.9698348565544803 -0.3951941871908628
161 -0.24630467356701916 -1.4599965395326142 0.965657360755264 -1.4258864159759395 -0.9635219306449996 -0.39080208379579334
162 -0.24831342129062411 -1.4594701745029872 0.9671135338374136 -1.4286571258144896 -0.9571533860132312 -0.38645891298403845
163 -0.2503286167654216 -1.4589397244683167 0.9686508785307468 -1.4314578449537598 -0.9507739542007155 -0.3821638996898906
164 -0.25235011283843806 -1.45840574135582 0.9702567063027753 -1.4342902420154895 -0.9443814140858486 -0.37791765592263277
165 -0.2543777716919473 -1.4578686572687256 0.9719212586920999 -1.4371556532827885 -0.9379740294262963 -0.37372071882814434
166 -0.25641146200255027 -1.4573288117793115 0.9736370383314604 -1.4400551600632339 -0.9315504460618875 -0.36957357063956214
167 -0.2584510567538562 -1.456786473046726 0.9753982917734899 -1.442989648566529 -0.9251096119847607 -0.3654766539418564
168 -0.2604639778196907 -1.4561279235417155 0.97738143263912 -1.445937652940937 -0.9186617918958788 -0.3614303833767133
169 -0.2624834612873025 -1.4554693424251686 0.9793370421090932 -1.448930153737376 -0.9121838762383987 -0.357436677697484
170 -0.2645094019472476 -1.4548103229629992 0.9812775469656269 -1.4519659650638137 -0.9056779161549183 -0.3534954998165993
171 -0.2665416860322002 -1.4541505647608006 0.9832125461399813 -1.4550442389667106 -0.8991455173088172 -0.3496069048317379
172 -0.2685801922054312 -1.453489849788247 0.9851494556081621 -1.4581643890059688 -0.892587945988665 -0.34577102214419503
173 -0.2706247923409106 -1.4528280237976678 0.9870940065388804 -1.4613260315082068 -0.8860062118451275 -0.3419880414460432
174 -0.2726753521245373 -1.4521649819296514 0.9890506298670032 -1.46452894039374 -0.8794011324732023 -0.33825820177276056
175 -0.27473173150619024 -1.4515006575657434 0.9910227530107679 -1.4677730124319144 -0.8727733838910129 -0.3345817829682205
176 -0.27679378502971747 -1.450835013697339 0.9930130286589154 -1.4710582405107386 -0.8661235400649808 -0.3309590990376816
177 -0.2788613620643486 -1.450168036243047 0.9950235110575157 -1.474384693065873 -0.85945210393098 -0.32739049297153844
178 -0.28093430695721566 -1.449499728873981 0.9970557917382478 -1.4777524982423786 -0.8527595318167226 -0.32387633270998556
179 -0.28301245912313716 -1.4488301090054096 0.9991111039258127 -1.4811618316913662 -0.8460462527471913 -0.3204170079890596
180 -0.28509565308473067 -1.448159204690151 1.0011904027670329 -1.4846129071562417 -0.8393126837854356 -0.3170129278645339
181 -0.28718371847332225 -1.4474870522088712 1.00329442690172 -1.4881059691974539 -0.8325592423045706 -0.31366451875442597
182 -0.28927647999898665 -1.4468136941988279 1.0054237456396078 -1.4916412875540594 -0.8257863558871498 -0.31037222287569305
183 -0.29137375739633137 -1.446139178198586 1.007578795036104 -1.4952191527554106 -0.8189944703926141 -0.3071364969779411
184 -0.29347536535127017 -1.445463555514112 1.0097599054083823 -1.4988398726847627 -0.8121840566124611 -0.30395781129822147
185 -0.2955811134129537 -1.4447868803332595 1.011967322252668 -1.502503769864709 -0.8053556158384894 -0.3008366486775076
186 -0.29769080589418584 -1.444109209032373 1.0142012220750045 -1.5062111792867552 -0.7985096845960281 -0.29777350379225004
187 -0.29980424176300685 -1.443430599631686 1.016461724301399 -1.509962446647659 -0.791646838736821 -0.2947688824643092
188 -0.30192121452762716 -1.442751111366184 1.018748900165902 -1.5137579268861474 -0.7847676970416035 -0.29182330102019827
189 -0.30404151211652086 -1.442070804346342 1.0210627792689528 -1.5175979829374422 -0.7778729244475785 -0.28893728567643967
190 -0.3061649167552066 -1.4413897392891133 1.0234033543393102 -1.5214829846413176 -0.77096323498877 -0.286111371932335
191 -0.3082912048410356 -1.4407079773041491 1.0257705846103815 -1.5254133077534426 -0.7640393945159203 -0.2833461039548833
192 -0.3104201468171572 -1.4400255797237815 1.0281643981274096 -1.5293893330205284 -0.7571022232458542 -0.28064203394319076
193 -0.31255150704672413 -1.439342607968028 1.0305846932293867 -1.5334114452880487 -0.7501525981770459 -0.27799972146168705
194 -0.31468504368832984 -1.4386591234379753 1.0330313393937487 -1.5374800326156162 -0.7431914553976792 -0.27541973273294273
195 -0.3168205085736194 -1.4379751874325009 1.035504177589041 -1.541595485379933 -0.7362197923041578 -0.27290263988198354
196 -0.3189576470879889 -1.4372908610845172 1.038003020247859 -1.545758195348941 -0.7292386697413387 -0.2704490201248089
197 -0.3211255447311524 -1.4366751469913703 1.040399100500277 -1.5499876668573342 -0.7222366399630644 -0.26805945489441346
198 -0.32329466655638545 -1.4360566804712256 1.0428664477731788 -1.5542596634569485 -0.7152372755519202 -0.2657331112311813
199 -0.32546467439951415 -1.435435981210784 1.045393592258052 -1.5585757728627816 -0.7082394725444491 -0.26347087063444846
200 -0.3275164250574612 -1.4349174252009904 1.0478398704841456 -1.5629473312809712 -0.7011914421120661 -0.26127353979553886
201 -0.32957029878752536 -1.4343946960289817 1.050387381123281 -1.567359068942943 -0.6941621021480399 -0.2591417998981832
202 -0.33162588857197883 -1.433868671215167 1.0530166691611211 -1.5718132881732771 -0.687148794568043 -0.2570766300416161
203 -0.3336828029989212 -1.4333400329856971 1.0557128393391575 -1.576311792322987 -0.6801498952443176 -0.2550788759490405
204 -0.33574066051344514 -1.4328093150311767 1.0584644527217746 -1.580856001681861 -0.6731645898353191 -0.25314928086860955
205 -0.3377990851997043 -1.4322769381421072 1.0612626868894715 -1.5854470416377178 -0.6661927017305699 -0.2512885082016849
206 -0.339857703672778 -1.4317432373559813 1.0641006969906037 -1.5900858094843342 -0.6592345600984946 -0.24949715797448657
207 -0.34191614278414645 -1.4312084826310014 1.0669731297761436 -1.5947730248440697 -0.6522908987344713 -0.24777577869717604
208 -0.34397402792966675 -1.4306728945860412 1.0698757541139692 -1.5995092675386526 -0.6453627785200303 -0.2461248757464964
209 -0.34605012275595465 -1.4300732259177693 1.0729290395331623 -1.6042763881438276 -0.6384774310633881 -0.24454491711356421
210 -0.34812493859642707 -1.4294746189504828 1.0759618794331327 -1.609098862072815 -0.6315987131058964 -0.2430372884394357
211 -0.3501980995888369 -1.4288767810202734 1.078982912628747 -1.613975846157443 -0.6247308592033709 -0.24160215305889987
212 -0.35226921987123894 -1.42827950862681 1.0819984694729043 -1.6189067215160169 -0.6178776738621263 -0.24023971352684598
213 -0.3543379044429756 -1.4276826660773145 1.0850131192677086 -1.6238910311680226 -0.6110426508854638 -0.23895019487383284
214 -0.3564037498960104 -1.4270861692610104 1.0880300860305112 -1.6289284321664081 -0.604229064123116 -0.2377338311731696
215 -0.35846634503874214 -1.4264899733326977 1.091051564122554 -1.6340186586917702 -0.5974400362495269 -0.23659085461812857
216 -0.360525271435518 -1.4258940633722583 1.0940789577637722 -1.6391614934270105 -0.5906785906399683 -0.23552148648788127
217 -0.3625801038832039 -1.4252984473076682 1.0971130627381958 -1.6443567451886774 -0.5839476902222553 -0.23452592952446355
218 -0.3646304108431927 -1.424703150558023 1.1001542042280532 -1.6496042312872654 -0.5772502662701922 -0.2336043613563602
219 -0.36667575484406867 -1.4241082119822146 1.1032023413837926 -1.6549037634637722 -0.5705892394073196 -0.2327569286928316
220 -0.36871569286721945 -1.4235136808175197 1.1062571466980282 -1.6602551365338212 -0.5639675345560141 -0.23198374208191694
221 -0.3707497767251623 -1.4229196143676135 1.1093180663169406 -1.665658119086066 -0.5573880911592335 -0.23128487107837414
222 -0.3727775534402531 -1.42232607625692 1.1123843659497046 -1.6711124457451754 -0.5508538696909311 -0.23066033970910327
223 -0.3747985656297475 -1.4217331351119487 1.1154551659155505 -1.6766178106340608 -0.5443678552338982 -0.23011012215559531
224 -0.3768123519018217 -1.4211408635635883 1.1185294680153277 -1.682173861764642 -0.5379330587233297 -0.22963413859780676
225 -0.37881844726607394 -1.4205493374897142 1.121606176265992 -1.687780196158534 -0.5315525163175109 -0.229232251183253
226 -0.3808163835611578 -1.4199586354367786 1.1246841130434644 -1.693436355553956 -0.5252292872535285 -0.22890426010032153
227 -0.3828056899014961 -1.4193688381737748 1.1277620318046144 -1.6991418225970316 -0.5189664504680194 -0.22864989974680372
228 -0.3847858931444384 -1.418780028343175 1.1308386272743054 -1.704896017447518 -0.512767100204657 -0.22846883499416318
229 -0.38675651837873554 -1.418192290181978 1.1339125437669557 -1.7106982947532319 -0.5066343407867202 -0.22836065755564777
230 -0.3887170894347666 -1.4176057092925238 1.1369823821474454 -1.7165479409657525 -0.5005712807011078 -0.22832488247241117
231 -0.3906671294165628 -1.4170203724477157 1.1400467058109487 -1.7224441719837318 -0.4945810261167882 -0.22836094473663024
232 -0.39260616125529973 -1.4164363674190905 1.1431040459659108 -1.728386131120286 -0.4886666739437754 -0.22846819607439384
233 -0.3945337082835761 -1.4158537828191204 1.1461529064316958 -1.7343728873982753 -0.48283130452661216 -0.22864590191404138
234 -0.3964492948294426 -1.415272707951373 1.1491917681069477 -1.7404034341823185 -0.4770779740577549 -0.22889323856774174
235 -0.39835244682880117 -1.4146932326639003 1.1522190932222884 -1.746476688159599 -0.4714097067901402 -0.22920929065549112
236 -0.40024269245444527 -1.4141154472025885 1.155233329458489 -1.7525914886832088 -0.4658294871238199 -0.22959304880141282
237 -0.4021195627596724 -1.4135394420622442 1.1582329139863268 -1.758746597492204 -0.46034025163823317 -0.23004340763228928
238 -0.4040851988300011 -1.4128651207065295 1.161312153316546 -1.7649356501544267 -0.4549826618820456 -0.23055916410766872
239 -0.40603416288561023 -1.4121949051538667 1.1643243665485687 -1.7711694142032384 -0.44970433326453435 -0.2311396919916653
240 -0.4079660149699157 -1.4115283883647465 1.1672808021198569 -1.7774450487846756 -0.4445116634097093 -0.23178347480220557
241 -0.4098803159148954 -1.410865288259506 1.1701894849289496 -1.7837599930338535 -0.4394101214259016 -0.2324889538733916
242 -0.41177662898207873 -1.4102054163965334 1.1730560271800006 -1.7901118772365736 -0.43440445138804745 -0.23325451142352344
243 -0.41365452137428027 -1.409548654349953 1.1758842381164536 -1.7964984571045446 -0.429498824075264 -0.23407845823434686
244 -0.4155135656076265 -1.4088949359003518 1.1786765825191425 -1.8029175654407434 -0.42469694976239714 -0.23495902492607804
245 -0.4173533407506237 -1.4082442336079177 1.1814345255494403 -1.8093670769294552 -0.42000216175341953 -0.2358943560588798
246 -0.4191733449609234 -1.4075881496001639 1.1841695451993621 -1.815843839439304 -0.4154196057739414 -0.23688250648027606
247 -0.4209733026857317 -1.4069352827989867 1.1868664183703475 -1.8223474762299043 -0.41094859255447036 -0.237921591473683
248 -0.42275281676590526 -1.4062856268608217 1.1895261103202757 -1.8288757290672706 -0.40659196606757775 -0.23900946240561663
249 -0.4245115000767569 -1.405639197735202 1.1921490013319174 -1.8354263527152286 -0.402352275869397 -0.24014388482285876
250 -0.4262489763878252 -1.4049960274566486 1.19473504591388 -1.8419971021927275 -0.39823181480678893 -0.24132253888661057
251 -0.42796488112926506 -1.4043561594538587 1.1972838927466514 -1.8485857247339388 -0.39423264683136916 -0.24254302105270995
252 -0.42965886207209286 -1.4037196449994542 1.199794975168643 -1.8551899553217153 -0.3903566275315766 -0.24380284678088116
253 -0.43133057992786517 -1.4030865405173485 1.202267579544475 -1.8618075149354367 -0.3866054193468651 -0.24509945410127176
254 -0.4329797088719948 -1.4024569055354215 1.2047008970163577 -1.8684361108566396 -0.38298050293840635 -0.2464302078993687
255 -0.43460593699386274 -1.4018308011243077 1.2070940627578952 -1.8750734385274987 -0.37948318582011387 -0.24779240480408443
256 -0.43620896667616244 -1.4012082887030002 1.2094461858138534 -1.8817171845711436 -0.37611460907333955 -0.24918327858087133
257 -0.4404702237419825 -1.4004308739840712 1.2122232215315631 -1.8884646039672897 -0.37385589453223755 -0.2506000059440477
258 -0.444481567343632 -1.3996786633871017 1.2147116325095797 -1.8952303324968918 -0.3715295258602204 -0.2520161438523641
259 -0.44825849867056006 -1.3989480461920127 1.2169887575009772 -1.9020027598193527 -0.36916908055276015 -0.2534306682879212
260 -0.4518152912179643 -1.3982362770599488 1.2191103827129137 -1.9087729927678825 -0.36680132144182254 -0.2548427184016353
261 -0.45516513588709817 -1.3975412496336457 1.2211164918435438 -1.91553413875767 -0.3644477495611665 -0.256251492345447
262 -0.4583202592828177 -1.3968613292854846 1.2230355059437101 -1.9222807849613441 -0.3621257757334268 -0.25765617704860266
263 -0.4612920213881983 -1.3961952299992881 1.2248874059689752 -1.9290086180076667 -0.35984960575930824 -0.2590559024869021
264 -0.464090997324256 -1.3955419239378695 1.2266860303131288 -1.9357141452192925 -0.3576309110285724 -0.2604497135511759
265 -0.4667270467494148 -1.3949005751003767 1.2284407639098898 -1.942394489661874 -0.35547933852257796 -0.26183655449480286
266 -0.46924150300492545 -1.394323768768289 1.2300926806220296 -1.9490538548542398 -0.3533934581021366 -0.2632152623046887
267 -0.4716892806844704 -1.3937004947475848 1.2317526638668 -1.9556809356083664 -0.35141578755376013 -0.26458333717782045
268 -0.4739923649779549 -1.3930860533944946 1.2333831309837089 -1.9622756725207118 -0.34952194033715017 -0.2659395925132422
269 -0.4761587076705315 -1.3924801504254252 1.2349846309752257 -1.9688365801290455 -0.3477167423780519 -0.2672827028706797
270 -0.47822711015865244 -1.3918657184523122 1.2366150960418183 -1.9753542525084689 -0.3460168723313599 -0.26861124498407996
271 -0.4801714459244933 -1.3912590413093893 1.238197904343946 -1.9818380165343896 -0.34440693672824546 -0.2699240513485832
272 -0.4819984025850366 -1.3906597835673333 1.2397367635886427 -1.9882862262907195 -0.3428911533754615 -0.27121949625936403
273 -0.4837142390084153 -1.390067661274521 1.2412340842377045 -1.9946974620446283 -0.3414729067061756 -0.2724959039494123
274 -0.4853248170115146 -1.3894824287598266 1.2426913577617722 -2.0010704822805585 -0.3401548912317705 -0.27375155461381595
275 -0.48683562969847777 -1.3889038689634523 1.2441094340702532 -2.0074041882193714 -0.33893922417481304 -0.27498469142187115
276 -0.48825182701939285 -1.3883317863659435 1.2454887244717479 -2.013697597604134 -0.3378275347410736 -0.2761935280385734
277 -0.48957823899631797 -1.387766001826936 1.246829349655333 -2.019949825364195 -0.33682103560940485 -0.2773762563154981
278 -0.4908193969644896 -1.3872063488246857 1.2481312471045585 -2.0261600693817177 -0.335920580816867 -0.2785310539121186
279 -0.49197955310178876 -1.386652670720677 1.2493942485996854 -2.03232760003815 -0.335126713171731 -0.27965609168244715
280 -0.4930626984631316 -1.3861048187723919 1.2506181356857202 -2.0384517525545585 -0.3344397035482345 -0.28074954071589164
281 -0.4940725796937667 -1.385562650690465 1.251802678929492 -2.044531921389977 -0.33385958383639736 -0.2818095789607082
282 -0.4950127145630323 -1.3850260295905488 1.2529476652698734 -2.050567556148418 -0.33338617488720146 -0.2828343973872646
283 -0.49588640643536663 -1.3844948232301837 1.2540529166418044 -2.0565581585844708 -0.3330191104702478 -0.28382220566931626
284 -0.4966967577763301 -1.3839689034504639 1.255118302223935 -2.0625032804015584 -0.3327578580195048 -0.2847712373766852
285 -0.49744668277665005 -1.383448145764029 1.2561437460452052 -2.0684025216149675 -0.3326017367620337 -0.28567975468363577
286 -0.49813891916576053 -1.3829324290469116 1.2571292312311881 -2.0742555293102827 -0.3325499336890535 -0.2865460526049523
287 -0.49877603927717995 -1.3824216353035186 1.2580748018348333 -2.0800619966718283 -0.3326015177268336 -0.287368462777074
288 -0.49936046042075555 -1.381915649482654 1.2589805629476076 -2.0858216621887706 -0.33275545238807835 -0.2881453568052253
289 -0.49989445461085896 -1.3814143593287826 1.2598466796031182 -2.0915343089713816 -0.3330106071263193 -0.28887514919975243
290 -0.5003801576947178 -1.3809176552573337 1.2606733748493086 -2.0971997641286735 -0.3333657675716145 -0.2895562999261718
291 -0.5008195779209662 -1.38042543024619 1.261460927264764 -2.1028178981726793 -0.3338196447920517 -0.29018731659400526
292 -0.5012146039850132 -1.3799375797379108 1.2622096681203474 -2.108388624425204 -0.33437088369954593 -0.290766756309511
293 -0.5015670125848235 -1.3794540015489891 1.2629199783324832 -2.1139118984107843 -0.3350180706982718 -0.29129322721705947
294 -0.5018784755180846 -1.3789745957836739 1.2635922853138764 -2.119387717225494 -0.33575974065831893 -0.2917653897532582
295 -0.5021505663494146 -1.3784992647507748 1.2642270597975602 -2.124816118875608 -0.33659438328474617 -0.29218195763708243
296 -0.5023847666741953 -1.3780279128824784 1.2648248126881294 -2.1301971815833483 -0.3375204489423089 -0.29254169861828033
297 -0.5025824720037523 -1.3775604466546334 1.2653860919778228 -2.1355310230592717 -0.33853635398817133 -0.2928434350052429
298 -0.5027449972949067 -1.377096774508248 1.2659114797532225 -2.1408177997425155 -0.3396404856584155 -0.2930860439923917
299 -0.5028735821453792 -1.3766368067721335 1.2664015893096232 -2.14605770601127 -0.34083120654881016 -0.293268457805977
300 -0.5029693956751055 -1.3761804555867445 1.266857062383773 -2.1512509733666043 -0.34210685872582935 -0.29338966368601005
301 -0.5030335411122129 -1.3757276348293421 1.2672785665110744 -2.1563978695932398 -0.34346576750014046 -0.29344870372089504
302 -0.5030670601012001 -1.375278260040638 1.2676667925099958 -2.1614986979011195 -0.3449062448915573 -0.29344467455019346
303 -0.5030709367497365 -1.3748322483530941 1.2680224520940615 -2.1665537960516836 -0.34642659281167104 -0.29337672694984973
304 -0.5030461014294583 -1.374389518421051 1.268346275610101 -2.171563535472744 -0.34802510598794695 -0.29324406531314573
305 -0.5029934343451692 -1.3739499903528438 1.2686390099002496 -2.176528320365702 -0.3497000746509375 -0.29304594703963144
306 -0.5029137688859517 -1.3735135856450542 1.2689014162844043 -2.1814485868086786 -0.3514497870043726 -0.29278168184330844
307 -0.5028078947708531 -1.3730802271190197 1.269134268659298 -2.1863248018588695 -0.35327253149619375 -0.2924506309904205
308 -0.502676561001028 -1.372649838859706 1.269338351710032 -2.191157462657207 -0.3551665989070797 -0.29205220647633423
309 -0.5025204786294885 -1.3722223461570238 1.2695144592297205 -2.195947095538105 -0.35713028427163945 -0.29158587015017196
310 -0.5023403233589273 -1.371797675449656 1.2696633925428218 -2.2006942551468085 -0.35916188864620174 -0.29105113279508943
311 -0.5021367379774468 -1.3713757542714344 1.2697859590277238 -2.205399523566566 -0.36125972073599577 -0.29044755317137116
312 -0.5019103346414283 -1.3709565112002973 1.2698829707341992 -2.210063509457584 -0.3634220983934827 -0.2897747370288435
313 -0.5016616970142211 -1.3705398758098362 1.269955243091425 -2.2146868472094616 -0.3656473499986466 -0.28903233609448375
314 -0.5013913822688135 -1.3701257786234302 1.270003593702376 -2.2192701961085373 -0.3679338157311845 -0.28822004704052256
315 -0.5010999229621601 -1.369714151070953 1.2700288412205183 -2.223814239521364 -0.3702798487437331 -0.2873376104378038
316 -0.5007878287883872 -1.369304925448025 1.2700318043048648 -2.228319684095294 -0.3726838162445344 -0.286384809698672
317 -0.5004555882176771 -1.368898034877778 1.2700133006495928 -2.2327872589769617 -0.3751441004972612 -0.28536147001320383
318 -0.50010367002723 -1.368493413275085 1.2699741460845688 -2.2372177150492667 -0.3776590997451 -0.2842674572821842
319 -0.4997325247303375 -1.3680909953132094 1.2699151537432596 -2.2416118241872836 -0.38022722906560813 -0.28310267704984765
320 -0.4993425859092524 -1.3676907163928136 1.2698371332946552 -2.2459703785333818 -0.3828469211623319 -0.2818670734390566
321 -0.4989342714572142 -1.367292512613265 1.2697408902359575 -2.250294189791698 -0.3855166270986758 -0.28056062809127447
322 -0.49850798473468855 -1.3668963207461766 1.2696272252429313 -2.2545840885419874 -0.38823481697906237 -0.2791833591134023
323 -0.498064115644593 -1.3665020782111106 1.2694969335749335 -2.2588409235727642 -0.3909999805819981 -0.27773532003329054
324 -0.49760304163101626 -1.3661097230533716 1.2693508045317672 -2.2630655612335655 -0.3938106279492751 -0.2762165987655016
325 -0.497125128605688 -1.3657191939238171 1.2691896209596278 -2.2672588848060786 -0.39666528993517935 -0.2746273165886894
326 -0.4966307318062239 -1.365330430060607 1.2690141588035209 -2.2714217938938104 -0.3995625187192437 -0.27296762713577283
327 -0.49612019658995 -1.3649433712728134 1.2688251867036435 -2.275555203829928 -0.402500888285781 -0.271237715397912
328 -0.49559385916690635 -1.3645579579258125 1.268623465633334 -2.279660045102836 -0.4054789948731472 -0.26943779674314566
329 -0.49505204727543667 -1.364174130928378 1.2684097485762904 -2.283737262799042 -0.4084954573954276 -0.26756811595041513
330 -0.4944950808035895 -1.363791831721395 1.2681847802408637 -2.2877878160628136 -0.4115489178389956 -0.2656289462595841
331 -0.4939232723593866 -1.363411002268115 1.267949296809323 -2.2918126775721186 -0.4146380416361756 -0.2636205884379588
332 -0.49333692779285454 -1.3630315850458687 1.2677040257200851 -2.2958128330303325 -0.4177615180180342 -0.26154336986372523
333 -0.4927363466725654 -1.3626535230391594 1.2674496854809885 -2.2997892806731697 -0.4209180603481387 -0.25939764362664086
334 -0.49212182271929056 -1.3622767597340548 1.2671869855117743 -2.3037430307903173 -0.42410640643894776 -0.2571837876462527
335 -0.491493644199239 -1.361901239113798 1.2669166260140243 -2.307675105261231 -0.42732531885233827 -0.254902203807855
336 -0.4908520942792258 -1.3615269056555617 1.2666392978668792 -2.311586537104578 -0.4305735851856294 -0.25255331711635376
337 -0.49019745134599857 -1.3611537043282658 1.2663556825469424 -2.315478370040796 -0.43385001834432674 -0.2501375748681638
338 -0.4895299892918378 -1.360781580591382 1.2660664520708407 -2.3193516580672875 -0.43715345680268725 -0.24765544584123253
339 -0.48884997776844175 -1.3604104803946535 1.2657722689589959 -2.3232074650457397 -0.44048276485309246 -0.24510741950325818
340 -0.48815768241100754 -1.3600403501786524 1.2654737862192154 -2.3270468643011166 -0.4438368328451108 -0.24249400523815073
341 -0.4874533650343248 -1.3596711368761072 1.265171647348789 -2.3308709382318624 -0.4472145774150372 -0.23981573159076885
342 -0.4867372838026111 -1.3593027879139254 1.264866486353837 -2.3346807779308865 -0.4506149417066071 -0.2370731455299566
343 -0.4860096933747326 -1.3589352512158486 1.2645589277847158 -2.3384774828169195 -0.45403689558350413 -0.23426681172989808
344 -0.48527084502637324 -1.3585684752056666 1.264249586786353 -2.3422621602758475 -0.4574794358342036 -0.23139731186980697
345 -0.48452098675064265 -1.358202408810932 1.2639390691624357 -2.3460359253116554 -0.4609415863696299 -0.2284652439519692
346 -0.48376036333853695 -1.357837001467109 1.2636279714524363 -2.349799900206632 -0.4644223984140401 -0.2254712216381625
347 -0.4829892164406027 -1.3574722031220985 1.2633168810205138 -2.353555214190504 -0.4679209506894917 -0.22241587360448384
348 -0.48220778461108593 -1.3571079642410768 1.2630063761553778 -2.3573030031181954 -0.471436349594198 -0.21929984291462654
349 -0.4814163033357884 -1.356744235811597 1.262697026180264 -2.3610444091559146 -0.4749677293750286 -0.21612378641166055
350 -0.4806150050447945 -1.3563809693488953 1.2623893915722018 -2.3647805804753057 -0.47851425229436534 -0.21288837412838432
351 -0.4798041191111752 -1.3560181169013514 1.262084024089823 -2.3685126709553996 -0.48207510879148613 -0.20959428871633234
352 -0.4789838718367233 -1.3556556310560552 1.2617814669089917 -2.3722418398921308 -0.48564951763861 -0.20624222489354077
353 -0.478154486425723 -1.355293464944429 1.2614822547655842 -2.3759692517151887 -0.48923672609170077 -0.2028328889111921
354 -0.4773161829477092 -1.354931572247865 1.2611869141047973 -2.3796960757119905 -0.49283601003609706 -0.19936699803928093
355 -0.4764691782901242 -1.3545699072033317 1.260895963236395 -2.3834234857585703 -0.4964466741270025 -0.19584528007146393
356 -0.47561368610173704 -1.3542084246089114 1.2606099124953527 -2.3871526600571866 -0.5000680519248449 -0.19226847284928064
357 -0.4747499167276491 -1.3538470798292292 1.2603292644073878 -2.3908847808804605 -0.5036995060254843 -0.18863732380595485
358 -0.47387807713666674 -1.35348582880074 1.2600545138589132 -2.3946210343218577 -0.5073404281852234 -0.18495258953001165
359 -0.47299837084178736 -1.3531246280368392 1.2597861482709753 -2.398362610052329 -0.5109902394405537 -0.18121503534897054
360 -0.4721109978145061 -1.3527634346327646 1.2595246477767783 -2.40211070108293 -0.5146483902225414 -0.1774254349334018
361 -0.4712161543936164 -1.3524022062702652 1.2592704854024281 -2.405866503533225 -0.5183143604657383 -0.17358456992166046
362 -0.4703140331891453 -1.3520409012220047 1.2590241272505571 -2.4096312164052964 -0.5219876597114781 -0.16969322956564087
363 -0.46940482298203157 -1.3516794783556811 1.2587860326865246 -2.4134060413631464 -0.5256678272053983 -0.16575221039792296
364 -0.468488708620126 -1.3513178971378357 1.2585566545269093 -2.417192182517295 -0.5293544319890018 -0.16176231592071222
365 -0.46756587091106366 -1.3509561176373337 1.2583364392300433 -2.4209908462143446 -0.5330470729850529 -0.157724356317005
366 -0.4666364865125313 -1.350594100528499 1.2581258270883526 -2.424803240831275 -0.5367453790765777 -0.15363914818444252
367 -0.4657007278204276 -1.3502318070938857 1.2579252524223008 -2.4286305765742187 -0.540449009179214 -0.14950751429234907
368 -0.4647587628553894 -1.3498691992266745 1.2577351437757447 -2.4324740652814287 -0.5441576523066336 -0.1453302833624823
369 -0.4638107551481342 -1.349506239432679 1.2575559241125345 -2.4363349202301476 -0.5478710276287294 -0.14110828987405782
370 -0.46285686362404743 -1.3491428908319558 1.2573880110142064 -2.440214355947043 -0.5515888845222365 -0.13684237389364395
371 -0.4618972424874236 -1.3487791171600085 1.2572318168786307 -2.4441135880218483 -0.555311002613427 -0.13253338093055808
372 -0.4609320411057499 -1.3484148827685773 1.2570877491194905 -2.4480338329238096 -0.5590371918124827 -0.1281821618184316
373 -0.4599614038944052 -1.3480501526260145 1.2569562103664806 -2.451976307820516 -0.5627672923391247 -0.12378957262364723
374 -0.4589854702021289 -1.347684892317239 1.2568375986661178 -2.4559422303986174 -0.5665011747390372 -0.11935647458138929
375 -0.4580043741976012 -1.3473190680432736 1.25673230768307 -2.459932818685925 -0.5702387398905889 -0.1148837340600856
376 -0.45701824475746117 -1.34695264662036 1.2566407269019109 -2.4639492908743095 -0.5739799190013147 -0.11037222255505803
377 -0.45602720535607616 -1.3465855954786605 1.2565632418292059 -2.4679928651427674 -0.5777246735935756 -0.1058228167122372
378 -0.45503137395736737 -1.3462178826605473 1.2565002341958444 -2.472064759479973 -0.5814729954787702 -0.10123639838283646
379 -0.4540308629089841 -1.3458494768184872 1.2564520821595246 -2.4761661915055524 -0.5852249067194197 -0.0966138547099193
380 -0.4530257788391113 -1.3454803472125276 1.2564191605072887 -2.480298378289262 -0.5889804595783963 -0.09195607824783393
381 -0.45201622255618984 -1.3451104637073972 1.2564018408580113 -2.4844625361671695 -0.5927397364545044 -0.08726396711552847
382 -0.45100228895182015 -1.3447397967692292 1.2564004918647196 -2.488659880553854 -0.5965028498035655 -0.08253842518479879
383 -0.4499840669071187 -1.3443683174619219 1.2564154794166182 -2.49289162574956 -0.6002699420440868 -0.07778036230455992
384 -0.44896163920279136 -1.3439959974431523 1.2564471668406774 -2.497158984741138 -0.6040411854465244 -0.07299069456226949
385 -0.44793508243318864 -1.3436228089600581 1.2564959151026154 -2.501463168995515 -0.6078167820050752 -0.0681703445836681
386 -0.4469044669246053 -1.3432487248446077 1.2565620830070925 -2.5058053882443185 -0.6115969632908457 -0.06332024187203625
387 -0.4458698566580913 -1.342873718508678 1.256646027396903 -2.510186850258175 -0.6153819902851624 -0.05844132318820041
388 -0.44483130919704245 -1.3424977639388644 1.2567481033509216 -2.514608760609071 -0.619172153191687 -0.053534532972550425
389 -0.44378887561984415 -1.342120835691045 1.2568686643805322 -2.5190723224190408 -0.6229677712259053 -0.04860082381035787
390 -0.44274260045784897 -1.341742908884726 1.2570080626242204 -2.5235787360933077 -0.6267691923804449 -0.04364115694170724
391 -0.4416925216389758 -1.3413639591971984 1.2571666490399807 -2.528129199035851 -0.6305767931645633 -0.038656502817370264
392 -0.4406386704372297 -1.3409839628575362 1.2573447735951326 -2.5327249053452237 -0.6343909783160264 -0.03364784170196615
393 -0.4395810714284515 -1.340602896640467 1.2575427854530972 -2.5373670454882755 -0.6382121804834636 -0.028616164325755873
394 -0.43851974245262115 -1.340220737860154 1.2577610331566214 -2.5420568059492625 -0.6420408598771497 -0.023562472586417124
395 -0.43745469458305386 -1.3398374643639235 1.2579998648068889 -2.5467953688516447 -0.6458775038860158 -0.018487780302134858
396 -0.4363859321028446 -1.3394530545259797 1.2582596282378746 -2.5515839115496743 -0.6497226266585384 -0.013393114017320896
397 -0.43531345248893644 -1.33906748724115 1.2585406711852403 -2.5564236061866783 -0.6535767686449866 -0.008279513862242066
398 -0.4342372464042098 -1.3386807419187046 1.258843341448983 -2.5613156192167312 -0.6574404960983454 -0.0031480344677886213
399 -0.43315729769801103 -1.3382927984762982 1.2591679870489694 -2.5662611108861815 -0.6613144005310432 0.002000254063448989
400 -0.4320735834155665 -1.337903637334086 1.2595149563723924 -2.571261234671284 -0.6651990981244309 0.007164265128708496
401 -0.4309860738167529 -1.3375132394090652 1.2598845983120945 -2.576317136667934 -0.6690952290877626 0.012342894538205147
402 -0.4298947324047256 -1.3371215861096994 1.2602772623945928 -2.5814299549292725 -0.6730034569632221 0.01753501936904254
403 -0.4287995159649372 -1.3367286593308827 1.2606932988965351 -2.586600818746667 -0.6769244678733375 0.022739496759176313
404 -0.4277003746151113 -1.3363344414493081 1.26113305894819 -2.5918308478693324 -0.680858969706907 0.027955162640902163
405 -0.4265972518667717 -1.3359389153193013 1.261596894622455 -2.5971211516575816 -0.6848076912393415 0.033180830413550834
406 -0.4254900846989649 -1.3355420642691882 1.2620851590077289 -2.6024728281644562 -0.6887713811831137 0.03841528955532074
407 -0.42437880364484903 -1.335143872098266 1.2625982062628534 -2.6078869631402126 -0.6927508071637748 0.043657304174465617
408 -0.4232633328918675 -1.334744323074447 1.263136391652182 -2.613364628953898 -0.6967467546167888 0.04890561150038551
409 -0.42214359039626037 -1.3343434019326532 1.2637000715586795 -2.6189068834260056 -0.7007600256002113 0.05415892031554701
410 -0.4210194880127141 -1.3339410938740348 1.2642896034727888 -2.6245147685659536 -0.7047914375180395 0.05941590932958969
411 -0.4198909316399899 -1.333537384566089 1.2649053459546407 -2.63018930920794 -0.7088418217488585 0.06467522549746282
412 -0.4187578213834151 -1.333132260143762 1.2655476585669976 -2.635931511538506 -0.7129120221742324 0.06993548228398459
413 -0.4176200517351651 -1.3327257072116114 1.266216901776156 -2.6417423615089968 -0.7170028936011276 0.07519525787783146
414 -0.4164775117733059 -1.3323177128471082 1.2669134368178363 -2.647622823125964 -0.7211153000725212 0.0804530933586507
415 -0.41533008538060767 -1.33190826460516 1.2676376255249169 -2.6535738366124804 -0.7252501130602546 0.08570749082175017
416 -0.41417765148418 -1.331497350523934 1.2683898301136753 -2.659596316433296 -0.7294082095341207 0.09095691146566076
417 -0.4130200843170145 -1.3310849591320553 1.2691704129250183 -2.665691149176795 -0.7335904699011782 0.09619977364879122
418 -0.41185725370255427 -1.3306710794572563 1.2699797361170053 -2.6718591912868144 -0.7377977758093203 0.10143445092240684
419 -0.41068902536343704 -1.3302557010365457 1.2708181613047929 -2.6781012666375705 -0.7420310078092492 0.10665927004826549
420 -0.4095152612555792 -1.3298388139279664 1.2716860491439688 -2.684418163945227 -0.7462910428691986 0.11187250901043669
421 -0.4083358199287842 -1.329420408723996 1.2725837588530922 -2.6908106340100244 -0.7505787517370323 0.11707239503211447
422 -0.4071505569150631 -1.329000476566646 1.2735116476711297 -2.6972793867834146 -0.7548949961447387 0.12225710260961001
423 -0.40595932514584904 -1.328579009164303 1.274470070245367 -2.7038250882553054 -0.7592406258508405 0.12742475157717256
424 -0.4047619753992719 -1.3281559988103384 1.2754593779452994 -2.710448357157334 -0.763616475516883 0.13257340521783276
425 -0.4035583567786251 -1.3277314384035144 1.2764799180979622 -2.717149761479072 -0.7680233614149411 0.13770106843708174
426 -0.40234831722311026 -1.327305321470186 1.27753203314016 -2.723929814795241 -0.7724620779640301 0.14280568601788335
427 -0.40113170405187726 -1.3268776421882926 1.2786160596831015 -2.7307889724034027 -0.7769333940944195 0.147885140977249
428 -0.39990836454228995 -1.3264483954131108 1.2797323274850592 -2.7377276272731526 -0.781438049440155 0.1529372530463693
429 -0.39867814654323663 -1.3260175767047229 1.2808811583278346 -2.744746105809711 -0.785976750361596 0.1579597772980697
430 -0.39744089912416725 -1.3255851823571332 1.2820628647930696 -2.7518446634368097 -0.7905501658014922 0.16295040294711252
431 -0.396196473260374 -1.3251512094289437 1.2832777489347718 -2.7590234800061313 -0.7951589229800627 0.16790675235057334
432 -0.3949447225548378 -1.3247156557754753 1.2845261008448452 -2.7662826550430664 -0.799803602936697 0.17282638023713878
433 -0.3936855039967323 -1.324278520082197 1.2858081971089599 -2.7736222028413846 -0.8044847359282893 0.1777067731956628
434 -0.39241867875641584 -1.3238398018993003 1.2871242991507261 -2.7810420474224418 -0.8092027966968373 0.18254534945463216
435 -0.3911441130164414 -1.3233995016772324 1.288474651462919 -2.788542017377816 -0.8139581996217577 0.18733945898527787
436 -0.38986167883777667 -1.3229576208029692 1.289859479725387 -2.7961218406177397 -0.8187512937754137 0.19208638396186836
437 -0.3885712550600506 -1.3225141616367948 1.2912789888103193 -2.803781139051333 -0.8235823579035534 0.19678333961317532
438 -0.3872727282342284 -1.3220691275493217 1.2927333606767226 -2.8115194232284364 -0.8284515953557264 0.201427475499147
439 -0.3859659935856629 -1.321622522958472 1.2942227521572771 -2.819336086976701 -0.8333591289942086 0.2060158772463947
440 -0.3846509560049808 -1.3211743533661158 1.2957472926422144 -2.8272304020714887 -0.8383049961135006 0.2105455687751292
441 -0.38332753106374046 -1.320724625394053 1.2973070816664622 -2.8352015129799883 -0.8432891434059934 0.21501351504861502
442 -0.3819956460512422 -1.3202733468190109 1.298902186408047 -2.843248431724675 -0.8483114220128611 0.21941662537398116
443 -0.3806552410282934 -1.3198205266063292 1.3005326391076106 -2.8513700329147573 -0.8533715827025581 0.22375175728028945
444 -0.3793062698931337 -1.3193661749420018 1.302198434420868 -2.859565048997455 -0.858469271222386 0.22801572099607437
445 -0.3779487014541154 -1.3189103032627532 1.3038995267178892 -2.8678320657837353 -0.8636040238713604 0.23220528454410375
446 -0.37658252050312263 -1.3184529242838428 1.3056358273452064 -2.8761695183053995 -0.8687752633449433 0.23631717946585867
447 -0.37520772888311066 -1.317994052024315 1.3074072018688763 -2.8845756870620423 -0.8739822949040271 0.24034810718220115
448 -0.37382434654256225 -1.3175337018294346 1.3092134673187636 -2.8930486947173035 -0.8792243029217397 0.24429474598992007
449 -0.37243241256910875 -1.3170718903900942 1.3110543894563715 -2.9015865033038803 -0.8845003478621097 0.24815375868637518
450 -0.3710319861940593 -1.3166086357590152 1.3129296800905024 -2.9101869119959156 -0.8898093637442854 0.2519218008063751
451 -0.3696231477591396 -1.3161439573636182 1.3148389944668433 -2.918847555505498 -0.8951501561447589 0.2555955294468373
452 -0.36820599963637385 -1.3156778760154921 1.3165754700951458 -2.9292175724691143 -0.901457736106885 0.2548933373431115
453 -0.36676418872502403 -1.3152041755387744 1.318566287044339 -2.9394016384854065 -0.9077792447958587 0.25420764474720153
454 -0.3652983961987497 -1.314725965590949 1.3207254801009145 -2.949420910294319 -0.9141015665815454 0.253536640578647
455 -0.3638097801382808 -1.31424531888589 1.3229942047092818 -2.9592905427475755 -0.9204151267259167 0.2528784583553273
456 -0.3622997927877007 -1.313763606616563 1.325332178554579 -2.969021417103019 -0.926712633231154 0.2522312332846278
457 -0.3607700577495209 -1.313281724781802 1.327711812792941 -2.9786214150943784 -0.9329883068589486 0.2515931299187758
458 -0.3592222877170078 -1.312800247546468 1.3301141921907205 -2.988096329937062 -0.9392373998223134 0.2509623579214951
459 -0.3576582296203703 -1.3123195314426563 1.332526323940381 -2.9974505060012215 -0.945455889336771 0.2503371825630235
460 -0.3560796283076102 -1.311839786289856 1.3349392560494822 -3.006687282889602 -0.9516402793394101 0.24971593235120088
461 -0.3544882027505815 -1.3113611235105438 1.3373467912925543 -3.01580930148991 -0.9577874703023205 0.24909700467537774
462 -0.35288563070842693 -1.3108835890599297 1.3397446088117873 -3.024818713927131 -0.9638946725254526 0.24847886983395084
463 -0.351273539094875 -1.3104071858686268 1.342129664596008 -3.033717327201137 -0.9699593475100328 0.24786007367465307
464 -0.34965349818578684 -1.3099318891307017 1.3444997826490717 -3.0425067013477354 -0.97597916763708 0.2472392390466668
465 -0.34802701840591965 -1.3094576567076215 1.346853376482139 -3.05118821655632 -0.9819519878742053 0.24661506625646265
466 -0.34639554884186063 -1.3089844361965908 1.3491892596287642 -3.059763119172663 -0.9830547684497578 0.24547116008087508
467 -0.3448665598303343 -1.3085037927129117 1.3515646272959374 -3.0682265131236526 -0.9891809604437795 0.24479721050079895
468 -0.3433218985180297 -1.3080258211034157 1.3538945683593009 -3.076585214409267 -0.9903962621210086 0.2436486294339408
469 -0.3418709469445041 -1.3075419437667744 1.356241608828344 -3.0848312556627024 -0.9966238192059024 0.24292978844174684
470 -0.3403962789670234 -1.3070616224830651 1.3585317700773283 -3.092972852596138 -0.9979270779856091 0.24178122810316777
471 -0.339008339949377 -1.3065763599440208 1.3608275968898733 -3.1010004937248126 -0.9993339350004615 0.2406088899641997
472 -0.33769844924865655 -1.3060874216734455 1.3631122341883484 -3.1089123628517616 -1.0057582849918352 0.2398103071057505
473 -0.33635001304490225 -1.3056033573898267 1.3653259582254367 -3.1167201704703538 -1.007212854877067 0.23864656277108762
474 -0.33507577355534507 -1.3051158165013426 1.3675310470257498 -3.1244113191279954 -1.0087537076319557 0.23746345987752224
475 -0.3338683327026315 -1.3046257645606736 1.3697154489777013 -3.131984918222586 -1.0103721238408572 0.23626372619380745
476 -0.33272104034257327 -1.3041339543566544 1.3718710619515642 -3.1394401676886132 -1.0120602280012825 0.23504967230459067
477 -0.33162791228727934 -1.3036409802385422 1.3739925073244044 -3.146776469912068 -1.0187536098890724 0.23411664376008362
478 -0.3304740942183978 -1.3031541800486375 1.3760361229310172 -3.154011107347604 -1.0204304056813471 0.23292145874876738
479 -0.32937521011796467 -1.302665679614336 1.3780591299528957 -3.1611273959557322 -1.02216752278676 0.2317128242550736
480 -0.32832581006149075 -1.302176103521747 1.380054024077055 -3.168125922423612 -1.0239583995460735 0.23049240661808437
481 -0.3273209980465604 -1.3016859364843416 1.382015894788991 -3.175007240688 -1.0257970955563476 0.22926160653400537
482 -0.3263563717877276 -1.3011955593942925 1.3839416088947842 -3.1817719578087527 -1.027678210372222 0.22802160062246013
483 -0.32542797090316494 -1.3007052749766412 1.3858292519522266 -3.1884207781801313 -1.0295968193906155 0.22677337590557517
484 -0.324532231758967 -1.3002153262360392 1.3876777454479843 -3.194954521583688 -1.031548421874482 0.22551775867845375
485 -0.32366594771872575 -1.299725909874047 1.3894865838735833 -3.2013741253988477 -1.0335288977467 0.22425543884318822
486 -0.32282623387744613 -1.29923718617081 1.3912556537235532 -3.2076806377129388 -1.0355344708850196 0.22298699051760593
487 -0.32201049558777345 -1.2987492863605712 1.3929851085713867 -3.213875205651634 -1.0375616773725556 0.22171288955237198
488 -0.32121640024586323 -1.298262318214219 1.3946752826163018 -3.2199590616348823 -1.0396073376358081 0.2204335284627661
489 -0.3204418519165102 -1.2977763703258736 1.3963266306888549 -3.2259335091994967 -1.0416685317185623 0.21914922918621507
490 -0.31968496845755734 -1.2972915154521485 1.3979396865064335 -3.23179990933905 -1.0437425771509143 0.21786025400308437
491 -0.3189440608623238 -1.296807813150485 1.399515033557131 -3.2375596678708654 -1.0458270090143555 0.21656681490005675
492 -0.3182176145826648 -1.296325311892136 1.4010532847531794 -3.2432142240642547 -1.0479195619000732 0.21526908160868144
493 -0.31750427262888326 -1.2958440507760933 1.4025550681978196 -3.2487650405965898 -1.0500181535239137 0.21396718851368973
494 -0.3168028202691301 -1.2953640609357095 1.404021017231615 -3.2542135948060906 -1.0521208698079378 0.21266124059455638
495 -0.316112171172221 -1.2948853667054208 1.4054517634874464 -3.2595613711570226 -1.0542259512718113 0.21135131853814254
496 -0.3154313548553664 -1.2944079865976605 1.407410158602584 -3.2603120425488488 -1.0563208908132184 0.2109798044095622
497 -0.3147454296010347 -1.2939551200394006 1.4087307445779058 -3.2611343229164467 -1.058390977431315 0.21062760892706797
498 -0.31405701032036093 -1.2935193779213074 1.4096075059225526 -3.2620050817475312 -1.060439505422732 0.21028775061924895
499 -0.31336789615397925 -1.2930955337361643 1.4101758252989374 -3.2629079939934127 -1.0624689720656046 0.20995536738489995
500 -0.31267933289155586 -1.292679915487739 1.4105299085904712 -3.26383160805775 -1.0644812253177094 0.2096270800687149
501 -0.3119921883253764 -1.292269955977982 1.4107351724328963 -3.2647679248622627 -1.0664776166691894 0.209300543867153
502 -0.3113070704811574 -1.2918638667854456 1.4108369735520254 -3.2657113731878185 -1.0684591315115182 0.2089741338611543
503 -0.31062440791324936 -1.2914604052674326 1.4108667243676682 -3.2666580804161036 -1.0704264910748391 0.20864672539719706
504 -0.3099445045498369 -1.2910587097015682 1.4108461605435962 -3.2676053580830957 -1.0723802284686772 0.2083175411072646
505 -0.30926757732620624 -1.2906581834510442 1.4107903108056408 -3.2685513411558174 -1.0743207438439673 0.20798604454353958
506 -0.30859378210522803 -1.290258413971991 1.4107095596659405 -3.2694947361544546 -1.0762483437222123 0.20765186632227825
507 -0.30792323158996465 -1.2898591163772077 1.4106110781076213 -3.270434645793126 -1.078163268731633 0.20731475289137202
508 -0.3072560077421051 -1.289460094206895 1.4104998148584948 -3.2713704471494194 -1.080065713035235 0.20697453101790858
509 -0.30659217042061443 -1.2890612122078364 1.4103791826618892 -3.2723017071517795 -1.0819558378859062 0.2066310831862889
510 -0.30593176341426365 -1.2886623774691008 1.410251533088611 -3.273228124020028 -1.0838337810666303 0.20628433056231849
511 -0.3052748186737252 -1.2882635263610491 1.4101184848748334 -3.2741494867237195 -1.085699663464154 0.20593422120040267
512 -0.3046213592974181 -1.2878646154985456 1.409981150870441 -3.275065646933211 -1.0875535936529432 0.20558072188215265
513 -0.30397140165287145 -1.2874656154916404 1.4098402948448492 -3.275976499624238 -1.0893956711009023 0.20522381246900118
514 -0.3033249568969251 -1.2870665066254836 1.4096964397901754 -3.2768819696721905 -1.0912259884212474 0.2048634819945973
515 -0.3026820320765924 -1.2866672758746347 1.4095499426990736 -3.27778200258986 -1.093044632964151 0.20449972596079716
516 -0.3020426309362769 -1.286267914839898 1.4094010461780448 -3.2786765581301363 -1.0948516879508985 0.2041325444660838
517 -0.3014067545183492 -1.2858684183226878 1.4092499140604224 -3.2795656058688505 -1.096647233290381 0.20376194090957594
518 -0.3007744016174001 -1.2854687833398477 1.4090966559709792 -3.2804491221557712 -1.098431346174329 0.2033879210929558
519 -0.3001455691300738 -1.2850690084426983 1.4089413442638357 -3.2813270880106185 -1.100204101517751 0.20301049259745027
520 -0.29952025232966384 -1.2846690932461857 1.4087840256972088 -3.282199487671673 -1.1019655722904522 0.20262966435092086
521 -0.29889844508586677 -1.2842690381031163 1.408624729477149 -3.2830663075949373 -1.1037158297713265 0.20224544632635058
522 -0.2982801400440067 -1.2838688438785764 1.4084634727970209 -3.2839275357643034 -1.1054549437473782 0.20185784933115558
523 -0.29766532877383467 -1.283468511793543 1.408300264650371 -3.2847831612163705 -1.1071829826727215 0.20146688485929065
524 -0.29705400189508263 -1.283068043316283 1.4081351084537375 -3.285633173713388 -1.108900013798196 0.2010725649867847
525 -0.29644614918492146 -1.2826674400867772 1.4079680038494966 -3.286477563518417 -1.1106061032790548 0.2006749022973317
526 -0.29584175967105514 -1.2822667038639695 1.4077989479439714 -3.2873163212410206 -1.1123013162659985 0.20027390982870003
527 -0.29524082171319027 -1.2818658364888156 1.4076279361567456 -3.288149437731629 -1.1139857169833027 0.19986960103357976
528 -0.2946433230749239 -1.2814648398582698 1.4074549628024409 -3.2889769040094974 -1.1156593687967449 0.19946198975046173
529 -0.29404925098759616 -1.2810637159068605 1.4072800214885066 -3.2897987112138525 -1.1173223342733034 0.1990510901815036
530 -0.29345859220730275 -1.2806624665935415 1.4071031053865604 -3.290614850571053 -1.1189746752340872 0.19863691687527898
531 -0.2928713330660079 -1.280261093892219 1.4069242074168975 -3.291425313372814 -1.1206164528016023 0.19821948471295472
532 -0.29228745951751184 -1.2798595997848494 1.4067433203734365 -3.2922300909620836 -1.1222477274421958 0.1977988088968895
533 -0.29170695717889134 -1.2794579862563442 1.4065604370078548 -3.293029174724207 -1.123868559004349 0.19737490494095608
534 -0.2911298113679255 -1.2790562552907518 1.4063755500858122 -3.2938225560817616 -1.125479006753342 0.1969477886621033
535 -0.29055600713694385 -1.2786544088683471 1.406188652424122 -3.2946102264919324 -1.1270791294027331 0.19651747617282095
536 -0.28998552930346894 -1.2782524489633755 1.4059997369149537 -3.2953921774456534 -1.1286689851430036 0.19608398387427278
537 -0.2894183624779776 -1.2778503775422712 1.405808796541242 -3.296168400467977 -1.1302486316676814 0.1956473284499333
538 -0.28885449108906547 -1.2774481965622237 1.40561582438616 -3.296938887119302 -1.1318181261971991 0.19520752685961246
539 -0.2882938994062662 -1.277045907970008 1.4054208136386135 -3.2977036289971906 -1.1333775255007155 0.19476459633378648
540 -0.2877365715607489 -1.276643513701011 1.405223757596092 -3.298462617738613 -1.1349268859160992 0.194318554368176
541 -0.2871824915640937 -1.276241015678413 1.4050246496657877 -3.2992158450224722 -1.1364662633682523 0.19386941871852925
542 -0.28663164332532537 -1.2758384158124914 1.4048234833645983 -3.2999633025723387 -1.1379957133859255 0.19341720739557958
543 -0.28608401066636624 -1.2754357160000214 1.404620252318432 -3.3007049821593206 -1.1395152911171715 0.19296193866015396
544 -0.2855395773360553 -1.2750329181237583 1.4044149502610974 -3.301440875605031 -1.141025051343556 0.1925036310184153
545 -0.284998327022864 -1.2746300240519854 1.404207571032961 -3.3021709747846173 -1.1425250484932437 0.19204230321722504
546 -0.2844599423560901 -1.2742222038491051 1.4040141180571324 -3.3028845759319068 -1.1440189862851842 0.1915779742396155
547 -0.2839246376057387 -1.2738162456623432 1.4038056915046018 -3.303596987934193 -1.1455018065726732 0.19111097945565741
548 -0.2833924886800576 -1.2734119408430733 1.4035872056945335 -3.304307555434233 -1.1469736974713771 0.1906411438351579
549 -0.2828635501823628 -1.2730091447107794 1.4033620070934225 -3.3050158221763226 -1.148434819506241 0.1901683499168222
550 -0.28233786117763265 -1.2726077563144427 1.4031323719620739 -3.305721467962373 -1.1498853133189961 0.1896925197011193
551 -0.2818154492205208 -1.2722077046126665 1.402899846135254 -3.3064242655939875 -1.1513253049892327 0.18921360227587447
552 -0.28129633319141734 -1.2718089390362621 1.4026654770006448 -3.307124051465651 -1.1527549097256244 0.1887315653588303
553 -0.2807805253126582 -1.2714114230430238 1.4024299718688051 -3.307820705481415 -1.154174234443556 0.1882463895164917
554 -0.28026803259865884 -1.2710151297154793 1.4021938060835246 -3.308514137339025 -1.155583379580856 0.18775806421153463
555 -0.2797588579133573 -1.2706200387535318 1.4019572968170866 -3.309204277162466 -1.1569824403910425 0.18726658509957675
556 -0.2792530007536523 -1.27022613441952 1.401720653437909 -3.3098910691040095 -1.1583715078770203 0.1867719521795873
557 -0.2787504578402561 -1.2698334041335972 1.4014840118845566 -3.3105744669740806 -1.1597506694761883 0.186274168527578
558 -0.2782512235719614 -1.2694418375131833 1.4012474581218322 -3.3112544312558705 -1.1611200095725858 0.18577323942887072
559 -0.2777552903819644 -1.2690514257156775 1.4010110441443118 -3.311930927065576 -1.1624796098877213 0.1852691717827586
560 -0.27726264902302283 -1.268662160988297 1.4007747988931403 -3.3126039227584116 -1.1638295497854374 0.18476197369335595
561 -0.2767732888001021 -1.2682740363594058 1.4005387357011454 -3.313273388975659 -1.1651699065150902 0.18425165418774528
562 -0.2762871977635907 -1.2678870454265234 1.4003028573687677 -3.313939297992948 -1.1665007554097946 0.18373822302118692
563 -0.27580436287233784 -1.2675011822104176 1.400067159623352 -3.3146016232743194 -1.1678221700513673 0.1832216905419023
564 -0.2753247701331241 -1.267116441054387 1.399831633475462 -3.3152603391668802 -1.1691342224100993 0.18270206759664803
565 -0.27484840472134875 -1.2667328165544642 1.399596266822785 -3.315915420691556 -1.1704369829650974 0.18217936546424482
566 -0.2743752510864471 -1.2663503035108004 1.3993610455408831 -3.3165668433995408 -1.1717305208093056 0.18165359580828766
567 -0.2739052930446623 -1.2659688968935656 1.3991259542240484 -3.317214583273686 -1.1730149037421747 0.18112477064303892
568 -0.27343851386116697 -1.2655885918188228 1.398890976687668 -3.317858616660656 -1.1742901983521767 0.1805929023084013
569 -0.27297489632308675 -1.2652093835312586 1.398656096308098 -3.318498920224161 -1.1755564700908117 0.1800580034511629
570 -0.2725144228046525 -1.2648312673916478 1.3984212962518887 -3.3191354709126437 -1.1768137833393653 0.17952008701059172
571 -0.2720570753254753 -1.264454238867592 1.3981865596297254 -3.319768245936907 -1.1780622014694124 0.17897916620706125
572 -0.27160283560276244 -1.2640782935265342 1.397951869599189 -3.320397222754573 -1.1793017868978546 0.17843525453280265
573 -0.2711516850981606 -1.2637034270303675 1.397717209432773 -3.3210223790592646 -1.1805326011371378 0.1778883657441612
574 -0.27070360505981084 -1.263329635131163 1.3974825625623557 -3.3216436927730557 -1.1817547048411918 0.17733851385492846
575 -0.2702585765601191 -1.2629569136676937 1.3972479126077522 -3.3222611420411914 -1.1829681578475457 0.1767857131304538
576 -0.26981658052968205 -1.262585258562533 1.397013243394535 -3.3228747052283976 -1.1841730192160087 0.1762299780823296
577 -0.2693775977877544 -1.2622146658195679 1.3967785389646579 -3.323484360916311 -1.1853693472642617 0.1756713234635067
578 -0.26894160906960063 -1.2618451315218215 1.396543783582272 -3.3240900879016966 -1.1865571996006543 0.17510976426373956
579 -0.2685085950510362 -1.2614766518295075 1.3963089617363669 -3.3246918651952337 -1.1877366331544736 0.1745453157052896
580 -0.2680785363704304 -1.2611092229782628 1.3960740581413282 -3.325289672020714 -1.1889077042039198 0.173977993238836
581 -0.26765141364841677 -1.2607428412775201 1.395839057736164 -3.3258834878145347 -1.1900704684019985 0.17340781253955684
582 -0.26722720750553103 -1.2603775031089937 1.395603945682887 -3.3264732922254185 -1.1912249808005217 0.17283478950335374
583 -0.2668058985779748 -1.2600132049252548 1.3953687073643974 -3.3270590651142955 -1.1923712958723822 0.1722589402431994
584 -0.2663874675316856 -1.2596499432483852 1.395133328382076 -3.327640786554318 -1.1935094675322604 0.1716802810855928
585 -0.26597189507487395 -1.259287714668695 1.3948977945532441 -3.328218436830965 -1.1946395491558994 0.17109882856710998
586 -0.2655591619691758 -1.258926515843497 1.394662091908577 -3.32879199644223 -1.1957615935980752 0.17051459943104083
587 -0.26514924903955117 -1.2585663434959296 1.394426206689532 -3.329361446098865 -1.1968756532093727 0.16992761062410422
588 -0.2647421371830511 -1.258207194413823 1.3941901253458295 -3.329926766724672 -1.1979817798518761 0.16933787929323482
589 -0.26433780737656054 -1.257849065448604 1.3939538345330054 -3.330487939456833 -1.1990800249138618 0.16874542278243654
590 -0.26393624068361615 -1.2574919535142373 1.3937173211100484 -3.331044945646264 -1.2001704393235813 0.1681502586296975
591 -0.2635374182603887 -1.2571358555861956 1.3934805721371262 -3.3315977668580006 -1.2012530735622104 0.16755240456396306
592 -0.2631413213609107 -1.2567807687004604 1.3932435748733967 -3.332146384871594 -1.2023279776760356 0.16695187850216262
593 -0.26274793134162294 -1.256426689952548 1.3930063167749094 -3.332690781681521 -1.203395201287938 0.16634869854628767
594 -0.2623572296653064 -1.2560736164965611 1.392768785492584 -3.3332309394976063 -1.2044547936082375 0.165742882980518
595 -0.2619691979044595 -1.2557215455442603 1.3925309688702705 -3.333766840745446 -1.2055068034449445 0.16513445026839338
596 -0.26158381774417583 -1.2553704743641578 1.3922928549428775 -3.334298468066838 -1.2065512792134694 0.16452341905002854
597 -0.2612010709845718 -1.2550204002806304 1.3920544319345691 -3.3348258043202095 -1.2075882689458337 0.16390980813936942
598 -0.2608209395428085 -1.2546713206730482 1.3918156882570232 -3.3353488325810434 -1.2086178202994209 0.16329363652148848
599 -0.26044340545474937 -1.2543232329749219 1.3915766125077442 -3.335867536142303 -1.2096399805653006 0.16267492334991762
600 -0.26006845087628966 -1.2539761346730638 1.391337193468431 -3.336381898514845 -1.210654796676166 0.16205368794401676
601 -0.25969605808439145 -1.2536300233067643 1.3910974201033899 -3.336891903427834 -1.2116623152139037 0.1614299497863769
602 -0.2593262094778545 -1.2532848964669816 1.3908572815579905 -3.337397534829138 -1.2126625824168324 0.16080372852025612
603 -0.25895888757785007 -1.2529407517955429 1.3906167671571645 -3.337898776885724 -1.21365564418663 0.16017504394704712
604 -0.2585940750282426 -1.252597586984359 1.3903758664039378 -3.3383956139840336 -1.2146415460949702 0.15954391602377535
605 -0.2582317545957219 -1.25225539977465 1.3901345689779976 -3.3388880307303537 -1.2156203333898954 0.15891036486062657
606 -0.2578719091697656 -1.2519141879561804 1.389892864734289 -3.3393760119511704 -1.2165920510019368 0.1582744107185027
607 -0.25751452176245115 -1.251573949366506 1.3896507437016405 -3.3398595426935094 -1.2175567435500039 0.15763607400660526
608 -0.25715957550813284 -1.2512346818902278 1.3894081960814142 -3.340338608225262 -1.2185144553470562 0.15699537528004506
609 -0.256807053663 -1.2508963834582596 1.389165212246179 -3.3408131940355004 -1.2194652304055726 0.15635233523747813
610 -0.2564569396045294 -1.2505590520470988 1.388921782738408 -3.3412832858347707 -1.2204091124428307 0.15570697471876613
611 -0.2561092168308443 -1.2502226856781098 1.3886778982691912 -3.341748869555375 -1.2213461448860077 0.15505931470266132
612 -0.25576386895999104 -1.2498872824168126 1.3884335497169704 -3.3422099313516362 -1.2222763708771132 0.1544093763045151
613 -0.25542087972914373 -1.2495528403721818 1.3881887281262884 -3.3426664576001452 -1.223199833277766 0.1537571807740094
614 -0.25508023299374594 -1.249219357695951 1.3879434247065539 -3.3431184348999916 -1.2241165746738203 0.1531027494929106
615 -0.25474191272659713 -1.248886832581924 1.3876976308308215 -3.343565850072979 -1.225026637379852 0.15244610397284522
616 -0.2544059030168918 -1.2485552632652956 1.3874513380345843 -3.3440086901638204 -1.225930063443513 0.15178726585309685
617 -0.25407218806921816 -1.2482246480219765 1.3872045380145774 -3.3444469424403187 -1.2268268946497587 0.1511262568984241
618 -0.2537407522025215 -1.2478949851679253 1.3869572226275941 -3.344880594393527 -1.227717172524955 0.15046309899689872
619 -0.2534115798490387 -1.2475662730584873 1.3867093838893125 -3.3453096337378954 -1.2286009383408731 0.14979781415776375
620 -0.25308465555320814 -1.2472385100877401 1.38646101397313 -3.3457340484113947 -1.2294782331185754 0.1491304245093112
621 -0.2527599639705596 -1.2469116946878438 1.386212105209009 -3.3461538265756294 -1.230349097632196 0.14846095229677872
622 -0.2524374898665883 -1.2465858253283977 1.3859626500823299 -3.3465689566159256 -1.2312135724126259 0.1477894198802652
623 -0.2521172181156162 -1.2462609005158027 1.3857126412327514 -3.346979427141407 -1.2320716977510993 0.14711584973266464
624 -0.2517991336996444 -1.2459369187926304 1.3854620714530788 -3.347385226985049 -1.2329235137026928 0.1464402644376181
625 -0.2514832217071989 -1.245613878736995 1.3852109336881402 -3.347786345203722 -1.2337690600897342 0.14576268668748338
626 -0.2511694673321725 -1.2452917789619347 1.3849592210336668 -3.3481827710782084 -1.2346083765051294 0.1450831392813222
627 -0.2508578558726656 -1.244970618114794 1.3847069267351815 -3.348574494113207 -1.235441502315608 0.14440164512290435
628 -0.25054837272982744 -1.2446503948766143 1.3844540441868924 -3.3489615040373235 -1.23626847666489 0.14371822721872898
629 -0.25024100340669925 -1.2443311079615293 1.3842005669305917 -3.3493437908030366 -1.237089338476778 0.1430329086760621
630 -0.24993573350706239 -1.2440127561161645 1.383946488654559 -3.349721344586652 -1.2379041264581776 0.1423457127009907
631 -0.24963254873429142 -1.2436953381190419 1.3836918031924736 -3.3500941557882373 -1.238712879102044 0.1416566625964928
632 -0.2493314348902141 -1.2433788527799907 1.3834365045223258 -3.3504622150315444 -1.239515634690264 0.14096578176052338
633 -0.2490323778739795 -1.243063298939562 1.3831805867653362 -3.350825513163908 -1.2403124312964697 0.14027309368411597
634 -0.24873536368093518 -1.2427486754684485 1.3829240441848796 -3.351184041256135 -1.2411033067887878 0.13957862194949947
635 -0.24844037840151414 -1.2424349812669093 1.3826668711854124 -3.351537790602372 -1.2418882988325273 0.13888239022823018
636 -0.2481474082201325 -1.2421222152641995 1.3824090623114038 -3.351886752719961 -1.2426674448928046 0.138184422279339
637 -0.24785643941409877 -1.2418103764180042 1.3821506122462708 -3.3522309193492767 -1.2434407822371116 0.13748474194749302
638 -0.24756745835253482 -1.241499463713877 1.3818915158113187 -3.3525702824535495 -1.244208347937824 0.136783373161172
639 -0.2472804514953097 -1.2411894761646847 1.3816317679646841 -3.3529048342186716 -1.2449701788746537 0.13608033993085897
640 -0.2469954053919862 -1.2408804128100541 1.3813713638002814 -3.3532345670529895 -1.245726311737047 0.13537566634724518
641 -0.24671230668078084 -1.2405722727158255 1.3811102985467543 -3.3535594735870795 -1.2464767830265275 0.13466937657944897
642 -0.24643114208753752 -1.2402650549735095 1.3808485675664295 -3.353879546673509 -1.2472216290589886 0.1339614948732485
643 -0.24615189842471522 -1.2399587586997496 1.3805861663542747 -3.3541947793865847 -1.2479608859669322 0.1332520455493281
644 -0.2458745625903896 -1.2396533830357879 1.380323090536859 -3.354505165022084 -1.248694589701659 0.13254105300153823
645 -0.24559912156726932 -1.2393489271469356 1.3800593358713196 -3.354810697096972 -1.249422776035409 0.1318285416951686
646 -0.2453255624217265 -1.239045390222049 1.379794898244328 -3.355111369349108 -1.2501454805634526 0.13111453616523458
647 -0.2450538723028421 -1.2387427714730093 1.379529773671063 -3.3554071757369317 -1.250862738706137 0.13039906101477655
648 -0.2447840384414655 -1.238441070134205 1.379263958294185 -3.3556981104391426 -1.2515745857108846 0.1296821409131723
649 -0.24451604814928937 -1.2381402854620223 1.378997448382814 -3.3559841678543623 -1.252281056654146 0.12896380059446183
650 -0.24424988881793866 -1.2378404167343366 1.3787302403315125 -3.356265342600781 -1.2529821864433093 0.12824406485568507
651 -0.24398554791807486 -1.2375414632500106 1.378462330659269 -3.356541629515799 -1.2536780098185656 0.12752295855523182
652 -0.24372301299851454 -1.2372434243283943 1.3781937160084876 -3.356813023655645 -1.254368561354731 0.12680050661120398
653 -0.24346227168536275 -1.236946299308832 1.3779243931439797 -3.35707952029499 -1.255053875463028 0.1260767339997901
654 -0.24320331168116088 -1.2366500875501718 1.3776543589519583 -3.357341114926545 -1.2557339863928236 0.12535166575365178
655 -0.24294612076404928 -1.2363547884302801 1.3773836104390373 -3.3575978032606484 -1.256408928233329 0.12462532696032202
656 -0.242690686786944 -1.2360604013455596 1.377112144731233 -3.3578495812248383 -1.2570787349152588 0.12389774276061541
657 -0.24243699767672805 -1.2357669257104722 1.3768399590729699 -3.358096444963415 -1.2577434402124503 0.12316893834704978
658 -0.2421850414334569 -1.2354743609570662 1.3765670508260894 -3.3583383908369937 -1.2584030777434454 0.12243893896227956
659 -0.241934806129578 -1.2351827065345067 1.3762934174688617 -3.3585754154220426 -1.2590576809730343 0.12170776989754037
660 -0.24168627990916422 -1.2348919619086118 1.376019056595001 -3.358807515510411 -1.2597072832137626 0.12097545649110496
661 -0.2414394509871615 -1.2346021265613916 1.375743965912686 -3.3590346881088475 -1.2603519176274023 0.12024202412675021
662 -0.2411943076486496 -1.2343131999905912 1.3754681432435814 -3.3592569304385056 -1.2609916172263853 0.11950749823223526
663 -0.24095083824811717 -1.2340251817092396 1.375191586521865 -3.35947423993444 -1.2616264148752039 0.11877190427779048
664 -0.24070903120874954 -1.2337380712452004 1.3749142937932564 -3.359686614245093 -1.2622563432917753 0.11803526777461722
665 -0.24046887502173026 -1.233451868140729 1.374636263214052 -3.3598940512317697 -1.262881435048773 0.11729761427339824
666 -0.24023035824555555 -1.2331665719520304 1.3743574930501608 -3.3600965489681034 -1.2635017225749245 0.11655896936281882
667 -0.23999346950536182 -1.232882182248826 1.3740779816761453 -3.3602941057395106 -1.2641172381562757 0.1158193586680981
668 -0.23975819749226585 -1.2325986986139201 1.3737977275742663 -3.3604867200426383 -1.264728013937424 0.11507880784953103
669 -0.2395245309627177 -1.2323161206427724 1.3735167293335309 -3.3606743905848018 -1.2653340819227186 0.11433734260104032
670 -0.23929245873786614 -1.232034447943074 1.3732349856487442 -3.3608571162834124 -1.2659354739774307 0.11359498864873865
671 -0.23906196970293633 -1.2317536801343283 1.3729524953195658 -3.3610348962653944 -1.2665322218288926 0.1128517717495009
672 -0.2388330528066197 -1.2314738168474348 1.372669257249568 -3.3612077298665977 -1.2671243570676056 0.11210771768954622
673 -0.23860569706047569 -1.2311948577242775 1.3723852704453003 -3.3613756166311988 -1.267711911148321 0.11136285228303
674 -0.2383798915383454 -1.230916802417317 1.372100534015357 -3.3615385563110927 -1.268294915391089 0.1106172013706455
675 -0.23815562537577709 -1.2306396505891868 1.371815047169447 -3.361696548865281 -1.268873400982281 0.10987079081823511
676 -0.23793288776946267 -1.230363401912293 1.3715288092174704 -3.361849594459247 -1.2694473989755823 0.10912364651541112
677 -0.23771166797668603 -1.2300880560684198 1.3712418195685967 -3.361997693464326 -1.2700169402929584 0.10837579437418585
678 -0.23749195531478218 -1.2298136127483354 1.37095407773035 -3.362140846457068 -1.2705820557255938 0.10762726032761114
679 -0.23727373916060762 -1.229540071651406 1.370665583307694 -3.3622790542185896 -1.2711427759348044 0.10687807032842706
680 -0.2370570089500213 -1.22926743248521 1.370376336002125 -3.3624123177339253 -1.2716991314529216 0.10612825034771968
681 -0.23684175417737643 -1.228995694965159 1.3700863356107675 -3.3625406381913643 -1.2722511526841538 0.10537782637358792
682 -0.23662796439502276 -1.2287248588141206 1.369795582025473 -3.3626640169817863 -1.2727988699054202 0.10462682440981923
683 -0.23641562921281914 -1.2284549237620463 1.3695040752319256 -3.362782455697987 -1.273342313267161 0.10387527047457419
684 -0.2362047382976563 -1.2281858895456024 1.3692118153087494 -3.3628959561339995 -1.2738815127941223 0.10312319059907979
685 -0.23599528137298972 -1.2279177559078058 1.368918802426621 -3.3630045202844063 -1.2744164983861166 0.10237061082633137
686 -0.23578724821838218 -1.2276505225976626 1.3686250368473878 -3.363108150343651 -1.274947299818762 0.10161755720980306
687 -0.23558062866905624 -1.2273841893698108 1.3683305189231874 -3.3632068487053357 -1.2754739467441953 0.10086405581216677
688 -0.23537541261545614 -1.2271187559841672 1.368035249095575 -3.3633006179615204 -1.2759964686917638 0.10011013270401939
689 -0.23517159000281915 -1.2268542222055778 1.3677392278946532 -3.363389460902012 -1.2765148950686949 0.09935581396261844
690 -0.23496915083075617 -1.2265905878034715 1.367442455938206 -3.36347338051365 -1.2770292551607436 0.09860112567062576
691 -0.23476808515284145 -1.2263278525515184 1.3671449339308388 -3.3635523799795854 -1.2775395781328176 0.09784609391485935
692 -0.23456838307621117 -1.2260660162272923 1.3668466626631215 -3.3636264626785572 -1.2780458930295817 0.09709074478505325
693 -0.23437003476117096 -1.2258050786119343 1.366547643010737 -3.363695632184159 -1.2785482287760424 0.09633510437262521
694 -0.23417303042081197 -1.2255450394898235 1.3662478759336347 -3.3637598922641074 -1.2790466141781105 0.09557919876945235
695 -0.23397736032063543 -1.2252858986482489 1.365947362475187 -3.363819246879498 -1.279541077923145 0.09482305406665446
696 -0.23378301477818578 -1.2250276558770867 1.3656461037613514 -3.3638737001840644 -1.2800316485804764 0.09406669635338498
697 -0.23358998416269172 -1.2247703109684804 1.3653441009998384 -3.363923256523429 -1.2805183546019108 0.09331015171562954
698 -0.23339825889471572 -1.2245138637165236 1.3650413554792826 -3.363967920434349 -1.2810012243222162 0.092553446235012
699 -0.23320782944581103 -1.2242583139169492 1.3647378685684186 -3.364007696643959 -1.2814802859595882 0.0917966059876079
700 -0.23301868633818695 -1.2240036613668197 1.3644336417152625 -3.3640425900690123 -1.2819555676160999 0.09103965704276525
701 -0.23283082014438147 -1.2237499058642218 1.3641286764462974 -3.364072605815114 -1.2824270972781318 0.09028262546193246
702 -0.23264422148694155 -1.2234970472079654 1.3638229743656647 -3.3640977491759525 -1.282894902816786 0.0895255372974935
703 -0.23245888103811085 -1.223245085197285 1.363516537154359 -3.3641180256325307 -1.2833590119882812 0.08876841859161018
704 -0.23227478951952468 -1.222994019631546 1.3632093665694291 -3.3641334408523877 -1.2838194524343325 0.0880112953750713
705 -0.23209193770191217 -1.2227438503099541 1.3629014644431832 -3.3641440006888224 -1.2842762516825148 0.08725419366614878
706 -0.23191031640480533 -1.2224945770312665 1.3625928326823988 -3.3641497111801097 -1.284729437146609 0.08649713946946064
707 -0.23172991649625516 -1.2222461995935097 1.3622834732675382 -3.364150578548719 -1.285179036126932 0.08574015877484066
708 -0.23155072889255435 -1.2219987177936986 1.361973388251969 -3.364146609200525 -1.2856250758106533 0.08498327755621479
709 -0.23137274455796686 -1.2217521314275603 1.361662579761188 -3.364137809724018 -1.286067583272094 0.08422652177048413
710 -0.23119595450446379 -1.2215064402892606 1.3613510499920536 -3.364124186889512 -1.2865065854730127 0.08346991735641439
711 -0.23102034979146582 -1.221261644171134 1.361038801212019 -3.3641057476483494 -1.2869421092628757 0.08271349023353179
712 -0.23084592152559186 -1.221017742863418 1.360725835758373 -3.364082499132103 -1.2873741813791135 0.08195726630102546
713 -0.2306726608604138 -1.2207747361539898 1.360412156037486 -3.364054448651778 -1.2878028284473626 0.08120127143665588
714 -0.2305005589962175 -1.2205326238281076 1.3600977645240595 -3.364021603697008 -1.2882280769816952 0.08044553149566983
715 -0.23032960717976944 -1.2202914056681542 1.3597826637603818 -3.3639839719352547 -1.2886499533848332 0.07969007230972118
716 -0.23015979670408954 -1.2200510814533845 1.3594668563555894 -3.3639415612109986 -1.289068483948352 0.07893491968579801
717 -0.22999111890822926 -1.2198116509596764 1.359150344984932 -3.3638943795449348 -1.289483694852868 0.07818009940515552
718 -0.2298235651770557 -1.2195731139592856 1.358833132389043 -3.3638424351331615 -1.2898956121682175 0.07742563722225504
719 -0.229657126941041 -1.2193354702206023 1.3585152213732172 -3.363785736346372 -1.2903042618536193 0.0766715588637087
720 -0.22949179567605701 -1.2190987195079124 1.35819661480669 -3.3637242917290413 -1.2907096697578297 0.07591789002723005
721 -0.22932756290317544 -1.2188628615811625 1.3578773156219248 -3.3636581099986125 -1.2911118616192816 0.07516465638059026
722 -0.22916442018847302 -1.2186278961957264 1.357557326813905 -3.3635872000446825 -1.2915108630662147 0.07441188356058004
723 -0.22900235914284192 -1.2183938231021767 1.35723665143943 -3.3635115709281873 -1.2919066996167947 0.07365959717197709
724 -0.22884137142180486 -1.2181606420460591 1.3569152926164174 -3.3634312318805835 -1.2922993966792202 0.0729078227865191
725 -0.22868144872533516 -1.2179283527676692 1.3565932535232108 -3.363346192303031 -1.29268897955182 0.07215658594188205
726 -0.2285225827976818 -1.2176969550018337 1.356270537397891 -3.363256461765576 -1.293075473423139 0.0714059121406641
727 -0.2283647654271987 -1.2174664484776943 1.3559471475375946 -3.3631620500063284 -1.2934589033720167 0.07065582684937448
728 -0.22820798844617887 -1.2172368329184942 1.3556230872978374 -3.363062966930645 -1.293839294367652 0.06990635549742795
729 -0.228052243730693 -1.217008108041369 1.3552983600918411 -3.3629592226103053 -1.2942166712696608 0.06915752347614416
730 -0.2278975232004322 -1.2167802735571402 1.3549729693898678 -3.3628508272826934 -1.2945910588281244 0.06840935613775226
731 -0.22774381881855527 -1.216553329170112 1.3546469187185577 -3.362737791349973 -1.2949624816836283 0.06766187879440043
732 -0.22759112259153993 -1.2163272745778706 1.3543202116602742 -3.362620125378268 -1.2953309643672906 0.06691511671717057
733 -0.22743942656903832 -1.2161021094710875 1.3539928518524516 -3.362497840096837 -1.2956965313007849 0.06616909513509774
734 -0.2272887228437363 -1.2158778335333253 1.353664842986951 -3.3623709463972533 -1.2960592067963526 0.06542383923419448
735 -0.22713900355121686 -1.2156544464408474 1.3533361888094184 -3.3622394553325807 -1.2964190150568071 0.06467937415648005
736 -0.2269902608698271 -1.2154319478624298 1.3530068931186503 -3.36210337811655 -1.2967759801755314 0.0639357249990142
737 -0.22684248702054918 -1.2152103374591765 1.3526769597659645 -3.3619627261227367 -1.2971301261364663 0.0631929168129358
738 -0.22669567426687473 -1.2149896148843375 1.352346392654574 -3.3618175108837365 -1.2974814768140928 0.062450974602505975
739 -0.2265498149146829 -1.2147697797831312 1.3520151957389688 -3.361667744090344 -1.2978300559734055 0.06170992332415585
740 -0.2264049013121218 -1.2145508317925675 1.3516833730243005 -3.361513437590729 -1.2981758872698816 0.06096978788553877
741 -0.22626092584949342 -1.2143327705412759 1.3513509285657743 -3.3613546033896133 -1.29851899424944 0.06023059314458699
742 -0.22611788095914184 -1.214115595649336 1.351017866468045 -3.36119125364745 -1.2988594003483953 0.0594923639085727
743 -0.2259757591153445 -1.2138993067281105 1.3506841908846183 -3.361023400679599 -1.2991971288934065 0.05875512493317346
744 -0.22583455283420684 -1.2136839033800813 1.3503499060172584 -3.3608510569555072 -1.2995322031014171 0.05801890092154186
745 -0.22569425467355983 -1.213469385198689 1.3500150161153976 -3.360674235097887 -1.2998646460795913 0.05728371652337946
746 -0.2255548572328605 -1.213255751768175 1.3496795254755563 -3.360492947881894 -1.3001944808252435 0.056549596334014844
747 -0.22541635315309555 -1.2130430026634258 1.3493434384407628 -3.3603072082343095 -1.3005217302257623 0.05581656489348583
748 -0.22527873511668745 -1.2128311374498217 1.349006759399982 -3.3601170292327174 -1.3008464170585299 0.05508464668562579
749 -0.22514199584740358 -1.2126201556830873 1.348669492787547 -3.359922424104688 -1.3011685639908352 0.05435386613715393
750 -0.225006128110268 -1.2124100569091445 1.3483316430825985 -3.359723406226957 -1.3014881935797822 0.05362424761676956
751 -0.2248711247114756 -1.2122008406639688 1.3479932148085245 -3.359519989124612 -1.3018053282721946 0.052895815434250364
752 -0.2247369784983092 -1.2119925064734494 1.3476542125324125 -3.3593121864702695 -1.3021199904045144 0.05216859383955444
753 -0.22460368235905853 -1.21178505385325 1.3473146408644978 -3.359100012083264 -1.302432202202698 0.05144260702192627
754 -0.22447122922294213 -1.2115784823086742 1.346974504457626 -3.358883479928828 -1.3027419857821054 0.050717879109006395
755 -0.2243396120600313 -1.2113727913345322 1.3466338080067126 -3.3586626041172822 -1.3030493631473887 0.049994434165944936
756 -0.22420882388117633 -1.2111679804150117 1.346292556248213 -3.358437398903218 -1.3033543561923733 0.04927229619451869
757 -0.22407885773793484 -1.2109640490235498 1.3459507539595963 -3.3582078786846865 -1.303656986699939 0.04855148913225201
758 -0.22394970672250245 -1.210760996622709 1.3456084059588216 -3.3579740580023856 -1.3039572763418943 0.0478320368515412
759 -0.22382136396764518 -1.210558822664056 1.3452655171038221 -3.3577359515388507 -1.3042552466788497 0.047113963158782565
760 -0.22369382264663415 -1.2103575265880409 1.344922092291994 -3.357493574117642 -1.3045509191600873 0.04639729179350392
761 -0.2235670759731819 -1.2101571078238824 1.3445781364596892 -3.357246940702539 -1.3048443151234261 0.04568204642749966
762 -0.22344111720138074 -1.2099575657894523 1.3442336545817124 -3.356996066396729 -1.305135455795088 0.04496825066396922
763 -0.22331593962564283 -1.2097588998911657 1.3438886516708255 -3.3567409664420036 -1.3054243622895572 0.04425592803665905
764 -0.22319153658064195 -1.2095611095238705 1.3435431327772553 -3.3564816562179507 -1.3057110556094387 0.04354510200900786
765 -0.2230679014412569 -1.2093641940707425 1.343197102988205 -3.35621815124115 -1.305995556645316 0.04283579597329529
766 -0.22294502762251664 -1.209168152903181 1.3428505674273725 -3.35595046716437 -1.3062778861756055 0.04212803324979388
767 -0.22282290857954687 -1.208972985380708 1.3425035312544733 -3.3556786197757655 -1.3065580648664072 0.0414218370859243
768 -0.22270153780751797 -1.2087786908508695 1.3421559996647672 -3.3554026249980757 -1.306836113271358 0.04071723065541379
769 -0.22258090884159457 -1.2085852686491387 1.3418079778885896 -3.355122498887824 -1.3071120518314783 0.04001423705745795
770 -0.22246101525688633 -1.208392718098823 1.3414594711908887 -3.35483825763452 -1.3073859008750208 0.03931287931588551
771 -0.2223418506684001 -1.208201038510972 1.3411104848707673 -3.3545499175598597 -1.3076576806173177 0.03861318037832642
772 -0.22222340873099325 -1.2080102291842896 1.3407610242610284 -3.354257495116931 -1.3079274111606243 0.037915163115383024
773 -0.2221056831393283 -1.2078202894050458 1.340411094727725 -3.3539610068894157 -1.308195112493964 0.03721885031980423
774 -0.22198866762782848 -1.2076312184469948 1.3400607016697168 -3.3536604695907966 -1.308460804492971 0.03652426470566289
775 -0.22187235597063462 -1.2074430155712916 1.3397098505182297 -3.3533559000635638 -1.3087245069197346 0.03583142890753613
776 -0.2217567419815629 -1.2072556800264131 1.3393585467364202 -3.353047315278423 -1.3089862394226397 0.035140365479688705
777 -0.22164181951406353 -1.2070692110480814 1.339006795818943 -3.352734732333504 -1.3092460215362096 0.03445109689525941
778 -0.22152758246118054 -1.2068836078591882 1.3386546032915276 -3.3524181684535708 -1.3095038726809465 0.03376364554545033
779 -0.22141402475551222 -1.2066988696697236 1.338301974710553 -3.3520976409892342 -1.3097598121631742 0.03307803373871919
780 -0.22130114036917256 -1.2065149956767045 1.3379489156626314 -3.3517731674161646 -1.310013859174878 0.0323942836999745
781 -0.22118892331375326 -1.2063319850641077 1.3375954317641963 -3.3514447653343034 -1.3102660327935485 0.031712417569773665
782 -0.22107736764028665 -1.2061498370028034 1.3372415286610915 -3.351112452467081 -1.3105163519820213 0.031032457403523967
783 -0.22096646743920909 -1.205968550650493 1.3368872120281678 -3.35077624666063 -1.310764835588321 0.030354425170686403
784 -0.22085621684032514 -1.2057881251516458 1.3365324875688829 -3.350436165883005 -1.3110115023455036 0.029678342753982387
785 -0.22074661001277215 -1.205608559637442 1.3361773610149046 -3.3500922282234002 -1.3112563708715 0.029004231948603246
786 -0.22063764116498555 -1.2054298532257142 1.3358218381257199 -3.3497444518913686 -1.3114994596689613 0.02833211446142257
787 -0.22052930454466438 -1.2052520050208932 1.3354659246882474 -3.3493928552160424 -1.3117407871251041 0.027662011910211334
788 -0.2204215944387374 -1.2050750141139557 1.3351096265164546 -3.349037456645356 -1.311980371511557 0.026993945822855803
789 -0.2203145051733296 -1.2048988795823725 1.3347529494509764 -3.348678274745267 -1.3122182309842088 0.026327937636578237
790 -0.22020803111372894 -1.2047236004900617 1.334395899358743 -3.3483153281989826 -1.3124543835830578 0.025664008697160314
791 -0.22010216666435345 -1.2045491758873403 1.3340384821326068 -3.347948635806182 -1.312688847232063 0.025002180258169325
792 -0.21999690626871846 -1.2043756048108818 1.3336807036909764 -3.347578216482246 -1.3129216397389967 0.024342473480187105
793 -0.2198922444094043 -1.2042028862836722 1.3333225699774531 -3.347204089257479 -1.3131527787952977 0.02368490943004169
794 -0.21978817560802377 -1.2040310193149706 1.3329640869604726 -3.3468262732763416 -1.3133822819759293 0.0230295090800417
795 -0.21968469442519 -1.2038600029002706 1.332605260632948 -3.3464447877966785 -1.313610166739236 0.022376293307213416
796 -0.21958179546048442 -1.203689836021264 1.3322460970119208 -3.346059652188947 -1.3138364504268036 0.021725282892540596
797 -0.21947947335242454 -1.203520517645806 1.3318866021382114 -3.345670885935451 -1.3140611502633242 0.02107649852020695
798 -0.21937772277843182 -1.2033520467278827 1.331526782076077 -3.345278508629569 -1.3142842833564576 0.020429960776841352
799 -0.21927653845479955 -1.2031844222075814 1.3311666429128703 -3.344882539974992 -1.3145058666967016 0.01978569015076573
800 -0.21917591513666063 -1.2030176430110613 1.3308061907587048 -3.344482999784952 -1.3147259171572605 0.019143707031245627
801 -0.21907584761795512 -1.2028517080505265 1.3304454317461198 -3.3440799079814605 -1.3149444514939184 0.01850403170774349
802 -0.21897633073139772 -1.2026866162242018 1.3300843720297548 -3.343673284594543 -1.3151614863449144 0.017866684369174612
803 -0.218877359348445 -1.2025223664163087 1.3297230177860209 -3.343263149761474 -1.3153770382308212 0.017231685103165785
804 -0.21877892837926238 -1.2023589574970452 1.329361375212781 -3.342849523726016 -1.3155911235544269 0.01659905389531663
805 -0.2186810327726909 -1.2021963883225655 1.3289994505290312 -3.342432426837656 -1.3158037586006193 0.01596881062846363
806 -0.21858366751621364 -1.2020346577349625 1.3286372499745847 -3.3420118795508444 -1.316014959536274 0.01534097508194685
807 -0.21848682763592156 -1.2018737645622533 1.3282747798097623 -3.341587902424236 -1.3162247424101452 0.014715566930879364
808 -0.21839050819647948 -1.2017137076183626 1.327912046315083 -3.3411605161199254 -1.3164331231527615 0.014092605745419358
