ZJU-PLP/Project_IFAC_2020/src/custom_codes/csv_files/joint_traj_2_AAPF.csv
Index Joint1 Joint2 Joint3 Joint4 Joint5 Joint6
0 -0.3857059292651406 -1.6801103366722492 1.9024058782964348 -3.5185750796602897 -1.105379999577666 -0.11366125386207705
1 -0.3856712945244759 -1.6795692873575823 1.9041956573054117 -3.515809702484354 -1.1057542172594006 -0.11485470214920854
2 -0.3856121565405881 -1.6790558835635836 1.9051302819817193 -3.5131390962360447 -1.1061377203666367 -0.11600365806607227
3 -0.385531191162518 -1.6785625670242927 1.9054513119550105 -3.5105361287641195 -1.1065248894840005 -0.11711650138365143
4 -0.38543051617309854 -1.6780838796032003 1.9053324262861704 -3.5079811337629487 -1.1069121589441278 -0.11819926628867128
5 -0.3853118550406284 -1.677615883843454 1.9048983236829984 -3.505459904799794 -1.1072973361484797 -0.11925628582639151
6 -0.3851766451733841 -1.6771557403461936 1.9042384382096693 -3.5029622058274614 -1.1076791510315234 -0.12029066390998444
7 -0.3850261112049178 -1.6767014010918133 1.903416854847058 -3.5004806768767147 -1.1080569537386271 -0.12130461877928961
8 -0.38486131569575044 -1.6762513876692364 1.9024794591635148 -3.498010035837163 -1.1084305095604594 -0.12229973180194023
9 -0.3846831949044289 -1.6758046312979131 1.90145908306774 -3.4955464991006786 -1.108799858748549 -0.12327712713662595
10 -0.38449258447729606 -1.6753603576287635 1.900379203197914 -3.493087362526045 -1.1091652202122098 -0.12423760117482224
11 -0.3842902382061811 -1.674918003897722 1.8992565962101906 -3.4906306991140763 -1.1095269252179047 -0.12518171564123062
12 -0.38407684194548786 -1.674477159403363 1.8981032435172607 -3.48817514127521 -1.109885371770136 -0.12610986446891317
13 -0.38385302410489186 -1.6740375227726607 1.8969276966355968 -3.485719724218872 -1.110240993331596 -0.12702232178722542
14 -0.3836193636921799 -1.6735988712957104 1.8957360552661642 -3.483263773405643 -1.110594237522558 -0.12791927632795524
15 -0.3833763965856089 -1.6731610389285347 1.894532667549441 -3.4808068237109646 -1.110945551778802 -0.1288008560762305
16 -0.3831246205143154 -1.6727239005167045 1.8933206311420472 -3.478348561382562 -1.111295373863401 -0.1296671459211995
17 -0.38286449908663733 -1.6722873604807007 1.8921021515834329 -3.4758887823659452 -1.1116441257601364 -0.13051820028729652
18 -0.3825964651093592 -1.671851344699764 1.8908787984669684 -3.47342736237526 -1.1119922099161135 -0.13135405216874854
19 -0.38232092337266016 -1.671415794687714 1.8896516884648147 -3.4709642353877572 -1.1123400071085405 -0.13217471958821517
20 -0.3820382530271526 -1.6709806634106321 1.8884216160236469 -3.468499378177225 -1.1126878754263174 -0.13298021021162412
21 -0.3817488096449047 -1.6705459122804385 1.8871891466412662 -3.466032799175759 -1.1130361500087615 -0.13377052464382308
22 -0.38145292703165723 -1.670111508990528 1.8859546833981224 -3.4635645304374916 -1.113385143290657 -0.1345456587808043
23 -0.3811509188397241 -1.6696774259544127 1.8847185143817036 -3.461094621825528 -1.1137351455781463 -0.13530560548750173
24 -0.38084308001830836 -1.669243639176235 1.8834808464668165 -3.458623136792681 -1.1140864258331145 -0.1360503557936465
25 -0.38052968812875604 -1.6688101274306946 1.8822418293574585 -3.4561501493053393 -1.1144392325811672 -0.13677989974535748
26 -0.3802110045455998 -1.6683768716647749 1.8810015726813851 -3.4536757415878827 -1.1147937948846958 -0.13749422701090114
27 -0.3798872755594007 -1.6679438545586092 1.8797601581311043 -3.45120000245676 -1.1151503233410816 -0.13819332731097045
28 -0.3795587333938592 -1.6675110602006682 1.878517648074834 -3.448723026079004 -1.1155090110791386 -0.13887719072374355
29 -0.3792255971470751 -1.6670784738452258 1.8772740916533848 -3.4462449110369295 -1.1158700347360233 -0.13954580790061638
30 -0.3788880736649217 -1.6666460817291795 1.876029529087727 -3.443765759614368 -1.1162335554032219 -0.14019917021823664
31 -0.3785463583530746 -1.666213870931835 1.8747839947140255 -3.4412856772438136 -1.1165997195346593 -0.1408372698851293
32 -0.3782006359331666 -1.6657818292659199 1.8735375191144554 -3.438804772071052 -1.1169686598130404 -0.14146010001596446
33 -0.3778510811477267 -1.6653499451914229 1.8722901306061615 -3.4363231546060957 -1.1173404959726274 -0.14206765468277702
34 -0.3774978594179323 -1.6649182077462383 1.871041856275154 -3.433840937438058 -1.1177153355780898 -0.14265992894977705
35 -0.3771411274577156 -1.6644866064892891 1.8697927226880577 -3.431358234997844 -1.1180932747599974 -0.14323691889648524
36 -0.3767810338473718 -1.6640551314530168 1.8685427563762265 -3.428875163357039 -1.1184743989081563 -0.14379862163256774
37 -0.3764177195695009 -1.663623773102994 1.867291984159389 -3.4263918400545688 -1.1188587833243595 -0.14434503530677623
38 -0.3760513185098519 -1.6631925223030337 1.866040433356513 -3.4239083839450104 -1.1192464938363609 -0.1448761591117076
39 -0.37568195792541875 -1.662761370284613 1.8647881319177162 -3.421424915064069 -1.1196375873749844 -0.14539199328560493
40 -0.37530975888194623 -1.6623303086197412 1.8635351085011946 -3.418941554507913 -1.1200321125163315 -0.14589253911207048
41 -0.3749348366628418 -1.6618993291966382 1.8622813925121304 -3.4164584243239116 -1.1204301099910325 -0.14637779891831085
42 -0.3745573011513413 -1.6614684241977398 1.8610270141155623 -3.413975647410916 -1.120831613162447 -0.14684777607235613
43 -0.3741772571876494 -1.6610375860796747 1.8597720042316659 -3.411493347427684 -1.1212366484756568 -0.14730247497956744
44 -0.3737948049026551 -1.6606068075549356 1.8585163945193819 -3.4090116487083457 -1.1216452358790157 -0.14774190107865648
45 -0.3734100400297184 -1.66017608157503 1.8572602173525563 -3.40653067618405 -1.1220573892199368 -0.1481660608373761
46 -0.37302305419592396 -1.6597454013149402 1.8560035057914903 -3.404050555310114 -1.1224731166165158 -0.14857496174799437
47 -0.37263393519410914 -1.659314760158759 1.854746293551914 -3.401571411998094 -1.1228924208064968 -0.14896861232263162
48 -0.37224064446491195 -1.658790849295129 1.8536643775851276 -3.399060519493124 -1.123314063379734 -0.1493470220885163
49 -0.37184393991921244 -1.6582690007113954 1.8525052126457258 -3.3965600426627303 -1.123739604558562 -0.149707424265347
50 -0.3714440967483193 -1.657748550790038 1.851291562401666 -3.394067434513267 -1.124168786036472 -0.1500506347077464
51 -0.37104134206166867 -1.6572290304906503 1.8500394690411321 -3.3915809352859783 -1.1246014378965452 -0.15037723227195968
52 -0.3706358677058992 -1.6567101082768885 1.8487602353858439 -3.3890993413554273 -1.1250374487218413 -0.15068762898770155
53 -0.3702278393299815 -1.656191549722523 1.8474618245012835 -3.3866218416649154 -1.125476745295199 -0.1509821196234338
54 -0.36981740283468856 -1.6556731889534597 1.8461498473018156 -3.3841479020891705 -1.1259192788072745 -0.15126091666760366
55 -0.36940468898945183 -1.6551549084751644 1.8448282590015808 -3.381677183751915 -1.1263650155012779 -0.15152417499923518
56 -0.3689898167596321 -1.654636624933323 1.8434998499673405 -3.3792094853684924 -1.1268139303506286 -0.15177200927547205
57 -0.36857289572301977 -1.6541182790684106 1.8421665914834848 -3.3767447025703254 -1.1272660028128305 -0.15200450617848588
58 -0.36815402784096346 -1.6535998286322662 1.8408298791907365 -3.3742827992227786 -1.1277212140049881 -0.15222173303631867
59 -0.36773330877065297 -1.6530812433951603 1.8394907043962991 -3.3718237872074366 -1.1281795448519445 -0.15242374388751292
60 -0.3673088471135102 -1.6526349090453822 1.8379833649125914 -3.36939536735564 -1.1286411288867837 -0.1526105837447206
61 -0.36688400785319836 -1.6521860928718017 1.836543867265121 -3.3669615319648054 -1.1291058140730068 -0.1527847624627666
62 -0.3664586877023071 -1.651735434186102 1.8351517580171661 -3.364524853096646 -1.1295737209516847 -0.15294557759980693
63 -0.3660328215359808 -1.6512833811535492 1.8337927339234152 -3.362087170954922 -1.1300449066300837 -0.15309254578578518
64 -0.3656063713483514 -1.6508302479566601 1.8324568008111852 -3.3596498128337995 -1.1305193845397226 -0.15322533737312344
65 -0.36517931840410184 -1.6503762548854646 1.8311369825935435 -3.3572137465570715 -1.1309971381830686 -0.15334373062755272
66 -0.3647516576770472 -1.6499215564504857 1.8298284162767802 -3.3547796880183443 -1.1314781306419497 -0.15344757962256908
67 -0.3643233939161411 -1.6494662610925992 1.828527717755787 -3.352348176546882 -1.131962311124774 -0.15353679174410556
68 -0.3638945388648632 -1.6490104449977065 1.8272325375312388 -3.3499196277153773 -1.1324496194584337 -0.15361131193371919
69 -0.36346510929572623 -1.6485541617763713 1.825941249592105 -3.347494370331689 -1.1329399891607148 -0.1536711116555479
70 -0.36303512561972556 -1.6480974492437621 1.8246527336363714 -3.3450726723430018 -1.1334333495361604 -0.15371618117365118
71 -0.36260461090079416 -1.647640334166811 1.8233662226900855 -3.342654758968939 -1.1339296271022605 -0.1537465241484159
72 -0.36217359015532474 -1.6471828355868112 1.8220811965303674 -3.340240825389682 -1.1344287465576894 -0.15376215385693093
73 -0.36174208985226214 -1.6467249671440614 1.820797307175739 -3.337831045620191 -1.1349306314381762 -0.15376309055010381
74 -0.36131013755431723 -1.6462667387036851 1.8195143268173588 -3.335425578713973 -1.1354352045598501 -0.15374935960512356
75 -0.3608777616585169 -1.645808157492282 1.8182321114478606 -3.333024573097757 -1.1359423883183677 -0.15372099023415198
76 -0.3604449912067413 -1.6453492288923082 1.8169505754660749 -3.3306281695984743 -1.1364521048904588 -0.1536780145818317
77 -0.36001185574564204 -1.644889956997069 1.8156696739528273 -3.3282365035556976 -1.1369642763696695 -0.15362046709445215
78 -0.35957838522148106 -1.6444303449983428 1.814389390305736 -3.325849706294749 -1.1374788248579102 -0.1535483840788186
79 -0.3591446098997377 -1.6439703954570428 1.8131097276161499 -3.323467906153057 -1.137995672527473 -0.15346180339352078
80 -0.3587105603023609 -1.6435101104921641 1.8118307026580336 -3.321091229194455 -1.1385147416634458 -0.15336076423255196
81 -0.3582762671576618 -1.6430494919126721 1.8105523416991358 -3.318719799705604 -1.1390359546932278 -0.15324530697330116
82 -0.3578417613593287 -1.642588541309556 1.80927467758295 -3.316353740540341 -1.1395592342076588 -0.15311547306938275
83 -0.3574070739320909 -1.6421272601200834 1.8079977476964755 -3.3139931733579395 -1.1400845029767888 -0.15297130497466943
84 -0.3569722360022847 -1.6416656496726616 1.8067215925551465 -3.3116382187873827 -1.140611683962309 -0.15281284608901693
85 -0.3565372787720887 -1.6412037112181708 1.8054462548175665 -3.3092889965400527 -1.1411407003279828 -0.1526401407190487
86 -0.3561022334965527 -1.6407414459518637 1.8041717785994213 -3.306945625486483 -1.1416714754489556 -0.15245323404937847
87 -0.3556671314627971 -1.6402788550286866 1.802898208995555 -3.3046082237080685 -1.142203932920522 -0.15225217212105188
88 -0.3552320039709353 -1.6398159395740133 1.8016255917468011 -3.302276908531343 -1.142737996566709 -0.15203700181496554
89 -0.354796882316395 -1.639352700691178 1.8003539730074343 -3.29995179655012 -1.1432735904489069 -0.1518077708387045
90 -0.3543617977734037 -1.638889139466778 1.7990833991825232 -3.2976330036391968 -1.1438106388746827 -0.1515645277157142
91 -0.3539267815794625 -1.638425256974415 1.7978139168138163 -3.2953206449621852 -1.1443490664068507 -0.15130732177605355
92 -0.35349186492067797 -1.6379610542773504 1.7965455724993091 -3.2930148349752706 -1.1448887978728375 -0.15103620314820687
93 -0.35305707891785193 -1.6374965324303943 1.7952784128361705 -3.290715687428142 -1.1454297583743505 -0.15075122275159183
94 -0.3526224546132511 -1.6370316924812631 1.7940124843798557 -3.2884233153629663 -1.145971873297344 -0.1504524322895129
95 -0.3521880229579949 -1.63656653547156 1.7927478336144314 -3.286137831112011 -1.1465150683222676 -0.15013988424238708
96 -0.35175381480001117 -1.6361010624374903 1.7914845069306584 -3.283859346294339 -1.1470592694345731 -0.14981363186112215
97 -0.3513198608725181 -1.6356352744103901 1.7902225506094418 -3.281587971811873 -1.1476044029354588 -0.14947372916056592
98 -0.35088619178299685 -1.6351691724171193 1.7889620108089852 -3.279323817845029 -1.1481503954528185 -0.14912023091297016
99 -0.35045283800262483 -1.6347027574803608 1.787702933554503 -3.277066993848073 -1.148697173952376 -0.14875319264143136
100 -0.3500198298561427 -1.6342360306188475 1.7864453647296972 -3.274817608544297 -1.1492446657489706 -0.14837267061328288
101 -0.3495871975121315 -1.6337689928475407 1.7851893500694505 -3.2725757699210787 -1.1497927985179752 -0.14797872183342187
102 -0.3491549709736785 -1.6333016451777702 1.7839349351533555 -3.2703415852248954 -1.1503415003068165 -0.1475714040375599
103 -0.3487231800694123 -1.6328339886173455 1.7826821653998206 -3.2681151609563073 -1.1508906995465784 -0.14715077568539098
104 -0.3482918544448904 -1.6323660241706466 1.7814310860605738 -3.265896602864948 -1.1514403250636625 -0.14671689595367332
105 -0.3478610235543221 -1.6318977528386975 1.780181742215443 -3.2636860159445393 -1.151990306091488 -0.14626982472922273
106 -0.34743071665261155 -1.6314291756192272 1.778934178767327 -3.261483504427945 -1.15254057228221 -0.1458096226018178
107 -0.3470009627877088 -1.6309602935067207 1.777688440437303 -3.2592891717822665 -1.1530910537184365 -0.1453363508570173
108 -0.34657179079325384 -1.6304911074924604 1.7764445717598314 -3.2571031207040018 -1.1536416809249295 -0.14485007146889106
109 -0.3461432292815027 -1.6300216185645633 1.775202617078033 -3.254925453114262 -1.154192384880271 -0.1443508470926661
110 -0.3457153066365249 -1.62955182770801 1.773962620539024 -3.2527562701540575 -1.1547430970284813 -0.14383874105729016
111 -0.34528805100766075 -1.6290817359046723 1.772724626089294 -3.250595672179655 -1.1552937492905715 -0.14331381735791476
112 -0.34486149030322927 -1.6286113441333339 1.771488677470128 -3.2484437587580075 -1.1558442740760229 -0.14277614064830046
113 -0.3444356521844778 -1.6281406533697114 1.770254818213061 -3.2463006286622655 -1.1563946042941748 -0.14222577623314656
114 -0.3440105640597641 -1.627669664586471 1.7690230916353709 -3.2441663798673654 -1.1569446733655127 -0.14166279006034807
115 -0.34358625307896357 -1.6271983787532445 1.7677935408356042 -3.242041109545701 -1.1574944152328437 -0.14108724871318257
116 -0.34316274612809355 -1.6267267968366432 1.766566208689139 -3.239924914062878 -1.1580437643723518 -0.1404992194024294
117 -0.3427400698241478 -1.6262549198002716 1.7653411378437824 -3.2378178889735576 -1.1585926558045216 -0.13989876995842432
118 -0.3423182505101345 -1.62578274860474 1.7641183707154093 -3.2357201290173836 -1.159141025104921 -0.13928596882305191
119 -0.3418973142503113 -1.6253102842076772 1.7628979494836388 -3.2336317281149993 -1.1596888084148365 -0.1386608850416788
120 -0.34147728682561174 -1.6248375275637434 1.7616799160875536 -3.231552779364156 -1.160235942451753 -0.13802358825503006
121 -0.34105819372925744 -1.6243644796246426 1.7604643122214632 -3.2294833750359095 -1.1607823645196707 -0.13737414869101178
122 -0.3406400601625503 -1.6238911413391364 1.7592511793307115 -3.2274236065709108 -1.1613280125192516 -0.1367126371564826
123 -0.34022291103084035 -1.623417513653058 1.7580405586075336 -3.2253735645757886 -1.161872824957793 -0.13603912502897647
124 -0.3398067709396642 -1.6229435975093278 1.7568324909869608 -3.2233333388196246 -1.162416740959017 -0.13535368424837982
125 -0.3393916641910497 -1.6224693938479697 1.755627017142777 -3.221303018230526 -1.1629597002726753 -0.13465638730856563
126 -0.3389776147799823 -1.6219949036061279 1.7544241774835265 -3.219282690892287 -1.1635016432839642 -0.133947307248987
127 -0.3385646463910294 -1.6215201277180857 1.7532240121485787 -3.2172724440411526 -1.1640425110227426 -0.13322651764623306
128 -0.33815278239511865 -1.6210450671152872 1.7520265610042451 -3.215272364062674 -1.164582245172551 -0.13249409260554976
129 -0.33774204584646667 -1.6205697227263571 1.750831863639957 -3.2132825364886592 -1.1651207880794279 -0.13175010675232826
130 -0.3373324594796547 -1.6200940954771266 1.7496399593644973 -3.211303045994224 -1.165658082760521 -0.13099463522356353
131 -0.33692404570684736 -1.6196181862906567 1.7484508872022972 -3.209333976394935 -1.1661940729124862 -0.13022775365928577
132 -0.33651682661515225 -1.619141996087267 1.74726468588979 -3.2073754106440537 -1.1667287029196787 -0.12944953819396718
133 -0.33611082396411623 -1.6186655257845635 1.7460813938718278 -3.2054274308298747 -1.1672619178621262 -0.12866006544790684
134 -0.33570605918335644 -1.61818877629747 1.7449010492981625 -3.2034901181731614 -1.1677936635232873 -0.12785941251859614
135 -0.3353025533703226 -1.617711748538261 1.7437236900199897 -3.2015635530246795 -1.1683238863975913 -0.12704765697206732
136 -0.334900327288188 -1.6172344434165962 1.7425493535865584 -3.1996478148628253 -1.1688525336977582 -0.12622487683422765
137 -0.33449940136386663 -1.6167568618395574 1.741378077241846 -3.1977429822913543 -1.1693795533618958 -0.12539115058218167
138 -0.3341587033846651 -1.616216660545143 1.7403403007570255 -3.1958257238786736 -1.1699268953808957 -0.12454655713554436
139 -0.3338147913401251 -1.6156782329513864 1.739245335808704 -3.1939272783366817 -1.1704680969411618 -0.12368924140236767
140 -0.3334680901317685 -1.6151409810620854 1.7381126753406468 -3.1920453059515634 -1.1710035742451677 -0.12281993981420264
141 -0.333118968155193 -1.6146044961213215 1.7369555793346727 -3.1901782333181985 -1.1715336751584329 -0.12193917564369709
142 -0.33276775007805787 -1.6140684985718428 1.735783065971994 -3.1883250091273 -1.1720586944498474 -0.12104732759102746
143 -0.33241472586221094 -1.6135327970419413 1.7346012680986298 -3.1864849375763957 -1.1725788850510428 -0.12014467644367509
144 -0.33206015723016996 -1.612997260353988 1.7334143568096447 -3.184657564811374 -1.173094466379133 -0.11923143679934914
145 -0.33170428237926086 -1.612461798431819 1.732225169993863 -3.182842601558417 -1.1736056305219458 -0.11830777861954202
146 -0.3313473194851829 -1.6119263492832996 1.7310356399010234 -3.181039870433685 -1.1741125468781912 -0.11737384186313422
147 -0.33098946936250295 -1.6113908701271338 1.7298470838722788 -3.1792492700696373 -1.1746153656836529 -0.1164297464134776
148 -0.3306309175325337 -1.610855331345016 1.7286604019457492 -3.1774707506950914 -1.175114220733522 -0.11547559880592416
149 -0.33027183586998143 -1.6103197123590527 1.727476211111261 -3.175704297513061 -1.1756092315224589 -0.11451149678131518
150 -0.32991238394612243 -1.6097839988206353 1.7262949364856528 -3.173949919385505 -1.176100504960112 -0.11353753236300876
151 -0.3295527101497859 -1.6092481806924093 1.7251168732044893 -3.1722076411287556 -1.1765881367742002 -0.11255379393175723
152 -0.3291929526425456 -1.6087122509383265 1.7239422284153803 -3.170477498265006 -1.1770722126808681 -0.11156036762080636
153 -0.328833240187526 -1.6081762046276973 1.722771149755228 -3.1687595334442245 -1.1775528093791137 -0.11055733825022916
154 -0.32847369287958883 -1.6076400383211256 1.7216037446500767 -3.1670537940020957 -1.1780299954099032 -0.10954478994922405
155 -0.328170298435477 -1.6071674708668198 1.7203194877645265 -3.165382972127357 -1.1785229743298904 -0.10852280656733235
156 -0.32786481426700415 -1.6066929404293184 1.7190965592400187 -3.1637174132737957 -1.1790104704594848 -0.10749355094202423
157 -0.3275574192838375 -1.6062170345610483 1.7179164202695467 -3.1620594596635176 -1.179492520138877 -0.10645646599021169
158 -0.3272483104843675 -1.6057401495130954 1.7167665362784645 -3.160410710340273 -1.179969209813335 -0.10541119995296949
159 -0.32693769193758876 -1.6052625521951618 1.715638435444164 -3.158772261638998 -1.1804406550954607 -0.1043575402334137
160 -0.32662576761904116 -1.604784422104148 1.7145263945512224 -3.1571448698577558 -1.1809069868916757 -0.10329536861710557
161 -0.32631273687096285 -1.604305879698721 1.7134265495920389 -3.1555290613018925 -1.181368342282141 -0.10222463096584031
162 -0.3259987916342396 -1.6038270055989834 1.7123362939346496 -3.153925206716745 -1.1818248586100852 -0.10114531670670601
163 -0.32568411486645066 -1.6033478535744985 1.7112538711599876 -3.152333571621097 -1.1822766697393674 -0.10005744494922847
164 -0.3253688797461288 -1.602868459326879 1.7101780996585267 -3.1507543503327677 -1.1827239037741133 -0.09896105508669248
165 -0.32505324939160923 -1.6023888464255285 1.7091081863881066 -3.1491876889603683 -1.1831666817598827 -0.09785620043068542
166 -0.324737376910804 -1.6019090303166421 1.708043600953123 -3.147633700931247 -1.183605117038907 -0.09674294389710217
167 -0.3244214056582985 -1.6014290210285589 1.7069839904839288 -3.146092477471975 -1.1840393150362594 -0.09562135507947402
168 -0.3241054696170294 -1.6009488249953714 1.7059291221059454 -3.1445640946765843 -1.1844693733251275 -0.09449150826045366
169 -0.32373535110012575 -1.6004434838876225 1.704992556135246 -3.1430322918199245 -1.1848755808835132 -0.09335348105774344
170 -0.3233684321557138 -1.5999391553335833 1.7040169817386819 -3.1415187348150617 -1.1852803181896343 -0.0922057831943133
171 -0.3230046946239881 -1.5994354223823886 1.7030164033277126 -3.1400217489815088 -1.1856836277799663 -0.09104897956572236
172 -0.3226440948466199 -1.5989320055103304 1.7020002857610081 -3.1385402199174504 -1.1860854975741164 -0.08988348191447766
173 -0.32228657437858366 -1.5984287180542323 1.7009750275089197 -3.1370734113961922 -1.1864858807679692 -0.08870959856694692
174 -0.3219320670155209 -1.59792543603319 1.6999449563699986 -3.1356208422071132 -1.1868847093562191 -0.08752756802106265
175 -0.32158050336007016 -1.5974220777311479 1.698913002201655 -3.1341822029127777 -1.1872819032519601 -0.08633758162214607
176 -0.3212318137444912 -1.5969185898935112 1.6978811512697252 -3.1327572996150304 -1.1876773763804969 -0.0851397988683437
177 -0.320885930057232 -1.596414938401571 1.696850753008507 -3.131346015984928 -1.188071040703443 -0.08393435773935551
178 -0.32054278684099713 -1.5959111019763483 1.6958227270729822 -3.1299482876364317 -1.1884628088331206 -0.08272138166569472
179 -0.32020232190916104 -1.5954070679307546 1.6947977030542185 -3.1285640848389296 -1.188852595691066 -0.08150098423075153
180 -0.31986447664625617 -1.5949028293059744 1.6937761147338788 -3.1271934008607354 -1.1892403195216599 -0.08027327234313629
181 -0.3195291961036896 -1.5943983829428292 1.69275826365599 -3.125836244113567 -1.189625902473487 -0.0790383483770802
182 -0.3191964289650898 -1.5938937281843644 1.6917443619959383 -3.1244926328617697 -1.1900092708933823 -0.07779631161678807
183 -0.3188661274309367 -1.593388866004375 1.690734561464258 -3.1231625916614703 -1.190390355431737 -0.07654725923134252
184 -0.3185382470554617 -1.592883798423178 1.6897289727924687 -3.121846148966131 -1.1907690910258977 -0.07529128693299009
185 -0.3182127465575994 -1.592378528116982 1.6887276788690713 -3.120543335518214 -1.1911454168067985 -0.0740284894218648
186 -0.31788958762023517 -1.591873058157627 1.687730743595249 -3.1192541832704155 -1.1915192759591717 -0.07275896068662736
187 -0.3175173707949503 -1.5914547227993805 1.6866257688713373 -3.118003598137126 -1.1918702635866947 -0.07148279420785472
188 -0.31715194197754326 -1.5910338479000075 1.685589308592531 -3.1167585076711672 -1.1922234462177739 -0.07020210548353488
189 -0.3167928317122038 -1.5906111179668136 1.6846002194948257 -3.1155215950780555 -1.192578103961753 -0.06891629454299561
190 -0.3164396410327625 -1.5901869974158658 1.6836443064167508 -3.114294676080507 -1.1929336641167914 -0.0676249912312242
191 -0.316092024593272 -1.589761802400283 1.6827120451124717 -3.1130789826985574 -1.1932896599604 -0.0663279795609197
192 -0.3157496787941419 -1.589335749116853 1.6817970507248607 -3.1118753540535726 -1.1936457025070153 -0.06502514687018916
193 -0.3154123333421234 -1.5889089863107215 1.680895047843086 -3.1106843646813807 -1.1940014609977732 -0.06371644966423773
194 -0.3150797451693298 -1.588481617155608 1.6800031779746945 -3.109506410827203 -1.194356649303239 -0.06240189067584808
195 -0.3147516939760079 -1.588053713987086 1.6791195339825642 -3.1083417684823806 -1.1947110163484012 -0.06108150346766736
196 -0.3144279788957599 -1.5876253282268433 1.6782428471732846 -3.107190632415652 -1.1950643392854314 -0.05975534210295061
197 -0.31410841594196187 -1.5871964970705288 1.6773722770384454 -3.10605314242237 -1.1954164185519232 -0.05842347422142861
198 -0.31379283600307567 -1.5867672479973285 1.6765072700130037 -3.1049294009778596 -1.1957670742296138 -0.05708597640198748
199 -0.3134810832285043 -1.5863376018133402 1.6756474646260906 -3.1038194851107113 -1.1961161433057905 -0.05574293106048203
200 -0.3131730136967545 -1.5859075747079474 1.6747926278289182 -3.102723454389879 -1.1964634775662915 -0.054394424377581706
201 -0.3128684942916005 -1.585477179645673 1.6739426122693857 -3.101641356299179 -1.196808941934914 -0.05304054491734075
202 -0.31256740173492625 -1.5850464273105098 1.6730973276362346 -3.100573229855549 -1.197152413132355 -0.05168138270863058
203 -0.31226962174049366 -1.5846153267487417 1.672256721450813 -3.0995191080467857 -1.1974937785674464 -0.05031702863646792
204 -0.31197504826346084 -1.5841838858084967 1.6714207662009053 -3.0984790194757252 -1.197832935400396 -0.04894757404059044
205 -0.31168358282766906 -1.5837521114421351 1.6705894507304844 -3.0974529894709484 -1.1981697897361112 -0.04757311045242901
206 -0.3113951339176348 -1.5833200099159515 1.6697627744843802 -3.0964410408387706 -1.1985042559182104 -0.046193729424319006
207 -0.31110961642555973 -1.5828875869571215 1.6689407436672212 -3.0954431943739396 -1.1988362559028791 -0.044809522420026816
208 -0.31082695114600806 -1.5824548478580485 1.6681233686852772 -3.094459469207933 -1.1991657186976068 -0.043420580745889906
209 -0.3105470643125301 -1.5820217975516788 1.6673106624475298 -3.0934898830478677 -1.1994925798538667 -0.042026995508725844
210 -0.31026988717166504 -1.5815884406669356 1.6665026392417759 -3.0925344523416274 -1.1998167810056046 -0.04062885759126391
211 -0.3099953555905819 -1.5811547815704419 1.6656993139951826 -3.091593192393154 -1.2001382694473386 -0.03922625763893404
212 -0.3097234096952217 -1.5807208243987079 1.6649007017915454 -3.090666117443981 -1.2004569977470447 -0.037819286053912375
213 -0.30945399353625536 -1.5802865730836049 1.6641068175596636 -3.0897532407318455 -1.2007729233899667 -0.03640803299370413
214 -0.3091870547805167 -1.5798520313730477 1.6633176758755142 -3.0888545745336558 -1.2010860084501995 -0.03499258837246853
215 -0.308922544425841 -1.5794172028481954 1.6625332908398738 -3.0879701301977267 -1.2013962192874006 -0.0335730418639079
216 -0.30866041653745646 -1.5789820909380692 1.6617536760057479 -3.087099918168601 -1.2017035262663693 -0.03214948290495474
217 -0.30840062800425794 -1.578546698932208 1.660978844338476 -3.0862439480066937 -1.2020079034975373 -0.030722000699764627
218 -0.30814313831344153 -1.5781110299917989 1.6602088081971 -3.0854022284042886 -1.2023093285966309 -0.02929068422370492
219 -0.30788790934211263 -1.5776750871595864 1.6594435793293862 -3.0845747671989137 -1.202607782461966 -0.02785562222714953
220 -0.30763490516459263 -1.5772388733687823 1.6586831688754626 -3.083761571384818 -1.2029032490679803 -0.0264169032389692
221 -0.3073840918742522 -1.5768023914511384 1.65792758737673 -3.082962647123033 -1.2031957152737405 -0.024974615569658687
222 -0.3071354374187916 -1.5763656441443021 1.657176844787849 -3.082177999750361 -1.2034851706452738 -0.02352884731407544
223 -0.3068889114479696 -1.575928634098547 1.6564309504903738 -3.0814076337875322 -1.2037716072906675 -0.022079686353785943
224 -0.3066444851728597 -1.5754913638829529 1.6556899133070988 -3.0806515529467062 -1.2040550197069706 -0.020627220359028826
225 -0.3064021312357809 -1.575053835991093 1.6549537415165292 -3.079909760138435 -1.204335404638005 -0.019171536790312103
226 -0.30616183046204043 -1.5746071339602552 1.6542353974467132 -3.0791795738030627 -1.2046129684667284 -0.017712722899666085
227 -0.30592342200531625 -1.5741604093992358 1.6535148453347295 -3.078464575603853 -1.204887291473389 -0.016250638842055336
228 -0.3056869041625746 -1.5737135882425957 1.6527944524096216 -3.0777644710142664 -1.205158435780009 -0.01478544751009075
229 -0.30545227036421174 -1.5732666217351936 1.6520758000333224 -3.077079062855904 -1.2054264470994576 -0.013317286257972115
230 -0.3052195109280303 -1.572819478022278 1.6513599448328427 -3.076408218688258 -1.2056913605068325 -0.011846275339690564
231 -0.3049886142163777 -1.57237213652845 1.6506475930767948 -3.0757518490313362 -1.2059532042988415 -0.010372523538861736
232 -0.3047595673958885 -1.5719245842017573 1.6499392170985445 -3.0751098928259806 -1.2062120025687286 -0.008896131924081596
233 -0.3045323569328676 -1.5714768130047443 1.6492351330138189 -3.074482307728694 -1.206467776919139 -0.007417196353334196
234 -0.30430696891307346 -1.5710288182389491 1.648535552592669 -3.0738690636350547 -1.206720547596955 -0.005935809143694519
235 -0.3040833892451129 -1.5705805974263274 1.647840617875995 -3.0732701383588235 -1.206970334240955 -0.004452060184149769
236 -0.30386160378693333 -1.570132149562743 1.6471504242736619 -3.072685514750112 -1.2072171563704452 -0.0029660376769449683
237 -0.3036415984217266 -1.5696834746199686 1.646465035975039 -3.07211517877406 -1.2074610337008622 -0.0014778286311651193
238 -0.30342335910076484 -1.5692345732136357 1.6457844962295094 -3.071559118230484 -1.2077019863440177 1.2480808911058405e-05
239 -0.3032068718648179 -1.5687854463819744 1.645108834204152 -3.071017321901205 -1.2079400349316378 0.001504805145630106
240 -0.3029921228518818 -1.5683360954384982 1.6444380695579905 -3.070489778982679 -1.208175200688078 0.0029990593832350497
241 -0.30277909829633637 -1.56788652187403 1.6437722154931322 -3.069976478708931 -1.208407505469526 0.004495158932100761
242 -0.30256778452290506 -1.5674367272916396 1.6431112807900843 -3.0694774101013977 -1.2086369717812664 0.005993019545604572
243 -0.30235816793763165 -1.5669867133635227 1.6424552711656628 -3.0689925618033898 -1.208863622780715 0.007492557278745314
244 -0.30215023501731436 -1.5665364818025054 1.641804190179218 -3.0685219219709694 -1.209087482271369 0.008993688461252767
245 -0.3019439722983262 -1.5660860343432863 1.6411580398377166 -3.0680654782014307 -1.2093085746910721 0.01049632968034932
246 -0.30173936636540977 -1.5656353727301593 1.6405168210000605 -3.0676232174868363 -1.2095269250968526 0.012000397769938685
247 -0.3015364038408107 -1.5651844987090424 1.639880533647576 -3.0671951261842536 -1.209742559147815 0.013505809804071917
248 -0.30133507137396537 -1.5647334140223668 1.639249177065289 -3.0667811899971094 -1.209955503087047 0.015012483093257763
249 -0.30113535563186256 -1.5642821204058566 1.6386227499637311 -3.0663813939639564 -1.2101657837231652 0.01652033518266207
250 -0.3009372432901357 -1.5638306195865601 1.6380012505610948 -3.065995722452168 -1.210373428411894 0.01802928385155933
251 -0.3007407210249025 -1.563378913281702 1.6373846766389577 -3.0656241591549165 -1.2105784650379212 0.019539247113611633
252 -0.30054577550534267 -1.5629270031980733 1.6367730255803736 -3.065266687090337 -1.2107809219971681 0.021050143217691695
253 -0.30035239338699093 -1.5624748910317698 1.6361662943961994 -3.0649232886021434 -1.2109808281795604 0.02256189064906091
254 -0.30016056130571184 -1.5620225784681534 1.6355644797435689 -3.0645939453612088 -1.2111782129523267 0.024074408130776055
255 -0.2999702658723187 -1.5615700671819528 1.6349675779391175 -3.064278638367789 -1.2113731061438424 0.025587614625240344
256 -0.29978149366779766 -1.5611173588374525 1.6343755849686952 -3.0639773479541748 -1.2115655380280004 0.027101429335842316
257 -0.2995942312390974 -1.560664455088728 1.6337884964947271 -3.063690053787621 -1.2117555393091017 0.028615771708644724
258 -0.29940846509544455 -1.5602113575799097 1.6332063078619903 -3.0634167348734684 -1.2119431411072308 0.03013056143409814
259 -0.2992241817051492 -1.559758067945457 1.6326290141023232 -3.063157369558388 -1.2121283749440968 0.031645718448762156
260 -0.2990413674928629 -1.5593045878104348 1.632056609938615 -3.0629119355337053 -1.2123112727293073 0.03316116293702275
261 -0.29886000883725744 -1.5588509187907849 1.6314890897882999 -3.062680409838785 -1.2124918667470468 0.034676815332798136
262 -0.2986800920690919 -1.5583970624935892 1.6309264477665135 -3.062462768864443 -1.2126701896431358 0.03619259632122784
263 -0.29850160346963905 -1.5579430205173235 1.630368677689013 -3.0622589883563873 -1.2128462744124389 0.037708426840341654
264 -0.29832452926944325 -1.5574887944521 1.6298157730749319 -3.062069043418676 -1.2130201543866004 0.03922422808270595
265 -0.29814885564738497 -1.557034385879898 1.6292677271494145 -3.0618929085171787 -1.2131918632220833 0.040739921497046076
266 -0.29797456873002764 -1.5565797963747827 1.6287245328461646 -3.061730557483051 -1.2133614348884885 0.042255428789843626
267 -0.2978016545912254 -1.5561250275031133 1.6281861828099278 -3.0615819635162103 -1.213528903657135 0.043770671926908214
268 -0.2976300992519708 -1.5556700808237407 1.6276526693989233 -3.0614470991888125 -1.2136943040898822 0.045285573134923304
269 -0.2974598886804642 -1.5552149578881933 1.6271239846872358 -3.061325936448736 -1.2138576710281752 0.04680005490296606
270 -0.2972910087923865 -1.5547596602408547 1.626600120467176 -3.06121844662306 -1.214019039582299 0.04831403998400121
271 -0.29712344545136027 -1.5543041894191307 1.6260810682516125 -3.061124600421548 -1.214178445120826 0.0498274513963492
272 -0.2969571844695826 -1.5538485469536092 1.625566819276282 -3.0610443679401302 -1.2143359232602413 0.0513402124251287
273 -0.29679221160861713 -1.5533927343682097 1.6250573645020778 -3.0609777186643843 -1.2144915098547369 0.05285224662367393
274 -0.2966285125803319 -1.5529367531803273 1.6245526946173223 -3.0609246214730192 -1.2146452409861586 0.054363477814927126
275 -0.2964660730479706 -1.5524806049009687 1.6240528000400218 -3.060885044641356 -1.2147971529540986 0.05587383009280654
276 -0.29630487862734733 -1.5520242910348807 1.6235576709201076 -3.060858955844809 -1.2149472822661223 0.05738322782355046
277 -0.296144914888153 -1.5515678130806734 1.623067297141664 -3.0608463221623676 -1.2150956656281207 0.05889159564703772
278 -0.29598616735536554 -1.551111172530937 1.6225816683251428 -3.060847110080076 -1.2152423399347798 0.06039885847808529
279 -0.29582862151075423 -1.550654370872354 1.6221007738295679 -3.0608612854945143 -1.2153873422601595 0.06190494150772334
280 -0.29567226279446984 -1.550197409585804 1.6216246027547272 -3.060888813716275 -1.2155307098483763 0.0634097702044485
281 -0.2955170766067138 -1.5497402901464663 1.6211531439433575 -3.0609296594734445 -1.215672480104381 0.06491327031545584
282 -0.2953630483094786 -1.5492830140239162 1.620686385983316 -3.0609837869150778 -1.2158126905848288 0.06641536786785011
283 -0.295210163228354 -1.548825582682218 1.6202243172097455 -3.061051159614678 -1.215951378989033 0.06791598916983706
284 -0.2950584066543915 -1.5483679975800126 1.619766925707231 -3.0611317405736687 -1.2160885831500015 0.0694150608118951
285 -0.2949077638460234 -1.547910260170604 1.6193141993119462 -3.061225492224872 -1.2162243410255473 0.07091250966792839
286 -0.29475822003102964 -1.5474523719020388 1.6188661256137955 -3.06133237643598 -1.2163586906894739 0.07240826289640165
287 -0.2946097604085487 -1.5469943342171852 1.6184226919585445 -3.0614523545130283 -1.2164916703228272 0.0739022479414575
288 -0.2944623701511277 -1.5465361485538085 1.6179838854499464 -3.0615853872038663 -1.2166233182052146 0.07539439253401697
289 -0.2943160344068077 -1.5460778163446418 1.6175496929518598 -3.0617314347016293 -1.2167536727061863 0.07688462469286389
290 -0.29417073830124035 -1.5456193390174564 1.6171201010903609 -3.061890456648204 -1.2168827722766764 0.07837287272571367
291 -0.2940264669398326 -1.545160717995128 1.6166950962558475 -3.0620624121377 -1.2170106554405027 0.07985906523026734
292 -0.2938832054099156 -1.5447019546957022 1.6162746646051385 -3.0622472597199124 -1.2171373607859204 0.08134313109525146
293 -0.29374093878293567 -1.5442430505324547 1.6158587920635652 -3.0624449574037875 -1.2172629269572315 0.08282499950144441
294 -0.2935996521166638 -1.5437840069139532 1.6154474643270578 -3.0626554626608873 -1.2173873926464456 0.08430459992269
295 -0.29345933045742095 -1.5433248252441143 1.6150406668642252 -3.0628787324288496 -1.2175107965849907 0.08578186212689888
296 -0.2933199588423177 -1.5428655069222605 1.6146383849184274 -3.063114723114849 -1.217633177535475 0.08725671617703847
297 -0.29318152230150474 -1.5424060533431743 1.6142406035098449 -3.0633633905990547 -1.2177545742834956 0.08872909243211209
298 -0.2930440058604329 -1.541946465897151 1.6138473074375401 -3.0636246902380884 -1.2178750256294963 0.09019892154812797
299 -0.2929073945421208 -1.5414867459700496 1.6134584812815127 -3.0638985768684797 -1.2179945703806692 0.0916661344790587
300 -0.2927716733694278 -1.541026894943344 1.613074109404749 -3.0641850048101196 -1.2181132473429066 0.09313066247779193
301 -0.29263682736733077 -1.5405669141941702 1.612694175955267 -3.064483927869713 -1.2182310953127935 0.09459243709707278
302 -0.29250284156520356 -1.5401068050953737 1.6123186648681538 -3.06479529934423 -1.2183481530696498 0.09605139019043885
303 -0.29236970099909665 -1.5396465690155559 1.6119475598675974 -3.065119072024354 -1.2184644593676137 0.09750745391314812
304 -0.29223739071401694 -1.5391862073191194 1.6115808444689133 -3.06545519819793 -1.2185800529277724 0.09896056072310076
305 -0.29210589576620544 -1.538725721366311 1.611218501980564 -3.06580362965341 -1.2186949724303344 0.10041064338175515
306 -0.2919752012254117 -1.5382651125132654 1.6108605155061728 -3.066164317683298 -1.2188092565068496 0.10185763495503893
307 -0.2918452921771646 -1.5378043821120468 1.6105068679465324 -3.0665372130875936 -1.2189229437324707 0.10330146881425553
308 -0.2917161537250377 -1.5373435315106903 1.6101575420016057 -3.0669222661772317 -1.2190360726182616 0.10474207863698698
309 -0.29158777099290834 -1.5368825620532418 1.6098125201725215 -3.067319426777523 -1.2191486816035495 0.10617939840799336
310 -0.2914601291272101 -1.5364214750797982 1.6094717847635645 -3.0677286442315936 -1.219260809048322 0.10761336242010962
311 -0.291333213299177 -1.5359602719265464 1.6091353178841563 -3.068149867403821 -1.2193724932256693 0.10904390527514035
312 -0.2912070087070791 -1.5354989539258008 1.6088031014508342 -3.068583044683269 -1.2194837723142744 0.11047096188475296
313 -0.2910815005784486 -1.5350375224060415 1.6084751171892189 -3.0690281239871258 -1.2195946843909453 0.1118944674713699
314 -0.29095667417229587 -1.5345759786919515 1.6081513466359791 -3.0694850527641315 -1.2197052674231985 0.11331435756906047
315 -0.2908325147813144 -1.5341143241044535 1.6078317711407875 -3.069953777998016 -1.2198155592618858 0.11473056802443271
316 -0.29070900773407454 -1.5336525599607453 1.6075163718682715 -3.0704342462109246 -1.2199255976338705 0.11614303499752593
317 -0.2905861383972051 -1.533190687574336 1.6072051297999557 -3.0709264034668506 -1.220035420134752 0.11755169496270439
318 -0.29046389217756224 -1.5327287082550813 1.606898025736199 -3.0714301953750636 -1.220145064221639 0.11895648470955258
319 -0.290342254524385 -1.5322666233092181 1.6065950402981242 -3.0719455670935365 -1.220254567205971 0.12035734134377274
320 -0.2902212109314377 -1.5318044340393995 1.6062961539295382 -3.0724724633323732 -1.2203639662463923 0.12175420228808484
321 -0.29010074693913757 -1.5313421417447284 1.6060013468988499 -3.073010828357234 -1.2204732983416744 0.12314700528312986
322 -0.2899808481366682 -1.530879747720792 1.6057105993009768 -3.073560605992759 -1.2205826003236917 0.12453568838837642
323 -0.2898615001640775 -1.5304172532596958 1.6054238910592462 -3.0741217396259986 -1.220691908850449 0.1259201899830316
324 -0.289742688714361 -1.5299546596500955 1.6051412019272888 -3.0746941722098295 -1.2208012603991614 0.127300448766956
325 -0.28962439953552793 -1.529491968177232 1.6048625114909238 -3.075277846266385 -1.220910691259389 0.12867640376158396
326 -0.2895066184326528 -1.5290291801229638 1.6045877991700381 -3.0758727038904734 -1.221020237526226 0.13004799431084865
327 -0.2893893312699087 -1.5285662967657991 1.6043170442204575 -3.076478686753005 -1.2211299350935454 0.13141516008211326
328 -0.2892725239725846 -1.5281033193809297 1.604050225735809 -3.0770957361044124 -1.221239819647299 0.13277784106710808
329 -0.2891561825290854 -1.5276402492402632 1.6037873226493764 -3.077723792778073 -1.2213499266588763 0.13413597758287393
330 -0.2890402929929138 -1.527177087612455 1.6035283137359495 -3.078362797193732 -1.2214602913785202 0.1354895102727127
331 -0.28892484148463443 -1.5267138357629413 1.6032731776136622 -3.0790126893609258 -1.2215709488288018 0.13683838010714477
332 -0.28880981419382035 -1.526250494953971 1.6030218927458237 -3.079673408882404 -1.2216819337981553 0.1381825283848743
333 -0.2886951973809799 -1.525787066444638 1.6027744374427444 -3.080344894957554 -1.2217932808344727 0.13952189673376195
334 -0.28858097737946575 -1.5253235514909136 1.6025307898635515 -3.081027086385823 -1.2219050242387621 0.1408564271118062
335 -0.28846714059736445 -1.5248599513456782 1.602290928017994 -3.0817199215701443 -1.2220171980588652 0.14218606180813292
336 -0.28835367351936647 -1.524396267258754 1.6020548297682453 -3.0824233385203597 -1.2221298360832422 0.14351074344399378
337 -0.2882405627086169 -1.5239325004769366 1.6018224728306922 -3.0831372748566475 -1.2222429718348167 0.1448304149737737
338 -0.2881277948085462 -1.5234686522440275 1.6015938347777188 -3.083861667812949 -1.2223566385648896 0.14614501968600774
339 -0.2880153565446808 -1.523004723800866 1.6013688930394803 -3.0845964542403963 -1.2224708692471171 0.1474545012044075
340 -0.2879032347264333 -1.5225407163853608 1.6011476249056698 -3.085341570610739 -1.2225856965715558 0.1487588034888974
341 -0.2877914162488722 -1.5220766312325236 1.6009300075272754 -3.086096953019778 -1.2227011529387763 0.15005787083666086
342 -0.2876798880944709 -1.5216124695744995 1.60071601791833 -3.0868625371907936 -1.2228172704540459 0.15135164788319724
343 -0.2875686373348352 -1.5211482326406012 1.6005056329576497 -3.087638258477983 -1.2229340809215803 0.1526400796033887
344 -0.28745765113240973 -1.5206839216573396 1.6002988293905696 -3.088424051869891 -1.2230516158388676 0.1539231113125782
345 -0.2873469167421635 -1.5202195378484569 1.600095583830664 -3.0892198519928487 -1.2231699063910624 0.1552006886676581
346 -0.2872364215132526 -1.5197550824349593 1.5998958727614627 -3.0900255931144134 -1.223288983445453 0.15647275766817018
347 -0.287126152890662 -1.519290556635149 1.5996996725381565 -3.090841209146807 -1.223408877546004 0.15773926465741636
348 -0.2870160984168245 -1.5188259616646567 1.5995069593892954 -3.0916666336503615 -1.2235296189079694 0.15900015632358122
349 -0.28690624573321794 -1.5183612987364752 1.599317709418477 -3.092501799836962 -1.223651237412586 0.16025537970086579
350 -0.2867965825819392 -1.5178965690609914 1.5991318986060266 -3.0933466405734964 -1.2237737626018395 0.161504882170633
351 -0.2866870968072561 -1.517431773846019 1.5989495028106693 -3.0942010883853057 -1.223897223673309 0.16274861146256486
352 -0.2865777763571362 -1.5169669142968325 1.5987704977711912 -3.0950650754596385 -1.2240216494750913 0.16398651565583147
353 -0.286468609284752 -1.516501991616199 1.5985948591080956 -3.0959385336491043 -1.224147068500801 0.16521854318027177
354 -0.2863595837499635 -1.5160370070044122 1.598422562325246 -3.0968213944751364 -1.2242735088846537 0.16644464281758645
355 -0.2862506880207769 -1.5155719616593255 1.5982535828115045 -3.097713589131453 -1.2244009983966289 0.1676647637025428
356 -0.2861419104747796 -1.5151068567763855 1.598087895842359 -3.098615048487524 -1.2245295644377139 0.16887885532419153
357 -0.28603323960055144 -1.5146416935486655 1.5977958312407494 -3.100562865818385 -1.224620899333749 0.17001963043165058
358 -0.2859273449445133 -1.5141706966249513 1.5976662283121368 -3.102501957593999 -1.2247230153275037 0.1711432442055555
359 -0.28582362784075094 -1.513695785309151 1.5976454513316758 -3.1044392008126533 -1.2248340834998628 0.17225132249815797
360 -0.285721642500157 -1.5132182290214717 1.5976980145238755 -3.1063790756836376 -1.2249528627203463 0.17334492518224795
361 -0.2856210486121434 -1.5127388689625838 1.5978004260678431 -3.1083244760136894 -1.2250785002890165 0.17442473765513886
362 -0.2855215793473435 -1.5122582636684465 1.5979371230981412 -3.1102772455661993 -1.225210401432826 0.17549119761263152
363 -0.2854230197731079 -1.5117767848507977 1.598097785905256 -3.112238533006927 -1.2253481435262548 0.17654457898658382
364 -0.28532519226543085 -1.5112946806196144 1.598275562646609 -3.1142090267859666 -1.2254914195192301 0.17758504753012577
365 -0.2852279466061705 -1.5108121172416897 1.5984658955277866 -3.1161891105713226 -1.225640000511833 0.17861269763426177
366 -0.28513115321381477 -1.5103292067474112 1.5986657444860102 -3.1181789661135944 -1.2257937109157322 0.17962757671821364
367 -0.28503469847064367 -1.5098460251943318 1.5988730736652197 -3.120178641327554 -1.2259524119078657 0.1806297013914037
368 -0.2849384814549024 -1.5093626247564842 1.5990865116700201 -3.122188095358261 -1.226115990357313 0.18161906816600198
369 -0.28484241161768287 -1.5088790417308313 1.599305126760393 -3.124207228417417 -1.2262843513711976 0.1825956605598874
370 -0.28474640709814714 -1.5083953018424578 1.5995282780840236 -3.126235901541256 -1.226457413238346 0.1835594538083028
371 -0.2846503934730644 -1.5079114237618592 1.5997555172181819 -3.128273949678412 -1.2266351039653356 0.18451041799101406
372 -0.2845543028045963 -1.5074274214384353 1.5999865230031085 -3.130321190363188 -1.2268173588733027 0.18544852010935767
373 -0.2844580728953808 -1.5069433056499069 1.6002210584083456 -3.1323774294667817 -1.227004118904193 0.18637372546717115
374 -0.28436164668991415 -1.5064590850322226 1.6004589419826372 -3.1344424650142835 -1.2271953294040219 0.1872859985901378
375 -0.2842649717811251 -1.5059747667651138 1.600700028957753 -3.1365160897212605 -1.2273909392291393 0.1881853038389515
376 -0.28416799999426184 -1.5054903570292921 1.6009441987436044 -3.138598092682722 -1.227590900073257 0.18907160581929397
377 -0.2840706870290238 -1.505005861312121 1.6011913466550358 -3.1406882605009687 -1.2277951659471968 0.1899448696568922
378 -0.28397299214674804 -1.5045212846126663 1.6014413784406332 -3.1427863780420116 -1.2280036927659135 0.19080506118291402
379 -0.2838748778933989 -1.504036631579866 1.6016942066669864 -3.144892228946144 -1.2282164380123042 0.19165214705971412
380 -0.2837763098517568 -1.503551906606185 1.601949748331647 -3.1470055959758247 -1.228433360457222 0.19248609486683546
381 -0.28367725641799296 -1.503067113891594 1.6022079232897195 -3.1491262612559288 -1.228654419921679 0.19330687316047332
382 -0.2835776885990376 -1.5025822574877123 1.6024686532191956 -3.1512540064428167 -1.228879577071604 0.19411445151516715
383 -0.28347757982798977 -1.5020973413286585 1.6027318609429588 -3.1533886128463653 -1.229108793238426 0.19490880055354146
384 -0.28337690579540303 -1.501612369252951 1.6029974699868565 -3.155529861520926 -1.2293420302607143 0.19568989196796277
385 -0.28327564429469687 -1.5011273450193514 1.6032654042939463 -3.157677533335789 -1.2295792503434153 0.1964576985366851
386 -0.2831737750802437 -1.5006422723185766 1.6035355880419941 -3.159831409032133 -1.2298204159321227 0.1972121941361963
387 -0.28307127973690394 -1.5001571547821702 1.6038079455291696 -3.161991269271097 -1.230065489600425 0.19795335375090706
388 -0.28296814155994904 -1.4996719959893907 1.6040824011047157 -3.164156894676004 -1.2303144339488004 0.19868115348094564
389 -0.28286434544444516 -1.4991867994727006 1.6043588791292183 -3.1663280658707613 -1.230567211513824 0.19939557054857024
390 -0.28275987778327244 -1.4987015687222445 1.6046373039542918 -3.1685045635157483 -1.2308237846866728 0.20009658330354296
391 -0.2826547263730439 -1.4982163071895853 1.6049175999149516 -3.170686168342059 -1.2310841156400643 0.20078417122769854
392 -0.28254888032725867 -1.4977310182908805 1.6051996913302098 -3.1728726611846616 -1.2313481662628878 0.201458314938867
393 -0.282442329996086 -1.4972457054096233 1.60548350250896 -3.17506382301484 -1.2316158981018774 0.20211899619425977
394 -0.2823350668922319 -1.4967603718990417 1.6057689577592067 -3.1772594349721395 -1.2318872723097483 0.20276619789339595
395 -0.2822270836223874 -1.4962750210842166 1.60605598139936 -3.1794592783959725 -1.2321622495992786 0.20339990408062325
396 -0.28211837382379923 -1.4957896562639672 1.6063444977707622 -3.181663134856964 -1.2324407902028691 0.2040200999472733
397 -0.2820089321055439 -1.495304280712538 1.606634431250895 -3.1838707861880873 -1.2327228538371529 0.20462677183348085
398 -0.2818987539941194 -1.4948188976811145 1.6069257062669124 -3.1860820145156135 -1.233008399672267 0.20521990722968958
399 -0.28178783588300077 -1.4943335103991884 1.607218247309273 -3.188296602289888 -1.2332973863054315 0.20579949477786244
400 -0.28167617498583564 -1.4938481220757907 1.6075119789453198 -3.19051433231593 -1.2335897717385067 0.20636552427241153
401 -0.28156376929298044 -1.4933627359006063 1.6078068258327238 -3.1927349877838433 -1.233885513359226 0.20691798666085942
402 -0.281450617531104 -1.4928773550449812 1.6081027127327336 -3.1949583522990364 -1.2341845679258299 0.2074568740442429
403 -0.28133671912560615 -1.492391982662834 1.6083995645231979 -3.1971842099122263 -1.234486891554845 0.2079821796772684
404 -0.28122207416562 -1.4919066218914803 1.6086973062113459 -3.199412345149223 -1.2347924397117682 0.2084938979682275
405 -0.2811066833713853 -1.4914212758523777 1.6089958629463204 -3.201642543040469 -1.2351011672044405 0.20899202447868034
406 -0.2809905480637974 -1.4909359476518012 1.6092951600314571 -3.203874589150323 -1.2354130281789066 0.20947655592291373
407 -0.28087367013595216 -1.49045064038145 1.60959512293632 -3.206108269606071 -1.2357279761175752 0.2099474901671807
408 -0.2807560520265215 -1.489965357118998 1.60989567730849 -3.2083433711266482 -1.2360459638395032 0.21040482622872747
409 -0.2806376966948087 -1.4894801009285887 1.6101967489851179 -3.2105796810510614 -1.2363669435026465 0.21084856427461351
410 -0.28051860759734404 -1.4889948748612822 1.6104982640042451 -3.212816987366491 -1.2366908666079273 0.21127870562033005
411 -0.280398788665892 -1.4885096819554566 1.6108001486158985 -3.215055078736064 -1.2370176840049782 0.2116952527282221
412 -0.2802782442867545 -1.48802452523717 1.6111023292929656 -3.217293744526282 -1.2373473458994375 0.21209820920571879
413 -0.28015697928126065 -1.4875394077204853 1.611404732741857 -3.2195327748340965 -1.2376798018616733 0.21248757980337624
414 -0.2800349988873452 -1.4870543324077619 1.6117072859129589 -3.2217719605136104 -1.2380150008368282 0.2128633704127376
415 -0.2799123087421249 -1.4865693022899171 1.612009916010882 -3.2240110932024035 -1.2383528911560813 0.21322558806401382
416 -0.2797889148653895 -1.4860843203466614 1.6123125505045095 -3.226249965347466 -1.2386934205490292 0.21357424092358956
417 -0.2796648236439306 -1.485599389546708 1.6126151171368515 -3.228488370230733 -1.239036536157099 0.21390933829135717
418 -0.2795400418166396 -1.4851145128479608 1.6129175439347048 -3.2307261019942066 -1.239382184547908 0.21423089059788267
419 -0.2794145764603098 -1.4846296931976837 1.6132197592181239 -3.23296295566466 -1.2397303117304959 0.21453890940140705
420 -0.2792884349760841 -1.4841449335326498 1.613521691609706 -3.235198727177913 -1.2400808631713505 0.21483340738468554
421 -0.2791616250764949 -1.4836602367792773 1.6138232700436914 -3.237433213402671 -1.240433783811166 0.2151143983516684
422 -0.27903415477304744 -1.483175605853749 1.614124423774881 -3.2396662121639204 -1.240789018082266 0.21538189722402581
423 -0.2789060323643002 -1.4826910436621217 1.6144250823873751 -3.241897522265872 -1.2411465099266326 0.21563592003751963
424 -0.2787772664244031 -1.482206553100422 1.61472517580313 -3.2441269435144515 -1.2415062028144865 0.21587648393822473
425 -0.27864786579205447 -1.4817221370547349 1.6150246342903418 -3.2463542767393188 -1.2418680397633675 0.2161036071786024
426 -0.27851783955984344 -1.4812377984012817 1.6153233884716498 -3.2485793238154237 -1.2422319633576613 0.21631730911342842
427 -0.27838719706394627 -1.4807535400064915 1.615621369332167 -3.250801887684086 -1.2425979157685336 0.2165176101955778
428 -0.2782559478741475 -1.4802693647270668 1.6159185082273353 -3.253021772373594 -1.2429658387742217 0.21670453197166917
429 -0.2781241017841609 -1.4797852754100422 1.6162147368906072 -3.255238783019324 -1.2433356737806471 0.21687809707757028
430 -0.27799166880222614 -1.4793012748928398 1.6165099874409545 -3.257452725883365 -1.2437073618423098 0.2170383292337673
431 -0.2778586591419589 -1.47881736600332 1.6168041923902032 -3.2596634083736618 -1.244080843683427 0.21718525324060003
432 -0.27772508321343625 -1.4783335515598297 1.6170972846501985 -3.2618706390626553 -1.244456059719284 0.21731889497336468
433 -0.2775909516144987 -1.4778498343712476 1.6173891975397965 -3.2640742277054304 -1.244832950077763 0.21743928137728685
434 -0.2774562751222526 -1.477366217237027 1.6176798647916841 -3.266273985257368 -1.245211454621022 0.2175464404623663
435 -0.27732106468475926 -1.476882702947239 1.6179692205590295 -3.2684697238912888 -1.245591512967292 0.21764040129809561
436 -0.2771853314128965 -1.4763992942826119 1.6182571994219597 -3.2706612570141025 -1.2459730645127698 0.21772119400805479
437 -0.2770490865723814 -1.4759159940145732 1.618543736393869 -3.2728483992829496 -1.2463560484535738 0.21778884976438348
438 -0.2769123415759437 -1.475432804905289 1.6188287669275574 -3.27503096662084 -1.2467404038077476 0.21784340078213307
439 -0.27677510797563903 -1.4749497297077045 1.6191122269211964 -3.277208776231788 -1.2471260694372792 0.21788488031350034
440 -0.27663739745529514 -1.4744667711655857 1.619394052724127 -3.2793816466154455 -1.2475129840701205 0.21791332264194452
441 -0.27649922182308134 -1.47398393201356 1.6196741811424877 -3.2815493975812258 -1.2479010863221822 0.21792876307618989
442 -0.27636059300419596 -1.4735012149771591 1.6199525494446725 -3.2837118502619322 -1.2482903147192888 0.2179312379441155
443 -0.27622152303366415 -1.4730186227728639 1.6202290953666203 -3.285868827126877 -1.2486806077190689 0.21792078458653427
444 -0.2760820240492416 -1.472536158108148 1.6205037571169354 -3.288020151994506 -1.2490719037327696 0.2178974413508629
445 -0.27594210828441884 -1.4720538236815253 1.620776473381839 -3.290165650044522 -1.2494641411469725 0.21786124758468492
446 -0.2758017880615217 -1.4715716221825985 1.6210471833299533 -3.292305147829513 -1.2498572583452001 0.21781224362920862
447 -0.27566107578490445 -1.471089556292109 1.621315826616919 -3.294438473286082 -1.2502511937293934 0.2177504708126216
448 -0.2755199839342321 -1.4706076286819878 1.621582343389842 -3.2965654557454913 -1.2506458857412486 0.21767597144334422
449 -0.27537852505784877 -1.470125842015411 1.6218466742915785 -3.298685925943816 -1.251041272883399 0.21758878880318344
450 -0.2752367117662304 -1.4696441989468538 1.6221087604648503 -3.3007997160316087 -1.251437293740428 0.21748896714038965
451 -0.2750945567255186 -1.4691627021221498 1.622368543556196 -3.302906659583086 -1.2518338869997003 0.21737655166261766
452 -0.27495207265113486 -1.4686813541785493 1.6226259657197588 -3.3050065916048377 -1.2522309914720045 0.21725158852979456
453 -0.2748092723014729 -1.4682001577447816 1.6228809696209072 -3.3070993485440594 -1.252628546111987 0.217114124846896
454 -0.274666168471668 -1.4677191154411195 1.6231334984396963 -3.3091847682963142 -1.2530264900383759 0.216964208656633
455 -0.274522773987443 -1.467238229879444 1.6233834958741629 -3.3112626902128333 -1.2534247625539783 0.21680188893205163
456 -0.2743791016990286 -1.466757503663312 1.6236309061434635 -3.3133329551073514 -1.2538233031654447 0.21662721556904715
457 -0.27423516447515955 -1.4662769393880273 1.6238756739908478 -3.3153954052624908 -1.2542220516027913 0.2164402393787951
458 -0.2740909751971441 -1.4657965396407107 1.6241177446864763 -3.3174498844356903 -1.2546209478386703 0.2162410120801011
459 -0.27394654675300795 -1.4653163070003739 1.6243570640300762 -3.3194962378646946 -1.2550199321073816 0.2160295862916718
460 -0.27380189203171185 -1.464836244037995 1.6245935783534433 -3.3215343122725978 -1.2554189449236177 0.21580601552430895
461 -0.273657023917443 -1.4643563533165949 1.6249738100605662 -3.322391351570217 -1.255811280199414 0.21562104122785822
462 -0.2735090890648521 -1.463883072782735 1.6251803522404333 -3.323266513903396 -1.2561985539167282 0.2154366928875695
463 -0.27335866654889873 -1.463414332567966 1.6252690792829965 -3.3241529159862573 -1.2565816492653092 0.21525097767158735
464 -0.2732061883203756 -1.4629487267142134 1.625277792561458 -3.3250458783953474 -1.25696120121334 0.21506255187875406
465 -0.27305198426868044 -1.462485300994879 1.6252320581021025 -3.3259422168576056 -1.2573376720726928 0.2148705112942697
466 -0.27289631255315794 -1.4620234080407168 1.625149162140112 -3.3268397604397433 -1.2577114039800266 0.21467424927220286
467 -0.2727393801696753 -1.4615626087062283 1.625040789411411 -3.3277370245848523 -1.2580826550581954 0.21447336069135003
468 -0.27258135699605185 -1.46110260504987 1.6249148357503924 -3.328632989495294 -1.258451624233747 0.21426757696546367
469 -0.27242238545706665 -1.460643194855266 1.6247766344351635 -3.329526950036912 -1.258818468251201 0.21405672206880022
470 -0.2722625872328329 -1.4601842407963046 1.6246297857364655 -3.330418414133541 -1.259183313353816 0.21384068278038385
471 -0.27210206796288033 -1.4597256495419535 1.6244767179948758 -3.331307034007368 -1.2595462633321504 0.21361938854743176
472 -0.271940920585636 -1.4592673576008435 1.624319067090054 -3.3321925596549806 -1.259907405103163 0.2133927978560105
473 -0.2717792277444028 -1.4588093217327984 1.6241579330769156 -3.3330748073707035 -1.2602668126105419 0.21316088900378694
474 -0.2716170635511568 -1.4583515124536868 1.6239940537476636 -3.333953638450391 -1.2606245495823036 0.2129236538509153
475 -0.2714544949055304 -1.4578939096349592 1.6238279220109877 -3.334828944782096 -1.2609806715084526 0.21268109358589024
476 -0.271291582503044 -1.4574364995214746 1.6236598652750756 -3.335700639095324 -1.2613352270840683 0.21243321585486769
477 -0.2711283816239196 -1.4569792727096087 1.6234900991336603 -3.336568648361556 -1.2616882592838194 0.21218003281375722
478 -0.27096494276492317 -1.4565222227755934 1.62331876367273 -3.337432909326515 -1.2620398061803089 0.21192155980496552
479 -0.2708013121571233 -1.4560653453441954 1.623145948022967 -3.3382933654846028 -1.2623899015825133 0.2116578144571034
480 -0.2706375321991905 -1.4556086374556645 1.622971706962149 -3.3391499650291148 -1.2627385755462088 0.21138881607119495
481 -0.2704736418268508 -1.4551520971347767 1.6227960721404149 -3.3400026594627534 -1.2630858547918273 0.21111458520104642
482 -0.270309676832971 -1.4546957230968658 1.6226190596685754 -3.340851402655057 -1.2634317630540937 0.21083514336527925
483 -0.27014567014856367 -1.4542395145467626 1.6224406752464902 -3.3416961502023903 -1.2637763213802864 0.2105505128487212
484 -0.26998165209212577 -1.4537834710407915 1.622260917627658 -3.342536858992835 -1.2641195483888898 0.21026071656451092
485 -0.2698176505927495 -1.453327592391606 1.6220797809585537 -3.3433734869099023 -1.2644614604969509 0.209965777957514
486 -0.2696536913910682 -1.4528718786021662 1.621897256357005 -3.344205992630352 -1.2648020721221058 0.20966572093590408
487 -0.26948979822114594 -1.4524163298195742 1.6217133329760414 -3.345034335485848 -1.2651413958636313 0.2093605698219957
488 -0.26932599297573895 -1.4519609463024732 1.621527998719915 -3.345858475367973 -1.265479442665765 0.20905034931628197
489 -0.26916229585687523 -1.4515057283977357 1.6213412407250667 -3.3466783726627085 -1.2658162219657692 0.20873508447057007
490 -0.2689987255133454 -1.4510506765235442 1.6211530456823116 -3.3474939882049983 -1.2661517418286707 0.20841480066742235
491 -0.2688352991664389 -1.4505957911568896 1.6209634000518436 -3.3483052832470137 -1.2664860090702204 0.2080895236040007
492 -0.26867203272506174 -1.4501410728241448 1.6207722902059525 -3.3491122194358054 -1.266819029369341 0.20775927927901605
493 -0.2685089408912212 -1.4496865220937991 1.6205797025230488 -3.3499147587974076 -1.2671508073711273 0.20742409398189346
494 -0.26834603725674167 -1.4492321395707235 1.620385623448947 -3.350712863725401 -1.267481346781295 0.20708399428354218
495 -0.2681833343919795 -1.4487779258915408 1.6201900395361848 -3.3515064969725783 -1.2678106504528754 0.2067390070283079
496 -0.26802084392722353 -1.4483238817208 1.6199929374686597 -3.352295621644788 -1.2681387204658372 0.2063891593268134
497 -0.2678585766274002 -1.4478700077477527 1.6197943040764944 -3.353080201196324 -1.2684655582002526 0.20603447854948193
498 -0.2676965424606435 -1.4474163046835842 1.6195941263444436 -3.353860199426428 -1.2687911644035597 0.20567499232059638
499 -0.2675347506612397 -1.4469627732590016 1.6193923914160706 -3.3546355804766006 -1.2691155392524114 0.20531072851278961
500 -0.2673732097874104 -1.4465094142221022 1.6191890865951923 -3.3554063088285178 -1.2694386824095663 0.2049417152418888
501 -0.2672119277743587 -1.446056228336473 1.6189841993455947 -3.356172349302409 -1.2697605930762248 0.20456798086205685
502 -0.26705091198296677 -1.4456032163794814 1.6187777172896887 -3.3569336670557886 -1.2700812700401867 0.20418955396118707
503 -0.26689016924450015 -1.4451503791407265 1.6185696282065491 -3.3576902275824696 -1.270400711720168 0.20380646335651761
504 -0.26672970590164496 -1.4446977174206308 1.6183599200296317 -3.3584419967118104 -1.270718916206593 0.20341873809043853
505 -0.26656952784617727 -1.4442452320291526 1.6181485808443536 -3.3591889406081443 -1.2710358812991411 0.20302640742646952
506 -0.266409640553539 -1.4437929237846066 1.617935598885664 -3.359931025770377 -1.2713516045413145 0.2026295008453903
507 -0.2662500491145732 -1.4433407935125802 1.6177209625356763 -3.360668219031712 -1.271666083252265 0.20222804804150793
508 -0.2660907582646491 -1.4428888420449344 1.6175046603214098 -3.3614004875595005 -1.2719793145561031 0.201822078919048
509 -0.2659317724103914 -1.442437070218884 1.6172866809126645 -3.36212779885519 -1.2722912954088867 0.20141162358865766
510 -0.2657730956542071 -1.4419854788761457 1.6170670131200422 -3.3628501207543633 -1.2726020226234807 0.20099671236401073
511 -0.26561473181679157 -1.4415340688621516 1.616845645893114 -3.3635674214268607 -1.2729114928924532 0.20057737575850518
512 -0.26545668445777765 -1.4410828410253202 1.6166225683187387 -3.364279669376969 -1.2732197028091712 0.20015364448204498
513 -0.26529895689467936 -1.4406317962163795 1.6163977696195178 -3.3649868334436754 -1.2735266488872323 0.19972554943789905
514 -0.2651415522202704 -1.4401809352877395 1.616171239152387 -3.3656888828009746 -1.2738323275783718 0.19929312171963023
515 -0.26498447331852465 -1.4397302590929084 1.6159429664073326 -3.3663857869582277 -1.2741367352889614 0.1988563926080883
516 -0.2648277228792367 -1.4392797684859486 1.6157129410062254 -3.3670775157605646 -1.2744398683952156 0.1984153935684616
517 -0.26467130341143064 -1.43882946432097 1.6154811527017618 -3.367764039389321 -1.274741723257204 0.19797015624738204
518 -0.264515217255656 -1.4383793474516577 1.6152475913765052 -3.3684453283625118 -1.2750422962317676 0.1975207124700788
519 -0.2643594665952628 -1.4379294187308291 1.615012247042018 -3.3691213535353346 -1.2753415836844237 0.1970670942375766
520 -0.2642040534667387 -1.437479679010021 1.6147751098380785 -3.3697920861006945 -1.275639582000339 0.19660933372393483
521 -0.2640489797691863 -1.4370301291391014 1.6145361700319725 -3.370457497589754 -1.2759362875944449 0.1961474632735235
522 -0.2638942472730108 -1.4365807699659052 1.6142954180178553 -3.3711175598724976 -1.2762316969207614 0.19568151539833348
523 -0.2637398576278834 -1.4361316023358919 1.6140528443161792 -3.3717722451583154 -1.2765258064809928 0.19521152277531742
524 -0.26358581237003964 -1.4356826270918228 1.6138084395731738 -3.3724215259965944 -1.2768186128324475 0.1947375182437592
525 -0.2634321129289685 -1.4352338450734572 1.6135621945603824 -3.3730653752773225 -1.2771101125953421 0.19425953480266914
526 -0.2632787606335422 -1.4347852571172632 1.6133141001742437 -3.373703766231699 -1.2774003024595286 0.1937776056082028
527 -0.2631257567176331 -1.434336864056147 1.6130641474357166 -3.374336672432746 -1.2776891791906944 0.19329176397110157
528 -0.2629731023252602 -1.433888666719192 1.6128123274899426 -3.3749640677959296 -1.2779767396360746 0.19280204335415263
529 -0.262820798515305 -1.433440665931414 1.6125586316059441 -3.375585926579776 -1.2782629807297126 0.19230847736966744
530 -0.26266884626583165 -1.432992862513527 1.6123030511763516 -3.376202223386489 -1.2785478994973034 0.1918110997769764
531 -0.26251724647804564 -1.4325452572817188 1.6120455777171607 -3.3768129331625634 -1.2788314930606517 0.19130994447993888
532 -0.2623659999799199 -1.4320978510474365 1.6117862028675116 -3.3774180311993973 -1.2791137586417722 0.1908050455244669
533 -0.2622151075295178 -1.4316506446171822 1.6115249183894917 -3.378017493133896 -1.2793946935666611 0.19029643709606195
534 -0.2620645698180374 -1.4312036387923157 1.6112617161679579 -3.3786112949490716 -1.2796742952687605 0.18978415351736316
535 -0.26191438747260076 -1.4307568343688644 1.6109965882103745 -3.379199412974631 -1.279952561292138 0.18926822924570652
536 -0.26176456105881063 -1.4303102321373404 1.6107295266466668 -3.3797818238875585 -1.2802294892944062 0.18874869887069387
537 -0.26161509108309333 -1.4298638328825644 1.6104605237290888 -3.3803585047126896 -1.2805050770493946 0.18822559711177134
538 -0.26146597799484655 -1.4294176373834935 1.6101895718320982 -3.380929432823268 -1.280779322449597 0.18769895881581616
539 -0.26131722218840875 -1.4289716464130569 1.6099166634522475 -3.381494585941497 -1.2810522235084063 0.18716881895473142
540 -0.26116882400486574 -1.4285258607379925 1.6096417912080752 -3.3820539421390756 -1.2813237783621543 0.18663521262304836
541 -0.2610207837337079 -1.4280802811186923 1.6093649478400105 -3.3826074798377204 -1.2815939852719682 0.18609817503553547
542 -0.2608731016143518 -1.427634908309048 1.609086126210279 -3.383155177809678 -1.2818628426254568 0.18555774152481413
543 -0.2607257778375375 -1.4271897430563014 1.6088053193028151 -3.3836970151782184 -1.2821303489382374 0.1850139475389804
544 -0.26057881254661275 -1.4267447861008997 1.6085225202231765 -3.3842329714181147 -1.2823965028553148 0.18446682863923264
545 -0.26043220583871396 -1.4263000381763513 1.6082377221984607 -3.3847630263561106 -1.282661303152322 0.1839164204975046
546 -0.2602859577658532 -1.4258555000090858 1.6079509185772245 -3.3852871601713663 -1.2829247487366298 0.18336275889410372
547 -0.2601400683359201 -1.4254111723183163 1.6076621028294023 -3.3858053533958934 -1.283186838648335 0.18280587971535475
548 -0.25999453751360513 -1.424967055815904 1.607371268546224 -3.38631758691497 -1.2834475720611358 0.18224581895124792
549 -0.25984936522125307 -1.4245231512062244 1.6070784094401354 -3.3868238419675394 -1.2837069482830983 0.18168261269309208
550 -0.259704551339652 -1.4240794591860366 1.606783519344713 -3.387324100146593 -1.2839649667573232 0.18111629713117233
551 -0.2595600957087642 -1.4236359804443535 1.6064865922145801 -3.3878183433995326 -1.284221627062517 0.1805469085524122
552 -0.2594159981284043 -1.423192715662313 1.6061876221253177 -3.388306554028518 -1.284476928913474 0.17997448333804025
553 -0.25927225835887013 -1.4227496655130534 1.6058866032733756 -3.388788714690796 -1.2847308721614745 0.179399057961261
554 -0.25912887612153007 -1.4223068306615867 1.6055835299759775 -3.389264808399005 -1.2849834567946012 0.17882066898493015
555 -0.2589858510993725 -1.421864211764676 1.6052783966710245 -3.3897348185214735 -1.2852346829379828 0.1782393530592343
556 -0.25884318293751934 -1.4214218094707125 1.6049711979169932 -3.390198728782488 -1.2854845508539636 0.17765514691937462
557 -0.25870087124370916 -1.420979624419595 1.6046619283928305 -3.3906565232625465 -1.2857330609422062 0.17706808738325508
558 -0.25855891558875194 -1.4205376572426087 1.6043505828978437 -3.391108186398596 -1.2859802137397294 0.17647821134917488
559 -0.2584173155069586 -1.420095908562307 1.6040371563515856 -3.391553702984247 -1.286226009920884 0.17588555579352522
560 -0.25827607049654866 -1.419654378992393 1.603721643793734 -3.391993058169968 -1.2864704502972715 0.17529015776849036
561 -0.25813518002003744 -1.4192130691376017 1.603404040383969 -3.3924262374632663 -1.2867135358176052 0.17469205439975313
562 -0.25799464350460666 -1.4187719795935847 1.603084341401841 -3.3928532267288425 -1.2869552675675182 0.17409128288420497
563 -0.2578544603424588 -1.418331110946794 1.6027625422466352 -3.3932740121887304 -1.2871956467693215 0.17348788048766037
564 -0.2577146298911585 -1.4178904637743672 1.602438638437232 -3.393688580422417 -1.2874346747817107 0.1728818845425758
565 -0.257575151473962 -1.4174500386440145 1.6021126256119593 -3.39409691836694 -1.2876723530994283 0.17227333244577356
566 -0.25743602438013635 -1.4170098361139047 1.60178449952844 -3.3944990133169686 -1.2879086833528788 0.17166226165616996
567 -0.2572972478652705 -1.416569856732553 1.6014542560634342 -3.3948948529248635 -1.2881436673077007 0.17104870969250865
568 -0.25715882115157834 -1.41613010103871 1.601121891212675 -3.3952844252007184 -1.2883773068642979 0.17043271413109853
569 -0.2570207434281962 -1.4156905695612503 1.6007874010906984 -3.3956677185123803 -1.2886096040573294 0.16981431260355673
570 -0.2568830138514751 -1.415251262819063 1.6004507819306673 -3.39604472158545 -1.28884056105516 0.16919354279455662
571 -0.2567456315452692 -1.4148121813209422 1.6001120300841905 -3.3964154235032664 -1.2890701801592745 0.16857044243958091
572 -0.2566085956012209 -1.4143733255654782 1.5997711420211336 -3.3967798137068663 -1.2892984638036546 0.16794504932267998
573 -0.2564719050790441 -1.4139346960409502 1.5994281143294253 -3.397137881994928 -1.2895254145541204 0.16731740127423542
574 -0.2563355590068059 -1.4134962932252193 1.5990829437148582 -3.3974896185236942 -1.2897510351076389 0.166687536168729
575 -0.2561995563812072 -1.4130581175856218 1.5987356270008828 -3.3978350138068762 -1.289975328291598 0.1660554919225172
576 -0.25606389616786385 -1.412620169578865 1.5983861611283952 -3.398174058715537 -1.2901982970630497 0.1654213064916111
577 -0.25592857730158736 -1.412182449650921 1.5980345431555194 -3.398506744477954 -1.2904199445079207 0.16478501786946206
578 -0.25579359868666757 -1.4117449582369244 1.5976807702573852 -3.398833062679469 -1.290640273840195 0.1641466640847532
579 -0.25565895919715564 -1.411307695761069 1.5973248397258963 -3.3991530052623076 -1.2908592884010637 0.1635062831991965
580 -0.2555246576771498 -1.4108706626365064 1.5969667489694968 -3.39946656452539 -1.2910769916580491 0.16286391330533595
581 -0.2553906929410828 -1.4104338592652432 1.5966064955129293 -3.399773733124115 -1.2912933872041 0.16221959252435675
582 -0.25525706377401186 -1.4099972860380434 1.596244076996988 -3.400074504070129 -1.291508478756658 0.1615733590039005
583 -0.2551237689319115 -1.409560943334327 1.5958794911782668 -3.4003688707310733 -1.2917222701567006 0.16092525091588658
584 -0.25499080714196987 -1.4091248315220732 1.595512735928901 -3.4006568268303146 -1.2919347653677558 0.1602753064543399
585 -0.2548581771028875 -1.4086889509577227 1.5951438092363028 -3.4009383664466535 -1.2921459684748928 0.15962356383322487
586 -0.2547258774851804 -1.4082533019860815 1.5947727092028936 -3.401213484014016 -1.2923558836836881 0.1589700612842858
587 -0.2545939069314865 -1.407817884940226 1.5943994340458274 -3.4014821743211243 -1.2925645153191665 0.158314837054894
588 -0.2544622640568758 -1.4073827001414094 1.5940239820967124 -3.4017444325111525 -1.2927718678247202 0.1576579294059011
589 -0.2543309474491648 -1.4069477478989683 1.5936463518013253 -3.4020002540813583 -1.2929779457610049 0.15699937660949942
590 -0.2541999556692348 -1.4065130285102307 1.5932665417193208 -3.4022496348826974 -1.2931827538048122 0.1563392169470889
591 -0.2540692872513546 -1.4060785422604263 1.5928845505239355 -3.402492571119422 -1.293386296747922 0.15567748870715084
592 -0.25393894070350687 -1.4056442894225967 1.5925003770016877 -3.4027290593486588 -1.2935885794959328 0.15501423018312846
593 -0.2538089145077198 -1.4052102702575073 1.5921140200520718 -3.402959096479966 -1.2937896070670716 0.15434947967131465
594 -0.2536792071204023 -1.4047764850135611 1.5917254786872472 -3.403182679774876 -1.2939893845909831 0.1536832754687465
595 -0.25354981697268386 -1.4043429339267122 1.5913347520317234 -3.403399806846416 -1.2941879173075 0.15301565587110696
596 -0.25342074247075885 -1.4039096172203827 1.590941839322039 -3.4036104756586134 -1.2943852105653928 0.15234665917063392
597 -0.25329198199623526 -1.4034765351053793 1.590546739906437 -3.403814684525979 -1.2945812698211026 0.15167632365403608
598 -0.2531635339064879 -1.4030436877798127 1.590149453244537 -3.4040124321129768 -1.2947761006374532 0.15100468760041638
599 -0.25303539653501567 -1.4026110754290169 1.5897499789069995 -3.4042037174334703 -1.2949697086823486 0.1503317892792028
600 -0.2529075681918039 -1.4021786982254711 1.5893483165751874 -3.4043885398501565 -1.2951620997274498 0.14965766694808633
601 -0.25278004716369007 -1.4017465563287232 1.5889444660408247 -3.4045668990739757 -1.2953532796468357 0.1489823588509666
602 -0.2526528317147349 -1.4013146498853137 1.5885384272056489 -3.4047387951635084 -1.2955432544156489 0.14830590321590495
603 -0.25252592008659686 -1.4008829790287032 1.5881302000810593 -3.4049042285243525 -1.2957320301087232 0.1476283382530849
604 -0.2523993104989117 -1.4004515438791987 1.587719784787763 -3.405063199908482 -1.2959196128991968 0.14694970215278053
605 -0.2522730011496753 -1.400020344543884 1.5873071815554158 -3.4052157104135876 -1.2961060090571104 0.1462700330833322
606 -0.2521469902156314 -1.3995893811165512 1.586892390722258 -3.405361761482403 -1.296291224947989 0.1455893691891302
607 -0.25202127585266276 -1.3991586536776333 1.586475412734749 -3.40550135490201 -1.2964752670314106 0.14490774858860608
608 -0.25189585619618693 -1.398728162294138 1.5860562481471951 -3.4056344928031277 -1.296658141859561 0.1442252093722316
609 -0.25177072936155526 -1.398297907019586 1.5856348976213777 -3.405761177659384 -1.2968398560757728 0.14354178960052574
610 -0.25164589344445637 -1.397867887893947 1.5852113619261736 -3.405881412286571 -1.2970204164130548 0.14285752730206944
611 -0.25152134652132285 -1.3974381049435816 1.5847856419371746 -3.4059951998418807 -1.2971998296926048 0.14217246047152826
612 -0.251397086649742 -1.3970085581811826 1.5843577386363032 -3.406102543823126 -1.2973781028223135 0.141486627067683
613 -0.25127311186886975 -1.396579247605719 1.5839276531114241 -3.4062034480679437 -1.2975552427952535 0.1408000650114683
614 -0.2511494201998486 -1.3961501732023813 1.5834953865559542 -3.4062979167529805 -1.2977312566881583 0.14011281218401914
615 -0.25102600964622845 -1.3957213349425301 1.5830609402684674 -3.406385954393062 -1.2979061516598895 0.1394249064247255
616 -0.2509028781943911 -1.3952927327836455 1.5826243156522983 -3.406467565840345 -1.2980799349498942 0.13873638552929504
617 -0.25078002381397757 -1.3948643666692784 1.5821855142151415 -3.406542756283453 -1.29825261387665 0.1380472872478239
618 -0.25065744445831883 -1.3944362365290053 1.5817445375686485 -3.4066115312465963 -1.2984241958361011 0.1373576492828754
619 -0.25053513806486943 -1.3940083422783838 1.5813013874280224 -3.4066738965886727 -1.2985946883000863 0.13666750928756727
620 -0.25041310255564403 -1.3935806838189104 1.5808560656116093 -3.406729858502356 -1.2987640988147544 0.13597690486366676
621 -0.2502913358376567 -1.3931532610379813 1.5804085740404865 -3.4067794235131648 -1.2989324349989735 0.13528587355969393
622 -0.2501698358033629 -1.3927260738088545 1.57995891473805 -3.406822598478514 -1.2990997045427306 0.13459445286903335
623 -0.250048600331104 -1.3922991219906138 1.5795070898295975 -3.406859390586755 -1.2992659152055237 0.13390268022805382
624 -0.2499276272855544 -1.3918724054281364 1.57905310154191 -3.406889807356194 -1.2994310748147448 0.13321059301423646
625 -0.24980691451817097 -1.3914459239520616 1.5785969522028311 -3.406913856634101 -1.2995951912640575 0.13251822854431108
626 -0.24968645986764462 -1.391019677378762 1.578138644240843 -3.406931546595694 -1.2997582725117667 0.13182562407240067
627 -0.24956626116035407 -1.3905936655103175 1.577678180184643 -3.406942885743116 -1.2999203265791812 0.13113281678817443
628 -0.2494463162108218 -1.3901678881344903 1.577215562662714 -3.4069478829043915 -1.3000813615489708 0.13043984381500887
629 -0.24932662282217163 -1.389742345024704 1.5767507944028971 -3.4069465472323675 -1.3002413855635175 0.12974674220815746
630 -0.24920717878658838 -1.3893170359400235 1.5762838782319586 -3.4069388882036407 -1.3004004068232617 0.12905354895292845
631 -0.24908798188577905 -1.3888919606251389 1.5758148170751576 -3.406924915617468 -1.300558433585041 0.12836030096287107
632 -0.24896902989143557 -1.3884671188103492 1.5753436139558106 -3.406904639594662 -1.3007154741604279 0.12766703507797023
633 -0.24885032056569925 -1.388042510211552 1.5748702719948546 -3.40687807057647 -1.30087153691406 0.1269737880628494
634 -0.24873185166162623 -1.3876181345302314 1.5743947944104093 -3.4068452193234386 -1.301026630261969 0.12628059660498198
635 -0.24861362092365438 -1.3871939914534535 1.5739171845173354 -3.4068060969142664 -1.3011807626699032 0.12558749731291108
636 -0.2484956260880713 -1.3867700806538585 1.5734374457267948 -3.406760714744633 -1.3013339426516486 0.12489452671447761
637 -0.2483778648834832 -1.38634640178966 1.5729555815458054 -3.4067090845260233 -1.3014861787673468 0.1242017212550569
638 -0.248260335031285 -1.385922954504645 1.5724715955767978 -3.4066512182845288 -1.3016374796218113 0.1235091172958036
639 -0.2481430342461307 -1.385499738428175 1.5719854915171694 -3.406587128359639 -1.3017878538628382 0.12281675111190517
640 -0.2480259602364048 -1.385076753175193 1.5714972731588355 -3.4065168274030144 -1.3019373101795202 0.12212465889084358
641 -0.2479091107046942 -1.3846539983462294 1.5710069443877823 -3.406440328377249 -1.3020858573005556 0.12143287673066568
642 -0.24779248334826037 -1.3842314735274126 1.5705145091836163 -3.406357644554614 -1.3022335039925566 0.12074144063826187
643 -0.247676075859512 -1.383809178290482 1.5700199716191128 -3.40626878951579 -1.302380259058358 0.12005038652765324
644 -0.24755988592647785 -1.3833871121928025 1.569523335859765 -3.406173777148583 -1.3025261313353262 0.11935975021828718
645 -0.24744391123327947 -1.3829652747773828 1.5690246061633288 -3.406072621646628 -1.302671129693665 0.11866956743334146
646 -0.2473281494606042 -1.3825436655728949 1.5685237868793704 -3.405965337508075 -1.3028152630347254 0.11797987379803673
647 -0.2472125982861778 -1.382122284093697 1.5680208824488104 -3.4058519395342652 -1.3029585402893136 0.11729070483795755
648 -0.24709725538523702 -1.38170112983986 1.5675158974034678 -3.4057324428283895 -1.3031009704160017 0.1166020959773818
649 -0.24698211843100157 -1.3812802022971937 1.5670088363656018 -3.4056068627941345 -1.3032425623994393 0.11591408253761872
650 -0.2468671850951458 -1.3808595009372782 1.566499704047456 -3.405475215134314 -1.3033833252486653 0.11522669973535522
651 -0.24675245304826968 -1.3804390252174963 1.5659885052507976 -3.4053375158494883 -1.303523267995425 0.11453998268101093
652 -0.24663791996036916 -1.38001877458107 1.565475244866459 -3.4051937812365694 -1.3036623996924859 0.11385396637710152
653 -0.24652358350130563 -1.379598748457098 1.5649599278738773 -3.405044027887409 -1.3038007294119598 0.11316868571661061
654 -0.24640944134127457 -1.379178946260596 1.5644425593406335 -3.4048882726873773 -1.3039382662436259 0.1124841754813702
655 -0.246295491151273 -1.37875936739254 1.56392314442199 -3.404726532813927 -1.304075019293257 0.11180047034044958
656 -0.24618173060356596 -1.3783400112399131 1.5634016883604298 -3.4045588257351427 -1.304210997680952 0.11111760484855279
657 -0.24606815737215157 -1.377920877175752 1.562878196485192 -3.404385169208279 -1.3043462105394685 0.1104356134444245
658 -0.24595476913322484 -1.377501964559199 1.5623526742118101 -3.4042055812782825 -1.304480667012565 0.10975453044926453
659 -0.24584156356564 -1.3770832727355549 1.5618251270416457 -3.4040200802763056 -1.3046143762533424 0.10907439006515086
660 -0.24572853835137112 -1.376664801036334 1.5612955605614254 -3.4038286848182002 -1.3047473474225948 0.10839522637347113
661 -0.24561569117597132 -1.3762465487793236 1.5607639804427758 -3.403631413803005 -1.304879589687164 0.10771707333336275
662 -0.24550301972902983 -1.3758285152686434 1.5602303924417567 -3.403428286411416 -1.3050111122183 0.10703996478016158
663 -0.2453905217046274 -1.3754106997948095 1.5596948023983956 -3.4032193221042455 -1.3051419241900262 0.10636393442385907
664 -0.24527819480178978 -1.3749931016347992 1.5591572162362215 -3.40300454062087 -1.3052720347775146 0.10568901584756804
665 -0.2451660367249387 -1.3745757200521194 1.5586176399617966 -3.4027839619776623 -1.3054014531554632 0.10501524250599707
666 -0.245054045184341 -1.3741585542968768 1.5580760796642497 -3.402557606466411 -1.3055301884964836 0.1043426477239334
667 -0.24494221789655551 -1.3737416036058505 1.5575325415148082 -3.402325494652733 -1.3056582499694949 0.10367126469473445
668 -0.24483055258487704 -1.3733248672025666 1.5569870317663288 -3.402087647374465 -1.3057856467381248 0.10300112647882805
669 -0.2447190469797783 -1.3729083442973764 1.5564395567528297 -3.4018440857400534 -1.3059123879591197 0.10233226600222108
670 -0.2446076988193492 -1.3724920340875353 1.5558901228890212 -3.40159483112692 -1.306038482780761 0.10166471605501698
671 -0.24449650584973306 -1.372075935757285 1.5553387366698346 -3.4013399051798254 -1.3061639403412928 0.10099850928994175
672 -0.24438546582556037 -1.371660048477937 1.5547854046699539 -3.4010793298092166 -1.3062887697673558 0.10033367822087864
673 -0.2442745765103795 -1.3712443714079605 1.554230133543344 -3.4008131271895605 -1.306412980172432 0.09967025522141153
674 -0.24416383567708444 -1.370828903693069 1.5536729300227805 -3.4005413197576706 -1.3065365806552984 0.099008272523377
675 -0.24405324110833929 -1.3704136444663122 1.553113800919378 -3.400263930211017 -1.306659580298489 0.09834776221542513
676 -0.2439427905969999 -1.3699985928481682 1.552552753122118 -3.3999809815060273 -1.3067819881667695 0.0976887562415889
677 -0.2438324819465317 -1.3695837479466386 1.5519897935973765 -3.3996924968563773 -1.3069038133056194 0.09703128639986253
678 -0.2437223129714248 -1.3691691088573457 1.5514249293884528 -3.3993984997312667 -1.3070250647397268 0.09637538434078836
679 -0.2436122814976049 -1.3687546746636305 1.5508581676150934 -3.3990990138536854 -1.3071457514714933 0.09572108156605268
680 -0.2435023853628412 -1.3683404444366551 1.5502895154730212 -3.398794063198669 -1.3072658824795487 0.09506840942709019
681 -0.24339262241715037 -1.3679264172355046 1.5497189802334597 -3.398483671991543 -1.30738546671728 0.09441739912369748
682 -0.24328299052319696 -1.3675125921072915 1.5491465692426594 -3.398167864706153 -1.3075045131113683 0.09376808170265512
683 -0.24317348755668972 -1.3670989680872634 1.5485722899214214 -3.397846666063088 -1.3076230305603413 0.09312048805635877
684 -0.24306411140677417 -1.366685544198911 1.5479961497646222 -3.397520101027892 -1.3077410279331347 0.09247464892145911
685 -0.2429548599764213 -1.3662723194540778 1.5474181563407379 -3.39718819480926 -1.3078585140676682 0.0918305948775107
686 -0.24284573118281183 -1.3658592928530733 1.546838317291367 -3.3968509728572327 -1.307975497769434 0.09118835634562976
687 -0.24273672295771667 -1.3654464633847854 1.5462566403307523 -3.3965084608613685 -1.308091987810096 0.09054796358716083
688 -0.24262783324787288 -1.3650338300267972 1.5456731332453035 -3.3961606847489163 -1.3082079929261055 0.08990944670235258
689 -0.24251906001535536 -1.3646213917455028 1.5450878038931193 -3.3958076706829705 -1.3083235218173275 0.08927283562904251
690 -0.24241040123794425 -1.3642091474962261 1.544500660203505 -3.3954494450606187 -1.3084385831456824 0.08863816014135069
691 -0.24230185490948758 -1.3637970962233419 1.543911710176496 -3.3950860345110794 -1.3085531855338006 0.08800544984838261
692 -0.24219341904025968 -1.3633852368603958 1.5433209618823747 -3.3947174658938257 -1.3086673375636915 0.08737473419294116
693 -0.24208509165731468 -1.3629735683302284 1.5427284234611889 -3.3943437662967058 -1.3087810477754267 0.08674604245024765
694 -0.2419768708048354 -1.3625620895450994 1.5421341031222702 -3.393964963034047 -1.3088943246658387 0.0861194037266721
695 -0.24186875454447748 -1.3621507994068134 1.54153800914375 -3.393581083644753 -1.3090071766872324 0.0854948469584726
696 -0.24176074095570865 -1.3617396968068467 1.5409401498720763 -3.393192155890391 -1.3091196122461142 0.0848724009105441
697 -0.24165282813614294 -1.3613287806264756 1.5403405337215272 -3.3927982077532692 -1.3092316397019337 0.08425209417517622
698 -0.24154501420187002 -1.3609180497369058 1.539739169173726 -3.3923992674345045 -1.3093432673658432 0.08363395517082059
699 -0.2414372972877795 -1.3605075029994032 1.539136064777154 -3.391995363352081 -1.3094545034994711 0.08301801214086742
700 -0.24132967554787987 -1.3600971392654255 1.5385312291466617 -3.3915865241388987 -1.309565356313712 0.08240429315243142
701 -0.24122214715561266 -1.3596869573767545 1.5379246709629817 -3.391172778640813 -1.3096758339675325 0.08179282609514726
702 -0.2411147103041608 -1.3592769561656304 1.537316398972236 -3.3907541559146654 -1.3097859445667934 0.0811836386799744
703 -0.24100736320675206 -1.358867134454886 1.5367064219854472 -3.390330685226305 -1.3098956961630885 0.08057675843801139
704 -0.24090010409695709 -1.3584574910580822 1.5360947488780439 -3.389902396048602 -1.3100050967526 0.07997221271931985
705 -0.24079293122898163 -1.3580480247796447 1.5354813885893688 -3.3894693180594495 -1.3101141542749701 0.07937002869175792
706 -0.24068584287795375 -1.3576387344150007 1.5348663501221826 -3.389031481139761 -1.3102228766121908 0.07877023333982336
707 -0.24057883734020505 -1.3572296187507165 1.5342496425421692 -3.388588915371455 -1.3103312715875093 0.07817285346350633
708 -0.24047191293354667 -1.3568206765646367 1.5336312749774361 -3.3881416510354323 -1.3104393469643523 0.07757791567715198
709 -0.2403650679975392 -1.3564119066260232 1.5330112566180172 -3.3876897186095483 -1.3105471104452666 0.07698544640833264
710 -0.24025830089375727 -1.3560033076956939 1.5323895967153718 -3.3872331487665703 -1.3106545696708785 0.07639547189672996
711 -0.2401516100060481 -1.3555948785261638 1.5317663045818835 -3.386771972372135 -1.3107617322188696 0.07580801819302686
712 -0.24004499374078433 -1.3551866178617855 1.5311413895903552 -3.3863062204826893 -1.3108686056029724 0.07522311115780941
713 -0.23993845052711102 -1.3547785244388906 1.530514861173506 -3.385835924343431 -1.3109751972719825 0.07464077646047865
714 -0.2398319788171866 -1.3543705969859297 1.5298867288234645 -3.385361115386234 -1.3110815146087897 0.07406103957817241
715 -0.239725577086418 -1.353962834223616 1.5292570020912595 -3.3848818252275734 -1.3111875649294276 0.07348392579469729
716 -0.23961924383368974 -1.353555234865066 1.528625690586311 -3.3843980856664366 -1.3112933554821413 0.0729094601994706
717 -0.23951297758158693 -1.3531477976159414 1.5279928039759187 -3.383909928682231 -1.311398893446475 0.07233766768647265
718 -0.23940677687661224 -1.3527405211745926 1.5273583519847485 -3.3834173864326837 -1.3115041859323773 0.07176857295320907
719 -0.23930064028939677 -1.3523334042322004 1.5267223443943176 -3.3829204912517308 -1.3116092399793258 0.07120220049968358
720 -0.23919456641490464 -1.3519264454729183 1.5260847910424775 -3.382419275647404 -1.3117140625554704 0.07063857462738095
721 -0.23908855387263156 -1.351519643574015 1.5254457018228944 -3.3819137722997064 -1.3118186605567974 0.07007771943826047
722 -0.23898260130679705 -1.3511129972060174 1.5248050866845289 -3.3814040140584845 -1.3119230408063105 0.06951965883375978
723 -0.23887670738653047 -1.3507065050328517 1.5241629556311136 -3.3808900339412915 -1.312027210053233 0.06896441651380922
724 -0.2387708708060507 -1.3503001657119869 1.5235193187206273 -3.3803718651312447 -1.31213117497223 0.06841201597585676
725 -0.23866509028483957 -1.349893977894575 1.5228741860647679 -3.3798495409748757 -1.312234942162647 0.06786248051390353
726 -0.23855936456780893 -1.349487940225595 1.522227567828425 -3.379323094979973 -1.3123385181477727 0.06731583321755001
727 -0.2384536924254614 -1.3490820513439918 1.5215794742291464 -3.3787925608134235 -1.3124419093741189 0.06677209697105295
728 -0.23834807265404453 -1.3486763098828192 1.5209299155366063 -3.378257972299041 -1.3125451222107198 0.06623129445239317
729 -0.23824250407569886 -1.3482707144693793 1.5202789020720686 -3.3777193634153937 -1.312648162948454 0.06569344813235407
730 -0.23813698553859927 -1.3478652637253632 1.5196264442078493 -3.3771767682936216 -1.3127510377993838 0.06515858027361117
731 -0.23803151591709015 -1.3474599562669909 1.5189725523667763 -3.3766302212152532 -1.3128537528961164 0.06462671292983255
732 -0.23792609411181376 -1.3470547907051504 1.5183172370216464 -3.3760797566100123 -1.3129563142911833 0.06409786794479037
733 -0.23782071904983246 -1.3466497656455365 1.5176605086946813 -3.37552540905362 -1.3130587279564438 0.06357206695148349
734 -0.2377153896847442 -1.3462448796887887 1.517002377956978 -3.374967213265594 -1.313160999782504 0.06304933137127118
735 -0.23761010499679167 -1.3458401314306285 1.5163428554279617 -3.374405204107038 -1.31326313557816 0.06252968241301815
736 -0.2375048639929648 -1.3454355194619967 1.5156819517748301 -3.373839416578431 -1.3133651410698601 0.06201314107225079
737 -0.2373996657070968 -1.3450310423691887 1.5150196777120024 -3.373269885817408 -1.3134670219011868 0.061499728130324775
738 -0.23729450919995373 -1.344626698733991 1.5143560440005577 -3.372696647096536 -1.3135687836323604 0.060989464153604095
739 -0.23718939355931742 -1.3442224871338149 1.5136910614476775 -3.3721197358210886 -1.3136704317397632 0.060482369492651546
740 -0.23708431790006193 -1.3438184061418297 1.5130247409060833 -3.371539187526811 -1.313771971615483 0.059978464281430714
741 -0.23697928136422342 -1.343414454327097 1.5123570932734691 -3.370955037877684 -1.3138734085668793 0.05947776843651965
742 -0.23687428312106354 -1.3430106302547014 1.5116881294919353 -3.3703673226636846 -1.3139747478161679 0.05898030165633611
743 -0.23676932236712622 -1.3426069324858823 1.5110178605474176 -3.369776077798537 -1.3140759945000273 0.05848608342037458
744 -0.2366643983262881 -1.3422033595781635 1.5103462974691126 -3.3691813393174654 -1.3141771536692268 0.05799513298845506
745 -0.2365595102498021 -1.341799910085483 1.509673451328903 -3.368583143374942 -1.3142782302882727 0.05750746939998371
746 -0.23645465741633476 -1.3413965825583203 1.5089993332407785 -3.3679815262424238 -1.3143792292350778 0.05702311147322541
747 -0.23634983913199709 -1.3409933755438244 1.5083239543602536 -3.3673765243060996 -1.3144801553006498 0.056542077804588295
748 -0.23624505473036858 -1.340590287585939 1.5076473258837835 -3.3667681740646187 -1.314581013188801 0.05606438676792031
749 -0.2361403035725151 -1.3401873172255288 1.5069694590481768 -3.366156512126827 -1.3146818075158788 0.05559005651381792
750 -0.2360355850470002 -1.3397844630005014 1.5062903651300057 -3.3655415752094937 -1.314782542810517 0.05511910496894693
751 -0.23593089856988986 -1.3393817234459318 1.505610055445013 -3.36492340013504 -1.3148832235134074 0.0546515498353756
752 -0.23582624358475088 -1.3389790970941835 1.504928541347516 -3.364302023829258 -1.3149838539770906 0.05418740858991994
753 -0.2357216195626429 -1.338576582475029 1.5042458342298093 -3.363677483319034 -1.3150844384657714 0.05372669848350148
754 -0.23561702600210388 -1.338174178115769 1.5035619455215616 -3.3630498157300637 -1.3151849811551495 0.05326943654051739
755 -0.23551246242912932 -1.3377718825413503 1.502876886689213 -3.3624190582845683 -1.315285486132276 0.05281563955822309
756 -0.23540792839714508 -1.3373696942744828 1.5021906692353675 -3.361785248299007 -1.3153859573954252 0.05236532410612738
757 -0.23530342348697392 -1.336967611835756 1.501503304698182 -3.3611484231817865 -1.3154863988539909 0.051918506525400206
758 -0.23519894730679564 -1.3365656337437528 1.5008148046507552 -3.3605086204309687 -1.3155868143284006 0.05147520292829304
759 -0.23509449949210096 -1.3361637585151624 1.500125180700511 -3.3598658776319783 -1.3156872075500519 0.051035429197572
760 -0.23499007970563934 -1.335761984664893 1.49943444448858 -3.3592202324553067 -1.3157875821612672 0.05059920098596376
761 -0.23488568763736037 -1.3353603107061822 1.498742607689179 -3.3585717226542133 -1.3158879417152696 0.05016653371561426
762 -0.23478132300434898 -1.3349587351507066 1.4980496820089855 -3.357920386062428 -1.3159882896761788 0.04973744257756034
763 -0.2346769855507547 -1.33455725650869 1.4973556791865117 -3.3572662605918513 -1.3160886294190275 0.0493119425312143
764 -0.23457267504771473 -1.3341558732890102 1.4966606109914744 -3.3566093842302527 -1.3161889642297966 0.04889004830386149
765 -0.23446839129327082 -1.3337545839993048 1.4959644892241633 -3.3559497950389674 -1.3162892973054714 0.048471774390170946
766 -0.23436413411228024 -1.3333533871460757 1.4952673257148041 -3.355287531150594 -1.3163896317541168 0.04805713505171916
767 -0.23425990335632083 -1.332952281234792 1.4945691323229215 -3.354622630766689 -1.3164899705949726 0.047646144316526994
768 -0.2341556989035899 -1.3325512647699926 1.4938699209366977 -3.353955132155465 -1.316590316758568 0.04723881597860988
769 -0.2340515206587974 -1.3321503362553857 1.4931697034723301 -3.3532850736494817 -1.3166906730868562 0.046835163597541196
770 -0.2339473685530532 -1.331749494193949 1.4924684918733835 -3.3526124936433432 -1.3167910423333677 0.046435200498029114
771 -0.23384324254374855 -1.3313487370880273 1.4917662981101414 -3.351937430591391 -1.3168914271633838 0.04603893976950671
772 -0.23373914261443177 -1.3309480634394295 1.4910631341789558 -3.3512599230053985 -1.3169918301541275 0.045646394265735565
773 -0.23363506877467818 -1.3305474717495247 1.4903590121015913 -3.350580009452267 -1.3170922537949756 0.045257576604422846
774 -0.2335310210599546 -1.330146960519336 1.4896539439245702 -3.349897728551718 -1.3171927004876884 0.04487249916685192
775 -0.23342699953147783 -1.3297465282496332 1.4889479417185114 -3.3492131189739895 -1.317293172546658 0.044491174097526516
776 -0.23332300427606809 -1.3293461734410261 1.4882410175774703 -3.348526219437533 -1.317393672199176 0.044113613303828576
777 -0.2332190354059965 -1.3289458945940542 1.4875331836182726 -3.347837068706708 -1.3174942015857194 0.04373982845568971
778 -0.23311509305882752 -1.3285456902092763 1.4868244519798497 -3.347145705589481 -1.317594762760256 0.043369830985276414
779 -0.23301117739725558 -1.3281455587873596 1.4861148348225686 -3.346452168935122 -1.317695357690565 0.04300363208668904
780 -0.2329072886089368 -1.3277454988291666 1.4854043443275602 -3.345756497631908 -1.317795988258579 0.04264124271567454
781 -0.23280342690631525 -1.3273455088358403 1.4846929926960462 -3.3450587306048187 -1.317896656260742 0.042282673589353115
782 -0.2326995925264439 -1.3269455873088911 1.4839807921486634 -3.3443589068132455 -1.3179973634083861 0.04192793518595867
783 -0.23259578573080078 -1.3265457327502785 1.4832677549247844 -3.3436570652486894 -1.3180981113281256 0.041577037744593245
784 -0.23249200680509965 -1.3261459436624954 1.4825538932818385 -3.3429532449324713 -1.3181989015622675 0.0412299912649954
785 -0.23238825605909597 -1.3257462185486495 1.4818392194946286 -3.3422474849134383 -1.3182997355692416 0.04088680550732258
786 -0.2322845338263878 -1.325346555912544 1.4811237458546471 -3.3415398242656744 -1.3184006147240457 0.040547489991947516
787 -0.23218084046421192 -1.3249469542587569 1.480407484669389 -3.340830302086213 -1.3185015403187081 0.040212053999268714
788 -0.2320771763532349 -1.3245474120927203 1.4796904482616646 -3.3401189574927503 -1.3186025135627681 0.03988050656953499
789 -0.23197354189733985 -1.3241479279207977 1.4789726489689075 -3.339405829621366 -1.3187035355837717 0.03955285650268421
790 -0.231869937523408 -1.3237485002503613 1.4782540991424837 -3.338690957624239 -1.318804607427784 0.039229112358196094
791 -0.2317663636810962 -1.323349127589867 1.4775348111469981 -3.3379743806673754 -1.3189057300599185 0.038909282454959296
792 -0.23166282084260947 -1.3229498084489304 1.476814797359598 -3.33725613792833 -1.3190069043648822 0.038593374871152636
793 -0.2315593095024694 -1.3225505413384 1.4760940701692773 -3.336536268593939 -1.3191081311475354 0.038281397444140594
794 -0.23145583017727797 -1.322151324770431 1.475372641976176 -3.33581481185805 -1.3192094111334691 0.0379733577703831
795 -0.23135238340547726 -1.3217521572585578 1.4746505251908817 -3.335091806919261 -1.3193107449695967 0.037669263205359516
796 -0.23124896974710477 -1.3213530373177649 1.4739277322337268 -3.3343672929786567 -1.31941213322476 0.03736912086350704
797 -0.23114558978354469 -1.320953963464559 1.473204275534086 -3.333641309237556 -1.3195135763903527 0.037072937618173374
798 -0.23104224411727511 -1.3205549342170388 1.4724801675296724 -3.332913894895257 -1.3196150748809574 0.03678072010158368
799 -0.2309389333716112 -1.3201559480949638 1.4717554206658316 -3.332185089146788 -1.3197166290349955 0.03649247470482204
800 -0.23083565819044452 -1.319757003619824 1.4710300473948357 -3.3314549311806663 -1.319818239115395 0.036208207577827146
801 -0.23073241923797844 -1.3193580993149079 1.470304060175175 -3.3307234601766553 -1.3199199053102693 0.035927924629402475
802 -0.23062921719845988 -1.3189592337053697 1.4695774714708492 -3.329990715303532 -1.3200216277336125 0.035651631527240824
803 -0.23052605277590743 -1.3185604053182969 1.4688502937506596 -3.3292567357168554 -1.3201234064260066 0.03537933369796324
804 -0.2304229266938357 -1.3181616126827764 1.4681225394874968 -3.328521560556741 -1.3202252413553424 0.03511103632717242
805 -0.2303198396949764 -1.3177628543299613 1.4673942211576305 -3.327785228945639 -1.3203271324175552 0.034846744359520475
806 -0.23021679254099586 -1.3173641287931348 1.4666653512399983 -3.3270477799861222 -1.3204290794373719 0.03458646249879117
807 -0.23011378601220925 -1.316965434607777 1.465935942215492 -3.3263092527586733 -1.320531082169071 0.034330195207996586
808 -0.23001082090729152 -1.3165667703116293 1.4652060065662464 -3.3255696863194806 -1.3206331402972569 0.034077946709488174
809 -0.2299078980429854 -1.316168134444757 1.4644755567749248 -3.324829119698239 -1.3207352534376442 0.03382972098508232
810 -0.2298050182538059 -1.315769525549616 1.4637446053240064 -3.324087591895959 -1.320837421137856 0.03358552177620028
