ZJU-PLP/Project_IFAC_2020/src/custom_codes/csv_files/joint_traj_1_AAPF.csv
Index Joint1 Joint2 Joint3 Joint4 Joint5 Joint6
0 0.0 -1.5707 0.0 -1.5707 -1.5707 -1.5707
1 -0.0006673776981413824 -1.5698232258549327 0.01800306961805558 -1.562081276074729 -1.575165090171633 -1.5667252848107383
2 -0.0013409264043174123 -1.568947374651666 0.03608283784128135 -1.5534592613848093 -1.5807109859185928 -1.5613900101394178
3 -0.0020193442838426943 -1.5680724370958672 0.0542381102164024 -1.544834093872598 -1.586119063209025 -1.555906958906999
4 -0.0027030192165023847 -1.5671984879176137 0.07246594495916725 -1.536205966738538 -1.5914305953554004 -1.5502209275091863
5 -0.003392301173495419 -1.5663255962455296 0.09076337836734542 -1.5275750255329903 -1.5966486907354673 -1.5443146066973872
6 -0.004087556860639802 -1.5654538281042358 0.1091273648859977 -1.518941383950935 -1.60176948216687 -1.5381771001161761
7 -0.0047891820214704395 -1.564583246706539 0.12755476035383786 -1.5103051242710452 -1.6067866472593968 -1.5317993113469135
8 -0.005497607946002831 -1.5637139124303927 0.1460423101507629 -1.5016662962362899 -1.6116925965302888 -1.525172687492905
9 -0.006213306783868385 -1.5628458827186957 0.16458663728167194 -1.493024915769887 -1.6164788782127504 -1.518288748054544
10 -0.006936796787057997 -1.5619792119610048 0.1831842289740874 -1.4843809638718402 -1.6211363302050845 -1.5111388629004312
11 -0.007668647893950888 -1.5611139513802048 0.2018314210414485 -1.4757343858782312 -1.6256551312638148 -1.5037141248802304
12 -0.008409487870103862 -1.5602501489382168 0.22052437939147876 -1.4670850912503168 -1.6300248046347783 -1.4960052624656304
13 -0.009160009161207442 -1.559387849273351 0.23925907802888885 -1.4584329540867957 -1.6342341953331168 -1.4880025700808415
14 -0.009920976598637738 -1.5585270936833922 0.25803127280253324 -1.449777814600078 -1.6382714302423502 -1.4796958459194682
15 -0.010693236101107582 -1.5576679201717538 0.2768364700005797 -1.44111948186341 -1.64212386510352 -1.4710743321802664
16 -0.011477724527604344 -1.5568103635788646 0.295669888705185 -1.432457738222968 -1.6457780200856313 -1.4621266550714098
17 -0.012275480853215016 -1.5559544558275518 0.3145264155747875 -1.4237923458828836 -1.6492195044224411 -1.452840763215609
18 -0.013087658858506117 -1.55510022631999 0.3334005504172569 -1.4151230563192008 -1.6524329299496252 -1.443203863892972
19 -0.013915541543133928 -1.5542477025354122 0.3522863405372374 -1.4064496233710442 -1.6554018130202575 -1.4332023571927308
20 -0.014760557493194224 -1.5533969108930827 0.37117730136944854 -1.397771821106924 -1.6581084641092112 -1.4228217687806193
21 -0.015624299446328323 -1.5525478779651125 0.3900663203271088 -1.3890894678878078 -1.6605338644090875 -1.4120466827483142
22 -0.016508545303855787 -1.5517006321499625 0.4089455400798261 -1.3804024584674188 -1.6626575288899679 -1.4008606770090652
23 -0.0174152818274866 -1.550855205951695 0.42780621660743584 -1.3717108065099848 -1.6644573557016331 -1.3892462650687667
24 -0.018346731217532684 -1.5500116390542877 0.4466385463394548 -1.3630147005968718 -1.6659094625435047 -1.3771848498959978
25 -0.019305380681772517 -1.5491699824370337 0.4654314554819671 -1.3543145776699737 -1.666988011875014 -1.3646566982471942
26 -0.02029401494189151 -1.5483303038485907 0.4841723432827891 -1.345611218954298 -1.6676650288241568 -1.3516409474441176
27 -0.021315751347499072 -1.5474926950455041 0.5028467695782526 -1.336905874737627 -1.6679102187131716 -1.3381156615890613
28 -0.022374076818319894 -1.5466572813060337 0.5214380756947112 -1.3282004259552338 -1.6676907957272544 -1.3240579609409449
29 -0.023472885132934922 -1.545824233847815 0.5399269270255896 -1.3194975922621721 -1.6669713410309746 -1.309444257090091
30 -0.024616512021027267 -1.5449937858958758 0.5582907660626385 -1.310801197978352 -1.665713718372505 -1.2942506380090883
31 -0.02580976396532326 -1.544166253238008 0.5765031675149759 -1.302116508536693 -1.663877088790393 -1.2784534610578369
32 -0.027057934442349767 -1.5433420601130932 0.5945330943265397 -1.2934506500365113 -1.6614180842274584 -1.2620302278502815
33 -0.028366798432081092 -1.5425217711080794 0.6123440678283258 -1.2848131217738283 -1.6582912228456952 -1.2449608302342883
34 -0.029742572456936713 -1.5417061292336651 0.6298932910043546 -1.2762164038900923 -1.6544496752407258 -1.2272292662999917
35 -0.031191823566547424 -1.540896099277629 0.6471308057797289 -1.2676766462302878 -1.6498465159138336 -1.208825919472108
36 -0.032721307619024836 -1.5400929136137578 0.6639988274998168 -1.2592143960669053 -1.6444366078156945 -1.1897504561373715
37 -0.03433771701145392 -1.539298114628345 0.6804314819637507 -1.2508552780893307 -1.6381792505290746 -1.17001530527711
38 -0.036047324024288424 -1.5385135838461859 0.6963552604194461 -1.2426304805475425 -1.6310416464224868 -1.1496495133953477
39 -0.03785552225555728 -1.5377415434225807 0.7116905722954278 -1.2345768372042376 -1.6230030724528055 -1.1287025103943429
40 -0.03976629798597485 -1.5369845128376884 0.7263547527097973 -1.2267362531738075 -1.614059373468967 -1.107247011672963
41 -0.04178170302915325 -1.5362452055949831 0.7402666937654141 -1.219154249306225 -1.6042270535714662 -1.0853800309628816
42 -0.04390143793339939 -1.5355263608456327 0.7533528667467173 -1.2118775420512524 -1.593545960648216 -1.0632209802027826
43 -0.04612266663209592 -1.5348305237465678 0.7655539461948165 -1.2049508428867468 -1.582079537184826 -1.0409062800599633
44 -0.04844014914878088 -1.534159810586678 0.7768307572533708 -1.1984133784276016 -1.5699120185518065 -1.0185808164880719
45 -0.05084669702222451 -1.533515708987918 0.787168155598074 -1.1922958420257586 -1.5571427641523943 -0.9963876502222018
46 -0.05333385865195004 -1.5325664302511468 0.8062195511331368 -1.18541709322979 -1.5438994736318143 -0.9744580730546363
47 -0.05593457073498979 -1.5317418672877514 0.8214626293698626 -1.1794448145728815 -1.529698790745244 -0.9526563313144573
48 -0.05862026003928343 -1.5310203109370846 0.8336123597001535 -1.1742853423273474 -1.514877253462201 -0.9312793221673034
49 -0.061369237117524476 -1.5303831088852533 0.8432735601130413 -1.169844068655376 -1.4997004427703726 -0.9105040228973365
50 -0.06416621767130437 -1.5298144315672884 0.8507830294383247 -1.167357998801632 -1.4842841192157714 -0.8904881339235493
51 -0.06700352095051475 -1.5292983022589244 0.8568467558551275 -1.1652024957393217 -1.4688816439847023 -0.8711557396222965
52 -0.0698742834864906 -1.5288248534781461 0.8617606057880234 -1.1633288248438636 -1.45356956334302 -0.8524991762759928
53 -0.0727736830462606 -1.5283859267515398 0.865764763723838 -1.1616986175071764 -1.4383970468828 -0.8344952315246397
54 -0.07569827565233918 -1.5279748178529093 0.8690536301954729 -1.1602815168577196 -1.4233941666038554 -0.8171133540183745
55 -0.07864553833213209 -1.527586042646359 0.8717842240254212 -1.1590533844546496 -1.408577850319338 -0.8003204898236442
56 -0.08161356422908558 -1.527215130106444 0.8740831814627547 -1.1579949286019822 -1.3939560471289354 -0.7840837719911327
57 -0.08460086298796762 -1.526858444301517 0.8760525166101046 -1.157090649838244 -1.3795306073197933 -0.768371909862888
58 -0.08760623109605832 -1.5265130341423276 0.8777743263982958 -1.1563280260437316 -1.3652992676290419 -0.7531558202140144
59 -0.09062866766802559 -1.5261765081846912 0.8793146153068934 -1.155696879621863 -1.351257022744565 -0.7384088322563852
60 -0.09366731937030191 -1.5258469312176302 0.8807263954983459 -1.155188883901658 -1.3373970772092085 -0.7241066638724448
61 -0.0967214439074016 -1.5255227393530482 0.8820521952715589 -1.1547971766548828 -1.3237115096054382 -0.7102272836102242
62 -0.09979038531135251 -1.5252026705877597 0.8833260867151217 -1.154516056502445 -1.3101917380916972 -0.6967507232985997
63 -0.10287355675597709 -1.5248857081730411 0.8845753237989956 -1.1543407437974353 -1.2968288475599121 -0.6836588768909205
64 -0.10597042820330517 -1.5245710345134895 0.885821665360748 -1.1542671918912613 -1.2836138194619504 -0.6709353041862078
65 -0.10908051719235427 -1.5242579936824405 0.8870824434449611 -1.1542919379244159 -1.2705376925270433 -0.6585650484091342
66 -0.11220338171045204 -1.5239460609668856 0.888371425944784 -1.1544119847263732 -1.2575916739908584 -0.6465344712390431
67 -0.11533861448092478 -1.5236348181353305 0.8896995131104548 -1.1546247072683253 -1.2447672151391957 -0.634831105970488
68 -0.11848583824605283 -1.523323933358607 0.8910752998769155 -1.1549277785377696 -1.232056060991483 -0.6234435280043846
69 -0.12164470177637256 -1.5230131449104696 0.8925055298050729 -1.1553191108037957 -1.2194502811960248 -0.6123612411891924
70 -0.1248148764317698 -1.522702247937111 0.8939954614587868 -1.1557968090956254 -1.2069422872786475 -0.601574578294284
71 -0.12799605315834242 -1.5223910837177719 0.895549164027491 -1.1563591343830042 -1.194524840015451 -0.5910746138943779
72 -0.13118793984142488 -1.5220795309472273 0.8971697557680433 -1.1570044744689827 -1.18219104971456 -0.580853088055876
73 -0.13439025895798043 -1.5217674986593708 0.8988595962289456 -1.157731321016216 -1.1699343714746644 -0.570902339376796
74 -0.13760274548604287 -1.5214549204829848 0.9005229465167895 -1.1593182082301225 -1.1576454560218656 -0.5614993693302174
75 -0.14137674777278048 -1.520765391097184 0.9032744068592596 -1.162533296710315 -1.1453551539914542 -0.5523578933637223
76 -0.145149021362456 -1.52009287617456 0.905964752846341 -1.1657962960365893 -1.1330831397458256 -0.5434413293598392
77 -0.1489187337278482 -1.519436415843737 0.9086206812298734 -1.1691041618652078 -1.1208317792225826 -0.5347464709595148
78 -0.15268507152194477 -1.5187952380641168 0.9112635440258864 -1.1724545955137518 -1.1086024915587052 -0.5262705255680459
79 -0.1564472411513655 -1.5181687208770134 0.9139104074578388 -1.1758458973142245 -1.0963959794651514 -0.5180110497605259
80 -0.16020446931618015 -1.517556362167063 0.9165749010876967 -1.1792768501147315 -1.084212411515888 -0.5099658930036817
81 -0.1639560034156573 -1.5169577554306133 0.9192678986393951 -1.1827466267038587 -1.0720515666550756 -0.5021331493683465
82 -0.16770111178802333 -1.5163725703543365 0.9219980637650771 -1.1862547162321264 -1.0599129488805425 -0.494511116493852
83 -0.1714390837892942 -1.5158005372490888 0.9247722874121089 -1.189800865730586 -1.047795878297756 -0.48709826091347097
84 -0.17516922973421065 -1.515241434575547 0.9275960381763035 -1.1933850336358425 -1.0356995633985278 -0.47989318884014337
85 -0.17889088072917333 -1.5146950789503488 0.9304736428048944 -1.1970073528695735 -1.0236231583908673 -0.4728946215738803
86 -0.18260338842774432 -1.5141613171427692 0.933408510628954 -1.200668101525256 -1.0115658086109187 -0.4661013747858552
87 -0.18630612473674435 -1.5136400196688535 0.9364033129907331 -1.2043676796138372 -0.9995266864273896 -0.4595123410365303
88 -0.18999848149701035 -1.513131075667472 0.9394601265529898 -1.2081065906358723 -0.9875050195614318 -0.45312647498417463
89 -0.19367987015849972 -1.5126343888048899 0.9425805476282315 -1.2118854269977664 -0.9755001133598171 -0.44694278083002625
90 -0.19734972146519184 -1.5121498740042922 0.945765783260856 -1.2157048584880066 -0.9635113682534597 -0.4409603016249113
91 -0.20100748516141279 -1.5116774548367262 0.9490167236664793 -1.2195656231865037 -0.9515382933895608 -0.43517811012910057
92 -0.2046526297279047 -1.511217061442067 0.9523339997258329 -1.2234685203049225 -0.9395805172306525 -0.4295953009732989
93 -0.2082846421531906 -1.5107686288744564 0.9557180285019007 -1.2274144045549091 -0.9276377957573961 -0.424210983915105
94 -0.21190302774351538 -1.5103320957874324 0.9591690491634131 -1.2314041817197496 -0.9157100187862091 -0.4190242780233683
95 -0.21550730997281947 -1.5099074033906725 0.9626871512273651 -1.2354388051673988 -0.9037972148114329 -0.41403430665388496
96 -0.21909703037275746 -1.5094944946236972 0.9662722966552744 -1.239519273092371 -0.8918995546998841 -0.4092401931049884
97 -0.2226717484616521 -1.5090933135026863 0.969924337034332 -1.2436466263132868 -0.8800173544993629 -0.4046410568618207
98 -0.22623104171041458 -1.5087038046052348 0.9736430268308397 -1.2478219464840457 -0.8681510775689035 -0.4002360103542961
99 -0.22977450554281614 -1.5083259126648592 0.97742803350765 -1.2520463546012783 -0.8563013361947488 -0.39602415616671033
100 -0.23330175336702277 -1.5079595822526721 0.9812789451403285 -1.2563210097102895 -0.8444688928202155 -0.39200458464722165
101 -0.23681241663496636 -1.5076047575281502 0.9851952760408511 -1.2606471077271237 -0.8326546609881759 -0.3881763718735167
102 -0.24030614492589486 -1.5072613820445375 0.9891764707967493 -1.265025880306579 -0.8208597060705125 -0.38453857793728274
103 -0.243782606050295 -1.5069293985973389 0.9932219070528483 -1.2694585936955747 -0.8090852458385696 -0.38109024551495896
104 -0.24724148617029654 -1.5066087491066813 0.9973308972981435 -1.273946547518819 -0.7973326509114674 -0.3778303986958943
105 -0.250682489932629 -1.5062993745262006 1.0015026898687973 -1.2784910734496269 -0.7856034451045073 -0.3747580420416997
106 -0.25410534061019935 -1.506001214772602 1.005736469337158 -1.2830935337233862 -0.7738993056872134 -0.37187215985242317
107 -0.2575097802483829 -1.505714208671249 1.0100313564240593 -1.2877553194548172 -0.7622220635494186 -0.3691717156163174
108 -0.2608955698121578 -1.5054382939140885 1.0143864075458364 -1.2924778487230701 -0.7505737032638616 -0.36665565162052527
109 -0.2642624893302669 -1.5051734070269973 1.018800614087131 -1.2972625643910451 -0.7389563630247677 -0.36432288870005514
110 -0.2676103380326486 -1.5049194833442325 1.0232729014746447 -1.3021109316272714 -0.7273723344336466 -0.36217232610203054
111 -0.27093893447743816 -1.5046764569881657 1.0278021281146308 -1.3070244351003848 -0.715824062095938 -0.36020284144143006
112 -0.2742481166639065 -1.504444260852862 1.0323870842474367 -1.3120045758178374 -0.7043141429850858 -0.3584132907234376
113 -0.27753774212776455 -1.5042228265903699 1.0370264907652342 -1.3170528675820654 -0.6928453255241106 -0.3568025084061478
114 -0.2803610346524032 -1.5039537701201162 1.0413024970649833 -1.3222440326690859 -0.6813362981034161 -0.35536930747576445
115 -0.2831629133037279 -1.5036963116582176 1.0456985126393623 -1.3274952324232416 -0.6699258037547347 -0.3541111681821081
116 -0.28594353939923384 -1.5034509408005696 1.0501980908838278 -1.332808971106398 -0.6586116980560809 -0.35302684170681314
117 -0.28870308465258315 -1.5032180221137639 1.0547877020752516 -1.33818742845728 -0.6473928872287545 -0.3521148803010838
118 -0.29144173209972013 -1.502997819325466 1.0594561325473615 -1.3436325173905068 -0.6362691398948728 -0.35137367899795297
119 -0.2941596769061367 -1.5027905147369744 1.0641940049386904 -1.3491459289338041 -0.6252409333636104 -0.35080150801394194
120 -0.29685712698068345 -1.50259622480186 1.0689933953644277 -1.3547291667530705 -0.6143093278992701 -0.35039653787951647
121 -0.29953430336908005 -1.5024150126315816 1.0738475281508206 -1.3603835732123204 -0.6034758635605413 -0.3501568588398257
122 -0.30219144042711327 -1.5022468980401162 1.0787505326241678 -1.366110348571829 -0.5927424751698378 -0.350080495701275
123 -0.3048287857877107 -1.5020918656190583 1.0836972495426498 -1.3719105646398453 -0.5821114217873251 -0.35016541902729076
124 -0.3074466001427874 -1.5019498712372228 1.0886830772436238 -1.3777851739552929 -0.5715852277442507 -0.3504095533821338
125 -0.3100451568631436 -1.5018208472803334 1.0937038495700722 -1.383735015384385 -0.5611666328536374 -0.35081078316680875
126 -0.31262474147969244 -1.5017047068832494 1.0987557392340543 -1.3897608168564846 -0.5508585498815837 -0.3513669564733774
127 -0.31518565104806734 -1.5016013473565366 1.1038351815501564 -1.3958631958377556 -0.5406640277457256 -0.35207588729429234
128 -0.31772819341689884 -1.5015106529685553 1.1089388144910326 -1.4020426580397736 -0.5305862192230725 -0.35293535635518464
129 -0.32025268641813315 -1.5014324972117092 1.11406343183084 -1.4082995947795118 -0.5206283522094244 -0.3539431107880245
130 -0.3227594569959079 -1.5013667446554728 1.1192059467915065 -1.4146342793430013 -0.5107937037868694 -0.3550968628230763
131 -0.3252488402887882 -1.5013132524680213 1.1243633641240407 -1.4210468626540036 -0.5010855765325443 -0.35639428764978326
132 -0.3277211786786405 -1.5012718716716782 1.1295327589688948 -1.4275373685083566 -0.4915072766474753 -0.35783302057643285
133 -0.3301768208180664 -1.5012424481841615 1.1347112611667807 -1.4341056886018395 -0.4820620936040779 -0.3594106536043947
134 -0.33261612064712165 -1.5012248236870698 1.1398960439513612 -1.440751577552436 -0.4727532811088947 -0.361124731523429
135 -0.33503943640895867 -1.5012188363546697 1.1450843161614892 -1.4474746480950895 -0.46358403925657204 -0.3629727476288005
136 -0.3374471296730351 -1.5012243214693841 1.1502733172741155 -1.4542743666071145 -0.4545574978144265 -0.36495213915765673
137 -0.33983956437357987 -1.5012411119451263 1.1554603146884792 -1.4611500491042306 -0.44567670062617576 -0.36706028254042067
138 -0.34221710587008414 -1.5012690387754453 1.1606426027947845 -1.4681008578299373 -0.43694459116008366 -0.3692944885620268
139 -0.3445801200356574 -1.5013079314201627 1.1658175034420182 -1.4751257985439923 -0.4283639992521963 -0.3716519975270096
140 -0.3469289723781507 -1.5013576181416035 1.170982367484423 -1.4822237185987104 -0.419937629110679 -0.3741299745211669
141 -0.34926402719798755 -1.5014179262994696 1.1761345771381504 -1.489393305874422 -0.4116680486535791 -0.376725504860301
142 -0.3515856467856562 -1.5014886826118234 1.1812715489216707 -1.49663308862765 -0.4035576802507127 -0.3794355898130426
143 -0.35389419066081496 -1.5015697133883812 1.18639073698804 -1.5039414362874826 -0.39560879293190476 -0.3822571426797471
144 -0.3561900148539538 -1.5016608447413278 1.1914896366858927 -1.511316561217391 -0.3878234961096605 -0.38518698530281154
145 -0.3584734712305547 -1.5017619027780724 1.1965657882105425 -1.5187565214416852 -0.38020373484572084 -0.38822184507549307
146 -0.3607449068567235 -1.5018727137797379 1.2016167802278968 -1.526259224318243 -0.3727512866691079 -0.3913583525065307
147 -0.3630046634043501 -1.5019931043686443 1.206640253372861 -1.5338224311224893 -0.3654677599294497 -0.3945930393867962
148 -0.3652530765930057 -1.502122901667636 1.211633903541094 -1.5414437624921913 -0.3583545936448202 -0.3979223375921177
149 -0.36795773803360593 -1.5019121933579611 1.217859413976222 -1.549514479468498 -0.35159448938856264 -0.4013425785436997
150 -0.37065245329416596 -1.5017196333281602 1.2237663959033072 -1.557676548065742 -0.3449059014216372 -0.40486751805684507
151 -0.3733363494015376 -1.5015429209928741 1.2294133682449175 -1.5659187272513664 -0.33831323212992603 -0.4084907181864312
152 -0.37600870565966815 -1.501380265849652 1.2348456397632952 -1.574231443994918 -0.33183584987265585 -0.4122062259904305
153 -0.37866890956245386 -1.5012302770630042 1.2400981799530215 -1.5826063905818326 -0.32548914720749716 -0.416008428038871
154 -0.3813164267603119 -1.5010918766161192 1.2451978776601853 -1.5910362197303796 -0.31928537138761454 -0.4198919379153826
155 -0.38395078039253916 -1.500964231071159 1.2501653156061885 -1.599514313132567 -0.31323427627672257 -0.42385151003639016
156 -0.38657153669838573 -1.5008466979989001 1.2550161629738987 -1.6080346055014407 -0.3073436343333342 -0.42788197428164887
157 -0.3891782948651238 -1.5007387839581177 1.2597622671471678 -1.6165914508467176 -0.3016196389651002 -0.4319781869959932
158 -0.3917706797537557 -1.5006401115596208 1.2644125087896285 -1.625179521050745 -0.29606722097519783 -0.4361349948308599
159 -0.39434833658981433 -1.5005503936702367 1.2689734709616767 -1.633793729256064 -0.2906902976626636 -0.44034720863990623
160 -0.39691092700106095 -1.5004694132245637 1.273449962257099 -1.6424291723696065 -0.28549196909854596 -0.4446095852415087
161 -0.39960363162345397 -1.5003534524918944 1.2779826409055306 -1.6510671499771918 -0.2804926935678416 -0.4489168153347068
162 -0.4022813537515726 -1.5002466281365 1.2824015589359798 -1.659725634248109 -0.2756585010692999 -0.4532674077114571
163 -0.4049435228960824 -1.5001485984148737 1.2867163827351489 -1.6683989890087527 -0.2709941098294587 -0.45765568801825446
164 -0.40758960810067285 -1.5000591092075921 1.290934390748523 -1.6770818692229355 -0.266503232124774 -0.46207596189599004
165 -0.4102191082020229 -1.499977974655298 1.2950610108618108 -1.6857691587133736 -0.262188773127998 -0.466522498639375
166 -0.4128315442998268 -1.4999050620151575 1.2991002408644927 -1.6944559231775351 -0.25805298698431295 -0.47098952071757855
167 -0.41542645388917315 -1.4998402798180108 1.3030549772671807 -1.7031373750347802 -0.2540975992196761 -0.475471197857158
168 -0.41800338624913713 -1.4997835686056322 1.3069272723318772 -1.7118088474355824 -0.25032390261611576 -0.4799616446859437
169 -0.42056189878444844 -1.4997348936837476 1.3107185349099495 -1.7204657753681596 -0.24673283214900968 -0.48445492116624156
170 -0.42310155409299316 -1.4996942394489357 1.314429687326064 -1.7291036822616284 -0.24332502337643042 -0.48894503522327615
171 -0.4256219175884853 -1.4996616049435125 1.318061287906224 -1.737718170842815 -0.2401008577277137 -0.49342594711231264
172 -0.4281225555502684 -1.4996370003676676 1.321613626672881 -1.7463049172816139 -0.23706049740068635 -0.4978915751746116
173 -0.43060303350462154 -1.4996204443369665 1.3250868000999048 -1.7548596678760626 -0.23420391200003451 -0.5023358027153085
174 -0.4330629148667705 -1.4996119617193815 1.3284807695402505 -1.7633782376971967 -0.23153089859830825 -0.5067524858008065
175 -0.4355017597919671 -1.4996115819220368 1.3317954069346716 -1.7718565107457755 -0.22904109654877816 -0.5111354618233731
176 -0.43791912419883927 -1.4996193375260267 1.3350305306218224 -1.7802904412762544 -0.226733998104402 -0.5154785587194153
177 -0.44031455893976196 -1.4996352631897087 1.3381859334521504 -1.7886760560240753 -0.22460895568276693 -0.5197756047577051
178 -0.44268760910198723 -1.4996593947581056 1.341261404923552 -1.7970094571352266 -0.22266518644989675 -0.5240204388364293
179 -0.445037813430266 -1.4996917685295463 1.344256748677066 -1.805286825645836 -0.22090177476594708 -0.5282069212446957
180 -0.4473647038671062 -1.4997324206412503 1.3471717963933716 -1.8135044253971726 -0.2193176729349714 -0.532328944856098
181 -0.4496678052109609 -1.4997813865438558 1.3500064188977419 -1.821658607300138 -0.21791170062278703 -0.5363804467299267
182 -0.45194663489575954 -1.499838700541431 1.3527605350984844 -1.8297458138849148 -0.21668254324652483 -0.5403554201002391
183 -0.45420070289746345 -1.499904395378658 1.3554341192408284 -1.8377625840873033 -0.21562874959279635 -0.5442479267347767
184 -0.45642951177487523 -1.4999785018609832 1.3580272068461376 -1.8457055582345674 -0.21474872888547597 -0.5480521096450285
185 -0.4586325568528602 -1.5000610484968064 1.3605398996185143 -1.853571483201175 -0.21404074749643617 -0.5517622061259215
186 -0.4608093265565141 -1.5001520611534152 1.3629723695320815 -1.861357217709404 -0.21350292547125346 -0.5553725610989662
187 -0.462959302904697 -1.5002515627205388 1.365324862258346 -1.8690597377519451 -0.213133233025376 -0.5588776407264291
188 -0.46508196217077713 -1.5003595727771721 1.3675977000508845 -1.8766761421138356 -0.21292948715326102 -0.5622720462565164
189 -0.46717677571742694 -1.5004761072588093 1.3697912841716138 -1.8842036579697117 -0.21288934848253604 -0.5655505280508433
190 -0.46924321101091765 -1.5006011781235045 1.3719060969171983 -1.8916396465297742 -0.21301031849648205 -0.5687079997359021
191 -0.47131144473405095 -1.5007278494428455 1.3739706968735272 -1.8989792936257472 -0.21329273988010894 -0.571739552410075
192 -0.47335238514474814 -1.5008623947767 1.3759532049631567 -1.9062240024437362 -0.21372802575375796 -0.5746411013170857
193 -0.4753653788004425 -1.501004796073274 1.377855232794009 -1.9133714286480936 -0.21431353637861786 -0.577408100150617
194 -0.4773497746897136 -1.5011550374351945 1.3796782854802396 -1.920419406148405 -0.21504639999959002 -0.5800362248334792
195 -0.4793049259735367 -1.5013131032337395 1.3814238041472158 -1.9273659463792923 -0.21592352780455557 -0.5825213857706948
196 -0.4812301920269807 -1.5014789765513237 1.383093198864213 -1.9342092388599865 -0.21694162653108412 -0.5848597401554108
197 -0.4831249407367983 -1.5016526378861563 1.384687874028852 -1.9409476526631029 -0.21809720952861872 -0.5870477041044239
198 -0.4849885510141686 -1.5018340640688816 1.3862092477764034 -1.9475797384850568 -0.21938660691061374 -0.5890819644126343
199 -0.48682041548387894 -1.5020232273533956 1.3876587666366156 -1.9541042310595607 -0.22080597529152796 -0.5909594897259995
200 -0.4886199433119948 -1.5022200946535813 1.3890379163886535 -1.9605200516942052 -0.2223513074901356 -0.5926775409419648
201 -0.49204421045250185 -1.502307364183074 1.3906860020997636 -1.9668244759834936 -0.22453237920814237 -0.5942336806560263
202 -0.49530109313774856 -1.502417816743527 1.3921115416469767 -1.9730475680969717 -0.22672545416355985 -0.5956141838286079
203 -0.49839809623299297 -1.5025492817068986 1.393359314426689 -1.9791794929311421 -0.2289451114756648 -0.5968158093932936
204 -0.5013423168861646 -1.5026999645439936 1.3944637501482282 -1.985212619276475 -0.23120181229578196 -0.5978363146725529
205 -0.5041404747465515 -1.5028683615800245 1.395451359318372 -1.9911411145644096 -0.23350274603297905 -0.5986743323271042
206 -0.5067989392712956 -1.5030531950287829 1.3963425983724027 -1.9969606316298558 -0.23585250723319126 -0.5993292715030318
207 -0.50932375459518 -1.5032533634135297 1.3971533009960924 -2.00266806311053 -0.2382536381545007 -0.5998012354058775
208 -0.5117206622834892 -1.5034679036873255 1.3978957763215967 -2.008261345973446 -0.2407070647798324 -0.600090950141817
209 -0.5139951221976087 -1.5036959622648085 1.3985796511249207 -2.013739303530522 -0.24321244811817577 -0.6001997014283819
210 -0.5161523316502619 -1.503936772851221 1.3992125151696002 -2.0191015157743846 -0.2457684679690566 -0.6001292769676831
211 -0.5181972429955699 -1.5041896394612502 1.3998004151017647 -2.024348211349166 -0.24837305264657464 -0.5998819130787569
212 -0.5201345797792137 -1.5044539234027858 1.4003482317933278 -2.029480176259339 -0.25102356528156655 -0.5994602447257135
213 -0.5219688515606917 -1.5047290332904213 1.4008599679830622 -2.0344986757137047 -0.25371695507593417 -0.5988672584373238
214 -0.5237043675100914 -1.5050144173736646 1.40133896689527 -2.039405386441894 -0.2564498801351174 -0.598106247847232
215 -0.5253452488743456 -1.5053095576325413 1.401788077778575 -2.0442023375056855 -0.2592188071436418 -0.5971807717303421
216 -0.5268954404017345 -1.505613965221346 1.4022097806653915 -2.048891858127031 -0.2620200920881281 -0.5960946144967
217 -0.5283587208079241 -1.5059271769393305 1.4026062798489227 -2.053476531418923 -0.2648500454042742 -0.594851749148211
218 -0.5297387123618279 -1.506248752482261 1.40297957341327 -2.0579591531704153 -0.2677049842762264 -0.593456302719337
219 -0.5310388896648864 -1.5065782722864474 1.4033315044840446 -2.0623426950297046 -0.27058127430737733 -0.5919125242202948
220 -0.5322625876928604 -1.5069153358211795 1.403663798577633 -2.0666302715686355 -0.2734753623792282 -0.5902247550873675
221 -0.5334130091648998 -1.507259560219568 1.4039780904297094 -2.0708251108127818 -0.2763838021950814 -0.5883974021248821
222 -0.53449323130043 -1.507610579163988 1.404275942910906 -2.07493052789397 -0.27930327374922287 -0.58643491290088
223 -0.5355062120202828 -1.5079680419624686 1.4045588600384467 -2.0789499015347688 -0.2822305977555491 -0.5843417535360487
224 -0.5364547956444885 -1.5083316127678326 1.4048282956277376 -2.0828866531128183 -0.28516274590134605 -0.582122388804787
225 -0.537341718135243 -1.5087009699032747 1.4050856587670457 -2.0867442280812485 -0.2880968476537777 -0.5797812644493706
226 -0.5381696119297726 -1.5090758052671442 1.405332317018246 -2.0905260795429546 -0.2910301942322502 -0.57732279159362
227 -0.5389410104041676 -1.5094558237966578 1.4055695980291385 -2.0942356537933438 -0.29396024026434053 -0.5747513331314332
228 -0.5396583520057405 -1.5098407429755583 1.4057987900741502 -2.097876377659993 -0.29688460356271856 -0.5720711919579715
229 -0.5403239840881126 -1.5102302923747497 1.4060211419095605 -2.101451647479458 -0.29980106339261714 -0.5692866009069325
230 -0.5409401664800523 -1.5106242132179821 1.4062378622283838 -2.104964819562044 -0.3027075575417229 -0.5664017142558792
231 -0.5415090748160882 -1.5110222579669297 1.4064501189221803 -2.108419202005126 -0.30560217845515397 -0.5634206006626078
232 -0.5420328036541064 -1.51142418992171 1.4066590382973052 -2.1118180477248765 -0.3084831686561184 -0.5603472373986232
233 -0.542513369402526 -1.5118297828341503 1.4068657043474673 -2.1151645485851804 -0.31134891563681455 -0.5571855057505284
234 -0.5429527130772246 -1.5122388205320163 1.4070711581498874 -2.1184618305111838 -0.3141979463732702 -0.5539391874661462
235 -0.5433527029061512 -1.5126510965530806 1.407276397426346 -2.1217129494833062 -0.31702892159138907 -0.5506119621291253
236 -0.5437151367975291 -1.5130664137883778 1.4074823762911426 -2.1249208883157094 -0.3198406298888756 -0.547207405353324
237 -0.544041744685694 -1.5134845841343045 1.4076900051938954 -2.128088554131046 -0.3226319817984248 -0.5437289876961691
238 -0.5443341907669289 -1.5139054281534414 1.4079001510550724 -2.1312187764508512 -0.32540200386115065 -0.5401800741982125
239 -0.5445940756361511 -1.5143287747440988 1.4081136375851753 -2.1343143058281133 -0.3281498327653037 -0.536563924464095
240 -0.5448229383339469 -1.5147544608186665 1.4083312457739092 -2.137377812955344 -0.33087470959355747 -0.5328836932079272
241 -0.5450222583122412 -1.515182330990878 1.4085537145328786 -2.140411888187865 -0.3335759742122455 -0.5291424311936025
242 -0.5451934573258186 -1.5156122372721006 1.4087817414738697 -2.1434190414280097 -0.33625305982763204 -0.5253430865076999
243 -0.545337901255964 -1.5160440387767544 1.4090159838043355 -2.146401702321468 -0.33890548772739887 -0.5214885061093462
244 -0.545456901871653 -1.5164776014369274 1.4092570593219065 -2.1493622207221788 -0.3415328622198127 -0.5175814376076718
245 -0.545551718532998 -1.5169127977262284 1.4095055474905163 -2.1523028673868563 -0.3441348657783458 -0.5136245312232842
246 -0.5456235598410123 -1.5173495063928686 1.4097619905817875 -2.1552258348646 -0.3467112543956944 -0.5096203418954974
247 -0.5456735852372063 -1.5177876122019438 1.4100268948666022 -2.158133238550953 -0.349261853148057 -0.5055713315019097
248 -0.5457029065560463 -1.518227005686831 1.4103007318431853 -2.161027117879376 -0.35178655196807374 -0.5014798711613163
249 -0.5457125895328966 -1.5186675829095946 1.4105839394894524 -2.1639094376263186 -0.3542853016228968 -0.4973482435949134
250 -0.5457036552697123 -1.5191092452302606 1.4108769235288037 -2.166782089309011 -0.3567581098923725 -0.4931786455243083
251 -0.5456770816604466 -1.5195518990847876 1.4111800586999192 -2.1696468926576946 -0.3592050379411974 -0.48897319008802953
252 -0.5456338047778798 -1.5199954557715445 1.4114936900224235 -2.172505597146367 -0.3616261968780959 -0.4847339092610581
253 -0.5455747202233633 -1.5204398312460825 1.4118181340514948 -2.1753598835682086 -0.3640217444945107 -0.4804627562644008
254 -0.5455006844407853 -1.5208849459239715 1.4121536801156154 -2.1782113656437074 -0.3663918821749421 -0.4761616079539327
255 -0.5454125159959131 -1.5213307244914618 1.4125005915326825 -2.1810615916511673 -0.36873685197089107 -0.4718322671796667
256 -0.5453109968221421 -1.5217770957237222 1.4128591068005998 -2.18391204607072 -0.37105693383031196 -0.4674764651083009
257 -0.5451968734335729 -1.5222239923103937 1.413229440759294 -2.186764151234272 -0.37335244297454256 -0.46309586350336024
258 -0.5450708581062532 -1.522671350688203 1.4136117857218033 -2.1896192689749396 -0.37562372741482103 -0.4586920569585222
259 -0.5449336300283508 -1.5231191108803719 1.4140063125727265 -2.192478702270518 -0.3778711656007145 -0.45426657508080914
260 -0.5447858364199638 -1.5235672163425573 1.4144131718328448 -2.1953436968764044 -0.3800951641930391 -0.44982088462126907
261 -0.5446280936232315 -1.524015613815073 1.4148324946892048 -2.19821544294415 -0.3822961559541492 -0.4453563915515635
262 -0.5444609881633719 -1.52446425318112 1.4152643939903358 -2.201095076622482 -0.3844745977487926 -0.4408744430855559
263 -0.5442850777812388 -1.5249130873307948 1.4157089652066037 -2.2039836816382015 -0.3866309686490652 -0.4363763296455614
264 -0.544100892437975 -1.5253620720306107 1.4161662873559853 -2.2068822908548564 -0.38876576813734104 -0.43186328677338764
265 -0.5439089352923154 -1.525811165798308 1.4166364238957505 -2.209791887807532 -0.39087951440140256 -0.42733649698668646
266 -0.543709683651082 -1.5262603297827158 1.4171194235807387 -2.2127134082124416 -0.3929727427163377 -0.42279709158144846
267 -0.5435035898934031 -1.5267095276484384 1.417615321289034 -2.215647741450325 -0.3950460039081115 -0.4182461523817263
268 -0.5432910823691792 -1.5271587254651608 1.4181241388159587 -2.218595732022939 -0.39709986289404675 -0.41368471343786783
269 -0.5430725662723158 -1.5276078916013536 1.4186458856373865 -2.221558180982125 -0.3991348972957686 -0.40911376267469113
270 -0.542848424489233 -1.5280569966221889 1.4191805596434044 -2.224535847331146 -0.401151696120473 -0.40453424349114186
271 -0.5426190184231633 -1.5285060131914736 1.4197281478434114 -2.2275294493981312 -0.4031508585066706 -0.399947056313049
272 -0.5423846887947446 -1.5289549159774163 1.4202886270437318 -2.230539666181613 -0.4051329925308355 -0.3953530601006398
273 -0.5421457564194097 -1.529403681562057 1.420861964498829 -2.233567138668224 -0.4070987140716513 -0.390753073812496
274 -0.541902522962076 -1.5298522883541963 1.4214481185371894 -2.2366124711227386 -0.4090486457287914 -0.3861478778276329
275 -0.5416552716696322 -1.5303007165056643 1.422047039162923 -2.2396762323506842 -0.41098341579340575 -0.3815382153273659
276 -0.5414042680817168 -1.5307489478307823 1.42265866863409 -2.2427589569338204 -0.4129036572677019 -0.3769247936385983
277 -0.5411497607202821 -1.5311969657288744 1.4232829420187387 -2.2458611464388247 -0.41481000693120845 -0.3723082855401201
278 -0.5408919817584322 -1.5316447551097012 1.4239197877295846 -2.2489832705995454 -0.41670310445150066 -0.3676893305334572
279 -0.5406311476690175 -1.5320923023216797 1.4245691280382249 -2.2521257684732134 -0.41858359153733915 -0.36306853607975126
280 -0.5403674598534688 -1.5325395950827783 1.4252308795697344 -2.2552890495710174 -0.4204521111323343 -0.35844647880408476
281 -0.5401011052513432 -1.5329866224139699 1.4259049537784412 -2.258473494963447 -0.42230930664739813 -0.3538237056686004
282 -0.5398322569310539 -1.5334333745751383 1.426591257405639 -2.261679458360826 -0.4241558212303796 -0.3492007351156913
283 -0.5395610746622462 -1.5338798430033322 1.4272896929199324 -2.2649072671694435 -0.42599229707140573 -0.3445780581824674
284 -0.5392877054702787 -1.5343260202532807 1.4280001589408855 -2.2681572235236898 -0.427819374742563 -0.33995613958763155
285 -0.5390122841732587 -1.5347718999400717 1.4287225506465842 -2.271429605294601 -0.4296376925706583 -0.3353354187918254
286 -0.5387349339020787 -1.5352174766839153 1.4294567601656927 -2.2747246670751986 -0.43144788604189166 -0.3307163110324353
287 -0.5384557666038868 -1.5356627460569054 1.4302026769545324 -2.278042641143006 -0.433250587237358 -0.32609920833377876
288 -0.538174883529425 -1.5361077045317137 1.4309601881596803 -2.2813837384001063 -0.4350464242983711 -0.3214844804935232
289 -0.5378923757046499 -1.5365523494321367 1.4317291789665565 -2.2847481492911004 -0.4368360209206732 -0.31687247604612523
290 -0.5376083243870551 -1.536996678885432 1.4325095329344193 -2.288136044699296 -0.4386199958766524 -0.31226352320401474
291 -0.5373228015070962 -1.5374406917763808 1.4333011323181692 -2.2915475768214657 -0.44039896256474537 -0.3076579307771892
292 -0.5370358700951146 -1.5378843877030184 1.4341038583773351 -2.2949828800214815 -0.44217352858525283 -0.3030559890718268
293 -0.5367475846941495 -1.5383277669339726 1.4349175916725778 -2.2984420716631253 -0.44394429534183366 -0.2984579707684725
294 -0.536457991759016 -1.5387708303673597 1.4357422123500423 -2.301925252922368 -0.44571185766798477 -0.29386413178030363
295 -0.5361671300420185 -1.539213579491186 1.436577600413851 -2.3054325095793895 -0.4474768034778429 -0.2892747120919307
296 -0.5358750309656642 -1.53965601634521 1.4374236359870205 -2.308963912790606 -0.4492397134406737 -0.2846899365791501
297 -0.5355817189827253 -1.5400981434842136 1.438280199561065 -2.3125195198409583 -0.4510011606784366 -0.28011001581002115
298 -0.5352872119239981 -1.5405399639426465 1.4391471722345444 -2.3160993748767043 -0.45276171048583425 -0.27553514682760544
299 -0.5349915213340919 -1.5409814812005986 1.4400244359407801 -2.319703509618955 -0.454521920072271 -0.270965513914672
300 -0.5346946527955782 -1.5414226991510618 1.440911873664975 -2.3233319440581788 -0.4562823383251598 -0.266401289340641
301 -0.5343966062418145 -1.5418636220684454 1.441809369650954 -2.3269846871298934 -0.45804350559402723 -0.2618426340910118
302 -0.5340973762587597 -1.5423042545783088 1.442716809597727 -2.3306617373717633 -0.4598059534948745 -0.25728969857949574
303 -0.5337969523760773 -1.542744601628276 1.4436340808460864 -2.3343630835623115 -0.46157020473425964 -0.2527426233430533
304 -0.5334953193478257 -1.5431846684601025 1.4445610725554303 -2.338088705341445 -0.4633367729525703 -0.24820153972001666
305 -0.5331924574230217 -1.5436244605828602 1.4454976758710072 -2.3418385738130034 -0.46510616258595977 -0.24366657051146084
306 -0.5328883426063563 -1.5440639837472123 1.4464437840817759 -2.3456126521295197 -0.46687886874642004 -0.239137830625975
307 -0.5325829469093343 -1.544503243920747 1.447399292769066 -2.349410896059397 -0.46865537711946775 -0.23461542770797225
308 -0.5322762385921043 -1.5449422472643437 1.4483640999462295 -2.353233254536692 -0.4704361638789167 -0.2300994627496692
309 -0.5319681823962369 -1.5453810001095458 1.449338106189473 -2.357079670193699 -0.4722216956182109 -0.2255900306868576
310 -0.531658739768702 -1.5458195089369062 1.4503212147600546 -2.3609500798765293 -0.47401242929779 -0.22108722097858713
311 -0.5313478690772894 -1.5462577803552906 1.451313331718039 -2.364844415143884 -0.47580881220795596 -0.21659111817087429
312 -0.5310355258177137 -1.546695821082106 1.452314366027799 -2.3687626027492072 -0.4776112819467099 -0.21210180244455165
313 -0.5307216628126342 -1.5471336379244336 1.4533242296554565 -2.372704565106431 -0.47942026641202184 -0.2076193501473716
314 -0.5304062304028162 -1.5475712377610369 1.454342837658456 -2.3766702207394963 -0.4812361838079977 -0.2031438343104805
315 -0.5300891766306558 -1.5480086275252316 1.4553701082674686 -2.3806594847158626 -0.48305944266440115 -0.1986753251493827
316 -0.5297704474162843 -1.5484458141885822 1.456405962960824 -2.384672269064212 -0.48489044186898983 -0.1942138905495173
317 -0.5294499867264602 -1.5488828047454142 1.4574503265316674 -2.388708483176545 -0.4867295707121194 -0.18975959653657676
318 -0.5291277367364567 -1.5493196061981094 1.458503127148054 -2.392768034194895 -0.4885772089430715 -0.1853125077317022
319 -0.5288036379851448 -1.5497562255431716 1.4595642964061757 -2.3968508273828695 -0.4904337268375552 -0.18087268779169777
320 -0.5284776295234656 -1.5501926697580346 1.4606337693769311 -2.400956766482233 -0.4922994852758372 -0.17644019983441417
321 -0.5281496490564869 -1.5506289457885962 1.461711484646054 -2.4050857540547703 -0.49417483583094984 -0.17201510684945998
322 -0.5278196330792294 -1.551065060537452 1.4627973843479978 -2.409237691809641 -0.49606012086643037 -0.1675974720944085
323 -0.5274875170064453 -1.5515010208528128 1.4638914141938055 -2.4134124809164708 -0.4979556736430441 -0.16318735947667753
324 -0.5271532352965298 -1.5519368335180836 1.464993523493163 -2.417610022304411 -0.4998618184339467 -0.15878483392126866
325 -0.5268167215697415 -1.5523725052420834 1.4661036651708603 -2.4218302169474097 -0.5017788706477428 -0.15438996172456335
326 -0.5264779087209016 -1.552808042649887 1.4672217957778748 -2.426072966135938 -0.5037071369589016 -0.15000281089438286
327 -0.5261367290267442 -1.5532434522742677 1.4683478754972885 -2.430338171735418 -0.5056469154449929 -0.14562345147652914
328 -0.5257931142480787 -1.5536787405477226 1.4694818681452568 -2.4346257364316197 -0.5075984957302144 -0.1412519558680342
329 -0.525446995726931 -1.5541139137950575 1.4706237411672474 -2.438935563963265 -0.5095621591346826 -0.1368883991173555
330 -0.5250983044788199 -1.5545489782265207 1.4717734656297587 -2.4432675593421154 -0.5115381788289685 -0.13253285921176455
331 -0.5247469712803267 -1.5549839399314567 1.4729310162077345 -2.4476216290608073 -0.513526819993365 -0.1281854173521857
332 -0.5243929267521109 -1.5554188048724649 1.474096371167884 -2.45199768128869 -0.5155283399813814 -0.12384615821575151
333 -0.5240361014375238 -1.5558535788800496 1.4752695123481232 -2.456395626055957 -0.517542988486966 -0.11951517020634997
334 -0.523676425876967 -1.5562882676477339 1.4764504251333361 -2.4608153754263276 -0.519571007714971 -0.11519254569344707
335 -0.5233138306781453 -1.5567228767276273 1.477639098427668 -2.4652568436585702 -0.5216126325543776 -0.11087838123947721
336 -0.5229482465823532 -1.5571574115264228 1.4788355246235518 -2.4697199473571327 -0.5236680907538165 -0.10657277781610064
337 -0.5225796045269391 -1.5575918773018118 1.4800396995676646 -2.4742046056121723 -0.5257376030989217 -0.10227584100963474
338 -0.5222078357040868 -1.558026279159295 1.4812516225240073 -2.478710740129258 -0.5278213835910738 -0.09798768121597261
339 -0.5218328716160499 -1.558460622049371 1.4824712961343045 -2.4832382753490374 -0.5299196396270961 -0.09370841382530797
340 -0.5214546441269733 -1.5588949107650947 1.4836987263759052 -2.4877871385571435 -0.5320325721794824 -0.08943815939699122
341 -0.5210730855114373 -1.5593291499399724 1.4849339225173697 -2.492357259984631 -0.5341603759767438 -0.08517704382484617
342 -0.5206881284998517 -1.559763344046196 1.4861768970719185 -2.4969485728992296 -0.5363032396834803 -0.08092519849328086
343 -0.5202997063208316 -1.5601974973931865 1.4874276657489147 -2.5015610136876893 -0.5384613460797913 -0.07668276042452994
344 -0.519907752740679 -1.5606316141264363 1.4886862474035454 -2.5061945219295088 -0.5406348722396574 -0.07244987241736835
345 -0.5195122021000973 -1.5610656982266347 1.489952663984869 -2.5108490404623254 -0.5428239897079351 -0.06822668317763901
346 -0.5191129893482603 -1.5614997535090587 1.4912269404823721 -2.515524515439252 -0.5450288646756252 -0.06401334744093821
347 -0.5187100500743558 -1.5619337836232203 1.4925091048711945 -2.5202208963784285 -0.5472496581530857 -0.059810026087803975
348 -0.5183033205367249 -1.5623677920527488 1.49379918805616 -2.5249381362050802 -0.5494865261408787 -0.055616886251752644
349 -0.5178927376897131 -1.5628017821154954 1.495097223814753 -2.5296761912863386 -0.5517396197979504 -0.051434101420509214
350 -0.5174782392083472 -1.5632357569638518 1.4964032487391632 -2.5344350214591085 -0.5540090856068635 -0.047261851530775764
351 -0.5170597635109532 -1.5636697195852598 1.4977173021775312 -2.5392145900512437 -0.556295065535812 -0.04310032305688142
352 -0.5166372497798257 -1.5641036728029099 1.4990394261745041 -2.5440148638962907 -0.5585976971971633 -0.03894970909365509
353 -0.5162106379800585 -1.5645376192766054 1.5003696654112135 -2.5488358133420648 -0.560917114002291 -0.03481020943386035
354 -0.5157798688766418 -1.5649715615037854 1.5017080671447798 -2.5536774122533052 -0.5632534453124688 -0.03068203064052847
355 -0.5153448840499371 -1.5654055018206958 1.503054681147437 -2.5585396380086713 -0.565606816585619 -0.026565386114522888
356 -0.5149056259096257 -1.5658394424036908 1.5044095596453693 -2.5634224714923017 -0.5679773495187154 -0.0224604961576643
357 -0.51446203770724 -1.5662733852706598 1.50577275725734 -2.5683258970802005 -0.570365162185659 -0.01836758803174175
358 -0.514014063547371 -1.5667073322825642 1.507144330933193 -2.5732499026216606 -0.5727703691704565 -0.014286896013730472
359 -0.5135616483976547 -1.5671412851450763 1.5085243398922892 -2.5781944794159664 -0.5751930816955441 -0.010218661447532775
360 -0.5131047380976285 -1.5675752454103087 1.5099128455619475 -2.5831596221845823 -0.5776334077451146 -0.00616313279255282
361 -0.5126432793665563 -1.568009214478625 1.5113099115159436 -2.5881453290390524 -0.5800914521833166 -0.002120565669411192
362 -0.512177219810309 -1.5684431936005225 1.5127156034131164 -2.593151601444806 -0.5825673168672046 0.0019087770969005097
363 -0.5117065079273927 -1.568877183878576 1.5141299889361244 -2.598178444181078 -0.5850611007543358 0.00592462543613054
364 -0.5112310931142116 -1.5693111862694367 1.515553137730393 -2.6032258652971243 -0.5875729000049141 0.00992670199385456
365 -0.5107509256696507 -1.5697452015858762 1.5169851213432815 -2.608293876064929 -0.5901028080783999 0.013914722094257148
366 -0.5102659567990627 -1.570179230498869 1.5184260131634926 -2.613382490928569 -0.5926509158245059 0.017888393704330624
367 -0.5097761386177379 -1.570613273539703 1.5198758883607533 -2.6184917274504085 -0.5952173115685185 0.02184741739922042
368 -0.509281424153939 -1.5710473311021136 1.5213348238257676 -2.6236216062542836 -0.5978020811908852 0.025791486328452615
369 -0.5087817673515764 -1.5714814034444353 1.5228028981104638 -2.6287721509658275 -0.6004053082010219 0.029720286182785036
370 -0.5082771230725998 -1.5719154906917603 1.5242801913685278 -2.6339433881500773 -0.6030270738053012 0.03363349516142969
371 -0.507767447099177 -1.5723495928380997 1.5257667852962296 -2.6391353472465067 -0.60566745696919 0.03753078393939979
372 -0.507252696135734 -1.572783709748545 1.527262763073532 -2.644348060501594 -0.6083265344735119 0.041411815634740896
373 -0.5067328278109224 -1.573217841161418 1.5287682093054697 -2.6495815628990598 -0.6110043809648157 0.04527624577541109
374 -0.5062078006795822 -1.5736519866904086 1.5302832099637849 -2.6548358920878723 -0.6137010689998397 0.04912372226558066
375 -0.5056775742247627 -1.5740861458266937 1.5318078523288008 -2.6601110883081196 -0.6164166690840627 0.05295388535112726
376 -0.5051421088598689 -1.5745203179410328 1.533342224931501 -2.665407194314848 -0.6191512497043417 0.056766367584107254
377 -0.504601365930987 -1.574954502285837 1.5348864174957964 -2.670724255299934 -0.6219048773556364 0.060560793785989095
378 -0.5040553077194537 -1.5753886979972047 1.5364405208809406 -2.676062318812075 -0.6246776165618289 0.06433678100943901
379 -0.5035038974447237 -1.5758229040969223 1.5380046270240602 -2.6814214346749488 -0.6274695298906432 0.06809393849845345
380 -0.5029470992675885 -1.5762571194944273 1.5395788288827579 -2.686801654903604 -0.6302806779626793 0.0718318676466369
381 -0.5023848782938034 -1.5766913429887275 1.5411632203777514 -2.6922030336191205 -0.6331111194545712 0.0755501619534271
382 -0.5018172005781695 -1.5771255732702758 1.5427578963354953 -2.697625626961573 -0.6359609110962856 0.079248406978073
383 -0.5012440331291227 -1.5775598089227958 1.5443629524307403 -2.7030694930013204 -0.6388301076625729 0.08292618029117366
384 -0.5006653439138767 -1.57799404842506 1.5459784851289797 -2.708534691648642 -0.6417187619585866 0.0865830514235888
385 -0.5000811018641657 -1.5784282901526097 1.5476045916287227 -2.7140212845617127 -0.644626924799684 0.0902185818125338
386 -0.4994912768826291 -1.578862532379424 1.5492413698035439 -2.7195293350529175 -0.6475546449854209 0.09383232474467354
387 -0.4988958398498852 -1.5792967732795298 1.550888918143843 -2.7250589079934913 -0.650501969267751 0.09742382529603072
388 -0.49829476263232986 -1.5797310109285523 1.5525473356982564 -2.730610069716448 -0.6534689423134374 0.10099262026852504
389 -0.4976880180907029 -1.5801652433052065 1.5542167220146546 -2.736182887917769 -0.6564556066606841 0.10453823812296006
390 -0.4970755800894595 -1.5805994682927247 1.5558971770806573 -2.7417774315557955 -0.6594620026699854 0.1080601989082742
391 -0.49645742350698313 -1.581033683680222 1.5575888012635988 -2.747393770748769 -0.6624881684691942 0.11155801418687178
392 -0.4958335242466756 -1.581467887163997 1.5592916952498705 -2.7530319766704485 -0.6655341398928009 0.1150311869558489
393 -0.49520385924895854 -1.5819020763487661 1.5610059599835708 -2.758692121443717 -0.66859995041541 0.11847921156392724
394 -0.49456840650421985 -1.582336248748832 1.5627316966043798 -2.76437427803208 -0.6716856310793978 0.12190157362390683
395 -0.4939271450667368 -1.582770401789185 1.5644690063845885 -2.7700785201289637 -0.6747912104167241 0.12529774992044587
396 -0.493280055069607 -1.5832045328065367 1.5662179906651994 -2.775804922044668 -0.6779167143648684 0.1286672083129729
397 -0.4926271177407177 -1.5836386390502848 1.5679787507910152 -2.781553558590863 -0.6810621661768507 0.1320094076335325
398 -0.4919683154197826 -1.5840727176834082 1.5697513880446345 -2.787324504962466 -0.6842275863252871 0.1353237975793616
399 -0.4913036315764749 -1.5845067657832954 1.5715360035792678 -2.7931178366167435 -0.6874129924004273 0.1386098185999886
400 -0.4906330508296858 -1.5849407803425024 1.5733326983502838 -2.798933629149465 -0.6906183990021044 0.14186690177864203
401 -0.48995655896793394 -1.58537475826944 1.5751415730453961 -2.804771958167906 -0.6938438176255228 0.14509446870774972
402 -0.4892741429709556 -1.5858086963889932 1.576962728013399 -2.8106328991605025 -0.6970892565407962 0.1482919313583027
403 -0.4885857910325001 -1.586242591443072 1.578796263191352 -2.816516527362924 -0.7003547206661369 0.1514586919428509
404 -0.48789149258435865 -1.586676440091091 1.5806422780301204 -2.822422917620326 -0.7036402114345864 0.15459414277189007
405 -0.48719123832165234 -1.5871102389103806 1.5825008714181674 -2.8283521442455175 -0.7069457266541631 0.15769766610339161
406 -0.4864850202294067 -1.587543984396531 1.5843721416034904 -2.8343042808727614 -0.7102712603612891 0.1607686339852168
407 -0.48577283161043805 -1.5879776729636659 1.5862561861135986 -2.8402794003069087 -0.7136168026673444 0.16380640809014851
408 -0.4850546671145796 -1.5884113009446525 1.5881531016734205 -2.8462775743675346 -0.7169823395981835 0.1668103395432635
409 -0.48433052276927396 -1.5888448645912412 1.5900629841210197 -2.8522988737277366 -0.7203678529264272 0.16977976874135617
410 -0.48360039601155896 -1.5892783600741394 1.5919859283210083 -2.85834336774721 -0.7237733199963345 0.17271402516411546
411 -0.48286428572147677 -1.5897117834830226 1.5939220280755286 -2.864411124299215 -0.7271987135410322 0.1756124271767425
412 -0.48212219225693254 -1.5901451308264811 1.5958713760326761 -2.8705022095909922 -0.7306440014918683 0.1784742818236855
413 -0.48137411749003395 -1.5905783980319017 1.5978340635922281 -2.8766166879771804 -0.7341091467796331 0.18129888461315452
414 -0.48062006484494096 -1.591011580945292 1.5998101808085419 -2.8827546217657396 -0.7375941071273691 0.18408551929206465
415 -0.479860039337258 -1.5914446753310407 1.6017998162904752 -2.8889160710158577 -0.741098834834471 0.1868334576110422
416 -0.47909404761500063 -1.5918776768716236 1.603803057098179 -2.8951010933272783 -0.7446232765517565 0.18954195907911267
417 -0.4783220980011708 -1.5923105811672524 1.6056385052426099 -2.9027616107723295 -0.7488816249205289 0.1893114163069516
418 -0.4775351725531624 -1.5927396210642 1.607629379621018 -2.9103223787885892 -0.7531691540925128 0.18909744586325514
419 -0.47673331087873705 -1.5931661096474365 1.6097353870920066 -2.917792021310989 -0.7574777395967199 0.18889907911384424
420 -0.4759167088045813 -1.5935910274099858 1.6119261310654835 -2.925177588232983 -0.7618011263914903 0.18871522936956908
421 -0.47508567524835477 -1.5940151019174753 1.6141787193193968 -2.932484890787091 -0.7661344511545508 0.18854473370731636
422 -0.47424059996733264 -1.5944388689471405 1.6164759432316052 -2.9397187708954164 -0.7704738930395596 0.18838638275222022
423 -0.47338192940713025 -1.5948627192247906 1.6188048941288768 -2.9468833136945096 -0.7748164169464445 0.18823894236144617
424 -0.4725101486008573 -1.5952869340438525 1.6211559131570585 -2.9539820132288406 -0.7791595838392296 0.18810116965209125
425 -0.4716257675989615 -1.5957117123465185 1.6235217951163599 -2.961017900577024 -0.7835014099346559 0.18797182494685025
426 -0.4707293112990462 -1.5961371912740017 1.6258971853769453 -2.9679936423742044 -0.7878402616925546 0.1878496806939006
427 -0.4698213118320757 -1.5965634617359346 1.6282781234023467 -2.9749116162890226 -0.7921747771489545 0.18773352809916538
428 -0.46890230287418205 -1.5969905801897022 1.63066169748114 -2.981773968714163 -0.7965038067062595 0.1876221820053197
429 -0.46797281541151153 -1.5974185775408936 1.633045783744632 -2.9885826588137783 -0.8008263683435966 0.18751448441570787
430 -0.46703337460349026 -1.5978474658600244 1.6354288490209052 -2.995339492152717 -0.805141613547779 0.1874093069663958
431 -0.46608449747797853 -1.5982772434447 1.6378098020074787 -3.0020461463962356 -0.8094488012384102 0.18730555258085727
432 -0.46512669125768297 -1.5987078986293042 1.6401878809967572 -3.008704190988795 -0.8137472776720841 0.18720215649048902
433 -0.46416045216655955 -1.5991394126473606 1.642562569239231 -3.015315102268998 -0.8180364608328689 0.18709808676494946
434 -0.4631862646019634 -1.5995717617778635 1.6449335311933189 -3.0218802751291234 -0.8223158282008024 0.18699234446587
435 -0.46220460058609475 -1.6000049189507892 1.6473005645520147 -3.0284010320602817 -0.8265849070740175 0.18688396351358758
436 -0.4612159194311761 -1.6004388549443822 1.6496635641805428 -3.034878630219965 -0.8308432668301229 0.18677201033766125
437 -0.46022066756851226 -1.6008735392745315 1.652022495041663 -3.0413142670032665 -0.8350905126680781 0.18665558336695784
438 -0.4592192785034167 -1.6013089408520715 1.6543773718988397 -3.047709084480996 -0.8393262804872681 0.18653381240319852
439 -0.4582121728669177 -1.6017450284653316 1.6567282441275992 -3.054064172978503 -0.8435502326462591 0.18640585791240735
440 -0.4571997585418984 -1.6021817711312243 1.6590751843739797 -3.0603805740013237 -0.8477620544075185 0.18627091026120088
441 -0.4561824308464306 -1.6026191383475736 1.6614182801080117 -3.0666592826627213 -0.8519614509218777 0.18612818891890712
442 -0.4551605727609313 -1.603057100271365 1.6637576273537564 -3.0729012497295867 -0.8561481446419296 0.18597694164178957
443 -0.4541345551887206 -1.6034956278415442 1.6660933260539805 -3.0791073833741662 -0.8603218730799777 0.1858164436519246
444 -0.4531047372418034 -1.6039346928604103 1.668425476660903 -3.085278550697182 -0.8644823868459183 0.18564599682033808
445 -0.4520714665454232 -1.604374268044198 1.6707541776451649 -3.091415579071493 -0.8686294479152377 0.18546492886168806
446 -0.4510350795562612 -1.6048143270508346 1.6730795236911753 -3.0975192573430967 -0.8727628280884178 0.18527259254595557
447 -0.4499959018901827 -1.6052548444908874 1.6754016044043814 -3.1035903369170015 -0.8768823076114174 0.18506836493117354
448 -0.448954248656229 -1.6056957959262208 1.6777205033992366 -3.1096295327485652 -0.8809876739332199 0.1848516466201006
449 -0.44791042479418436 -1.6061371578597825 1.680036297669291 -3.115637524255712 -0.8850787205812412 0.18462186104287093
450 -0.44686472541354016 -1.6065789077190664 1.6823490571653807 -3.121614956163551 -0.8891552461390554 0.18437845376696696
451 -0.44581743613207536 -1.6070210238351825 1.6846588445264257 -3.1275624392900343 -0.893217053313713 0.18412089183533134
452 -0.444768833412589 -1.6074634854189738 1.686965714921266 -3.1334805512791344 -0.8972639480821012 0.18384866313302534
453 -0.4437191848965779 -1.6079062725352553 1.689269715970454 -3.139369837286423 -0.9012957389075015 0.18356127578252496
454 -0.4426687497338653 -1.6083493660759864 1.6915708877248008 -3.145230810620742 -0.9053122360188345 0.1832582575675065
455 -0.44161777890735876 -1.6087927477329726 1.6938692626833938 -3.1510639533447784 -0.9056692821345369 0.18271055391415153
456 -0.44062498073191114 -1.6092331454365265 1.6961814731622618 -3.1568913610236673 -0.909821468851843 0.1823509660967639
457 -0.43962691387447966 -1.6096742144507743 1.6984862423544564 -3.1626894238257637 -0.9102466177232601 0.18176666467447247
458 -0.43868350048421434 -1.6101126189715567 1.7007999920184402 -3.168479883474299 -0.9107402680973156 0.18114995347271343
459 -0.4377911622686383 -1.6105486378461642 1.7031188494156686 -3.1742607309815103 -0.9151476357659494 0.1806964593581855
460 -0.4368850854462196 -1.6109859102464668 1.7054253912297275 -3.180008848267131 -0.9156895836322017 0.18004838518449395
461 -0.4360276115926298 -1.6114209688649201 1.7077353440477852 -3.1857456294854187 -0.916292290499264 0.1793701537916781
462 -0.43521558082021605 -1.6118540354232063 1.710046080421013 -3.191469159908531 -0.9209119538500773 0.17882697565188918
463 -0.43438295754928097 -1.6122887448148713 1.7127899689784636 -3.193582248452947 -0.9216266765117549 0.17896262697332843
464 -0.43358490390636834 -1.6127345909899986 1.7151580168900522 -3.1957408581060274 -0.9223642100447472 0.17909971011873937
465 -0.4328198264163524 -1.613188456347355 1.717243117561604 -3.197933663815976 -0.9231254203712826 0.17923479317288735
466 -0.43208610459301133 -1.6136480398380086 1.7191150117980698 -3.200152171402645 -0.923910519272906 0.17936531958294585
467 -0.43138212584665236 -1.6141116419707753 1.7208260983921921 -3.202389997604486 -0.9247192528210748 0.1794893875235633
468 -0.4307063093999717 -1.6145780081803982 1.7224157711501502 -3.2046423368332153 -0.9255510423485449 0.1796055851387043
469 -0.4300571222800472 -1.6150462139375605 1.7239136628787366 -3.206905564719926 -0.9264050891093536 0.17971286729560107
470 -0.4294330895928094 -1.615515580016691 1.7253420754567212 -3.2091769424913923 -0.9272804514380488 0.17981046327757663
471 -0.4288328006835313 -1.615985609738218 1.7267178021705358 -3.211454396028892 -0.9281761012243982 0.17989780759111643
472 -0.42825491235406377 -1.6164559423337956 1.7280534953766131 -3.2137363504516623 -0.9290909649096407 0.17997448807256664
473 -0.4276981499926463 -1.6169263182068723 1.72935869352446 -3.216021606102306 -0.9300239529478457 0.18004020695982817
474 -0.42716130724160734 -1.617396553007885 1.730640592714248 -3.2183092454731375 -0.9309739807028788 0.18009475168995653
475 -0.42664324465906484 -1.6178665182634582 1.7319046265232727 -3.220598563295719 -0.9319399830095314 0.1801379729978505
476 -0.4261428877064436 -1.6183361268915106 1.7331549018563932 -3.2228890139941133 -0.9329209240656826 0.18016976849831404
477 -0.42565922430231723 -1.6188053223660193 1.7343945266374863 -3.225180172167843 -0.9339158038992061 0.18019007038748944
478 -0.4251913021160344 -1.619274070612043 1.7356258562245355 -3.2274717028601363 -0.9349236623356435 0.18019883623935037
479 -0.4247382257254041 -1.619742353945457 1.736850678735884 -3.2297633391795415 -0.9359435811547585 0.18019604212761287
480 -0.42429915372666055 -1.6202101665451523 1.7380703544534393 -3.2320548654501424 -0.9369746849462663 0.18018167749454878
481 -0.42387329585855005 -1.6206775110743465 1.73928592069934 -3.2343461045201467 -0.9380161410423202 0.18015574133173592
482 -0.423459910183117 -1.6211443961637695 1.7404981707519267 -3.2366369081992943 -0.939067158805428 0.180118239345658
483 -0.4230583003517345 -1.6216108345413123 1.741707713240252 -3.2389271500511634 -0.9401269884768285 0.18006918186217513
484 -0.42266781297474554 -1.6220768416464877 1.7429150168582461 -3.2412167199583943 -0.9411949197355998 0.1800085822848845
485 -0.42228783510573037 -1.6225424346083326 1.744120444038448 -3.2435055200230494 -0.9422702800780964 0.17993645596827618
486 -0.4219177918461444 -1.6230076314956012 1.7453242763221788 -3.245793461472729 -0.9433524330971496 0.17985281940111195
487 -0.42155714407232786 -1.6234724507707798 1.7465267334841141 -3.248080462324567 -0.9444407767181116 0.17975768962142954
488 -0.42120538628426085 -1.623936910896486 1.7477279879587408 -3.250366445620521 -0.9455347414323211 0.17965108380411948
489 -0.4208620445736301 -1.6244010300556144 1.7489281757323425 -3.2526513380934836 -0.946633788556375 0.17953301897672724
490 -0.4205266747075613 -1.62486482595621 1.7501274045755344 -3.2549350691584467 -0.9477374085366391 0.17940351183019776
491 -0.42019886032359066 -1.625328315699276 1.7513257602743408 -3.2572175701490407 -0.9488451193118641 0.17926257859960268
492 -0.41987821123098557 -1.6257915156931635 1.7525233113546117 -3.2594987737394336 -0.9499564647419858 0.17911023499615086
493 -0.4195643618132794 -1.626254441602271 1.7537201126718642 -3.2617786135063525 -0.9510710131077168 0.17894649617649086
494 -0.4192569695268053 -1.626717108320863 1.7549162081463627 -3.264057023597132 -0.9521883556830419 0.17877137673885257
495 -0.4189557134900435 -1.6271795299651104 1.7561116328538755 -3.2663339384780707 -0.9533081053809509 0.17858489073823539
496 -0.4186602931587012 -1.6276417198782176 1.7573064146303765 -3.268609292743686 -0.9544298954714995 0.17838705171484712
497 -0.41837042708160355 -1.628103690644779 1.7585005753097402 -3.270883020972222 -0.9555533783704331 0.17817787273149818
498 -0.4180858517326656 -1.6285654541115075 1.7596941316839867 -3.273155057616335 -0.9566782244960391 0.17795736641677926
499 -0.4178063204144238 -1.6290270214122078 1.7608870962534688 -3.2754253369205832 -0.9578041211915329 0.17772554501169455
500 -0.4175316022288277 -1.6294884029954189 1.762079477817713 -3.2776937928593894 -0.9589307717100741 0.1774824204180529
501 -0.4172614811112162 -1.6299496086535727 1.7632712819451037 -3.2799603590906643 -0.9600578942594096 0.17722800424739074
502 -0.4169957549236245 -1.6304106475528168 1.7644625113501742 -3.2822249689214513 -0.9611852211031151 0.17696230786955233
503 -0.4167342346037853 -1.630871528262892 1.7656531662001784 -3.2844875552828183 -0.962312497715442 0.17668534246031473
504 -0.41647674336639895 -1.6313322587866248 1.7668432443673008 -3.2867480507118825 -0.963439481986842 0.1763971190476389
505 -0.41622311595345046 -1.6317928465887257 1.768032741638847 -3.289006387339359 -0.9645659434773377 0.17609764855627166
506 -0.4159731979305406 -1.6322532986236864 1.7692216518947521 -3.2912624968813953 -0.9656916627150183 0.1757869418505289
507 -0.4157268450263871 -1.6327136213626312 1.77040996725947 -3.2935163106347463 -0.9668164305370563 0.1754650097751676
508 -0.4154839225128211 -1.6331738208190412 1.7715976782336174 -3.295767759474555 -0.9679400474707688 0.17513186319430943
509 -0.4152443046227711 -1.6336339025733049 1.7727847738094398 -3.298016773854179 -0.9690623231523675 0.1747875130284194
510 -0.4150078740038799 -1.6340938717960767 1.7739712415732258 -3.3002632838066166 -0.970183075781173 0.17443197028937044
511 -0.41477452120554675 -1.6345537332704454 1.77515706779705 -3.3025072189471936 -0.9713021316071818 0.17406524611364443
512 -0.41454414419732394 -1.6350134914129335 1.7763422375216829 -3.3047485084772377 -0.9724193244499996 0.17368735179373335
513 -0.4143166479167238 -1.6354731502933537 1.7775267346320944 -3.3069870811885336 -0.9735344952472641 0.1732982988078114
514 -0.41409194384461706 -1.6359327136535593 1.7787105419266567 -3.3092228654683775 -0.974647491630789 0.17289809884775473
515 -0.4138699496065123 -1.6363921849251275 1.7798936411809254 -3.3114557893051093 -0.9757581675287655 0.17248676384558634
516 -0.4136507165872217 -1.6368567856692844 1.7810614209060454 -3.313696903607149 -0.9768612868714359 0.17206430599842473
517 -0.41343412798118095 -1.637317848608643 1.782242956958967 -3.315927387508192 -0.9779652418253441 0.17163046154713338
518 -0.41322000419620813 -1.6377755494750057 1.7834335040545892 -3.3181477380205813 -0.9790696834527453 0.17118547123880076
519 -0.41300818170144604 -1.6382300242397108 1.784629487528355 -3.3203583092958153 -0.9801742960026862 0.1707295280176951
520 -0.4127985110176976 -1.6386813788226406 1.7858282143411215 -3.322559347854493 -0.9812787906618862 0.17026278883802462
521 -0.4125682960117756 -1.6391406261317123 1.7870008685528664 -3.3247520135669575 -0.9823807742868429 0.169785383579061
522 -0.4123414891068822 -1.639596313140617 1.7881821638402735 -3.326934102714602 -0.98348335939273 0.16929704363513973
523 -0.4121178623145757 -1.6400485868056476 1.7893684914829846 -3.329105981600338 -0.9845861880188025 0.16879796705468766
524 -0.4118972087516883 -1.6404975623276827 1.7905571419797883 -3.3312679067229016 -0.9856889322504339 0.16828831509324327
525 -0.4116793397665616 -1.6409433309151846 1.7917460811581 -3.3334200520294983 -0.9867912892536781 0.1677682213680943
526 -0.41146408264110174 -1.641385965627731 1.7929337818835969 -3.33556252941271 -0.9878929774639423 0.16723779875171743
527 -0.4112512787329116 -1.6418255257757974 1.7941190975844397 -3.337695404126859 -0.9889937336314027 0.16669714456315546
528 -0.4110407819550499 -1.642262060234743 1.7953011672181034 -3.3398187063839218 -0.9900933105048572 0.1661463444782826
529 -0.41083245751610176 -1.6426956099422607 1.796479343878236 -3.341932440076775 -0.9911914749933727 0.16558547547583302
530 -0.4106261808621914 -1.643126209781789 1.797653141172658 -3.3440365893426147 -0.9922880066872678 0.16501460805769402
531 -0.4104218367768184 -1.6435538900041375 1.7988221929586883 -3.346131123502603 -0.9933826966508973 0.16443380792295645
532 -0.41021931860511085 -1.6439786773018013 1.7999862231167312 -3.348216000780859 -0.9944753464224361 0.16384313723079172
533 -0.41001852757713714 -1.6444005956219943 1.801145022866628 -3.350291171105867 -0.995565767172579 0.16324265555378772
534 -0.409819372210964 -1.644819666783085 1.802298433750722 -3.3523565782221643 -0.9966537789863888 0.16263242059821004
535 -0.40962176778068976 -1.6452359109430361 1.803446334873474 -3.354412161283593 -0.9977392102416114 0.16201248874871735
536 -0.40942563583810154 -1.6456493469563838 1.8045886333377759 -3.3564578560568643 -0.9988218970634808 0.16138291548081116
537 -0.40923090377917204 -1.6460599926472108 1.8057252570815423 -3.35849359583219 -0.9999016828409933 0.1607437556735791
538 -0.4090375044485554 -1.6464678650187532 1.8068561495161533 -3.360519312113699 -1.000978417793294 0.16009506384722716
539 -0.4088453757767029 -1.6468729804151572 1.8079812655171912 -3.362534935144275 -1.0020519585775347 0.1594368943438298
540 -0.4086544604453324 -1.6472753546470482 1.8091005684297867 -3.364540394305868 -1.0031221679315765 0.15876930146516438
541 -0.40846470557782816 -1.6476750030896847 1.81021402783496 -3.366535618426119 -1.0041889143464118 0.1580923395780656
542 -0.4082760624517889 -1.6480719407602988 1.811321617886516 -3.3685205360144717 -1.005252071764287 0.15740606319515432
543 -0.4080884862314417 -1.6484661823795865 1.8124233160755148 -3.3704950754451657 -1.006311519299357 0.15671052703685598
544 -0.4079019357180158 -1.6488577424210955 1.8135191023150001 -3.372459165100197 -1.0073671409783143 0.15600578607916335
545 -0.40771637311646797 -1.6492466351513249 1.814608958264437 -3.3744127334820555 -1.008418825498918 0.1552918955905022
546 -0.4075317638171861 -1.649632874662666 1.8156928668334242 -3.376355709303618 -1.0094664660047088 0.15456891116023264
547 -0.40734807619147745 -1.6500164749007924 1.8167708118193613 -3.3782880215607376 -1.0105099598744611 0.1538368887206989
548 -0.40716528139979896 -1.650397449687714 1.8178427776450643 -3.380209599591698 -1.0115492085251478 0.15309588456427314
549 -0.4069833532118028 -1.6507758127414172 1.818908749170861 -3.3821203731266447 -1.0125841172273506 0.15234595535648815
550 -0.4068022678373711 -1.651151577692795 1.819968711562067 -3.3840202723293613 -1.0136145949321864 0.15158715814608917
551 -0.40662200376789226 -1.651524758100395 1.821022650197545 -3.3859092278331455 -1.0146405541089176 0.15081955037263683
552 -0.4064425416271006 -1.6518953674634014 1.822070550608642 -3.38778717077212 -1.0156619105925102 0.1500431898721427
553 -0.4062638640308598 -1.65226341923316 1.8231123984405022 -3.3896540328089766 -1.0166785834404612 0.1492581348811067
554 -0.4060859554553196 -1.65262892682349 1.8241481794297718 -3.391509746159904 -1.0176904947982905 0.14846444403923986
555 -0.40590880211291963 -1.6529919036199754 1.8251778793942284 -3.3933542436172743 -1.0186975697731289 0.14766217639109266
556 -0.4057323918357539 -1.653352362988378 1.826201484231007 -3.39518745857051 -1.0196997363148865 0.14685139138675918
557 -0.40555671396584286 -1.6537103182822919 1.827218979920945 -3.3970093250254623 -1.020696925104524 0.14603214888179197
558 -0.4053817592518915 -1.6540657828501362 1.828230352537203 -3.3988197776225393 -1.0216890694489742 0.1452045091364337
559 -0.4052075197521408 -1.6544187700415542 1.8292355882568014 -3.4006187516537807 -1.0226761051823048 0.14436853281425055
560 -0.4050339887429452 -1.6547692932132858 1.8302346733740624 -3.402406183079014 -1.0236579705727282 0.14352428098023653
561 -0.4048611606327324 -1.6551173657345633 1.8312275943152216 -3.404182008541206 -1.0246346062351 0.14267181509844512
562 -0.4046890308810239 -1.6554630009920717 1.8322143376536655 -3.4059461653810916 -1.0256059550485606 0.1418111970291951
563 -0.40451759592221476 -1.65580621239451 1.8331948901254012 -3.407698591651152 -1.026571962079007 0.14094248902589018
564 -0.40434685309382945 -1.6561470133767857 1.8341692386444786 -3.4094392261289825 -1.0275325745060888 0.14006575373148641
565 -0.4041768005689901 -1.6564854174038661 1.8351373703181657 -3.4111680083301037 -1.0284877415544533 0.13918105417463625
566 -0.4040074372928455 -1.6568214379743174 1.8360992724617318 -3.41288487852024 -1.0294374144289706 0.1382884537655355
567 -0.4038387629227299 -1.6571550886235416 1.8370549326127554 -3.4145897777270946 -1.0303815462536943 0.1373880162914954
568 -0.4036707777718298 -1.6574863829267414 1.8380043385448805 -3.416282647751647 -1.0313200920143233 0.13647980591226108
569 -0.40350348275615433 -1.6578153345016249 1.8389474782809991 -3.4179634311789813 -1.0322530085039445 0.13556388715509413
570 -0.40340420453915854 -1.6581265360365736 1.839975023817534 -3.419629283998853 -1.033187608810133 0.13464032490963712
571 -0.40330196807246715 -1.6584366529297752 1.8409700124746469 -3.4212866152980914 -1.0341134255834254 0.13371026131429697
572 -0.4031970338299228 -1.658745451721734 1.8419392235413943 -3.4229345164763356 -1.0350306399290148 0.1327734735868382
573 -0.4030896350923738 -1.6590527589232165 1.8428877116409812 -3.4245722901340003 -1.0359394185117177 0.13182981078408026
574 -0.40297998271527996 -1.6593584459946484 1.8438192432026304 -3.4261993971799933 -1.0368399153875028 0.13087917584279934
575 -0.4028682687977104 -1.659662418119497 1.8447366226387638 -3.4278154172861854 -1.037732273453 0.12992151214744357
576 -0.40275466952968236 -1.659964605811357 1.8456419360797751 -3.4294200193217788 -1.0386166256092408 0.12895679348280034
577 -0.40263934742262586 -1.660264958637847 1.8465367334889005 -3.4310129392489883 -1.0394930957129942 0.12798501651756142
578 -0.4025224530748763 -1.6605634405259837 1.8474221647234081 -3.4325939635964087 -1.0403617993703635 0.12700619518008852
579 -0.4024041265851694 -1.660860026249211 1.8482990811782898 -3.434162917101606 -1.0412228446127396 0.12602035644879214
580 -0.40228449869836147 -1.6611546987974306 1.8491681117103165 -3.4357196534698953 -1.0420763324841782 0.12502753720004606
581 -0.4021636917463019 -1.6614474474069294 1.8500297193435964 -3.4372640484621306 -1.0429223575611084 0.12402778184668532
582 -0.40204182043097975 -1.6617382660835287 1.8508842436155535 -3.4387959947231095 -1.043761008419342 0.12302114056753087
583 -0.4019189924853135 -1.6620271524944297 1.851731932194618 -3.4403153979108363 -1.0445923680590723 0.12200766797877517
584 -0.40179530923820195 -1.662314107135722 1.8525729644833047 -3.4418221737979895 -1.045416514295514 0.1209874221357364
585 -0.40167086610392944 -1.6625991327060383 1.8534074692344595 -3.4433162460999958 -1.0462335201206903 0.11996046378165164
586 -0.40154575301114676 -1.6628822336344211 1.8542355376958415 -3.444797544846191 -1.047043454040367 0.11892685578123122
587 -0.40142005478300824 -1.6631634157235884 1.8550572334150834 -3.4462660051569376 -1.04784638038909 0.11788666269243032
588 -0.4012938514773198 -1.663442685879601 1.855872599550784 -3.4477215663242298 -1.0486423596255543 0.1168399504416536
589 -0.4011672186935088 -1.6637200519062567 1.8566816643215298 -3.4491641711192376 -1.049431448610035 0.1157867860763965
590 -0.4010402278516927 -1.663995522348014 1.8574844450647947 -3.4505937652695837 -1.0502137008652659 0.11472723757589443
591 -0.4009129464479664 -1.6642691063693371 1.8582809512582235 -3.452010297063612 -1.0509891668219058 0.11366137370525763
592 -0.40078543828915925 -1.6645408136614075 1.859071186766565 -3.4534137170497146 -1.0517578940495729 0.11258926390223693
593 -0.400657763709649 -1.6648106543694339 1.8598551515108606 -3.4548039778068547 -1.0525199274743084 0.11151097818850472
594 -0.4005299797723209 -1.6650786390354924 1.8606328427066945 -3.456181033768449 -1.0532753095832414 0.1104265870993828
595 -0.4004021404553756 -1.6653447785531075 1.861404255781114 -3.45754484108628 -1.0540240806171661 0.10933616162747828
596 -0.4002742968263948 -1.6656090841307347 1.8621693850500445 -3.4588953575244763 -1.0547662787516947 0.1082397731768311
597 -0.4001464972048478 -1.665871567262015 1.8629282242172762 -3.460232542376105 -1.055501940267604 0.10713749352503113
598 -0.40001878731404134 -1.6661322397012066 1.863680766740601 -3.461556356396809 -1.0562310997109645 0.10602939479140033
599 -0.39989121042337966 -1.6663911134425937 1.864427006099113 -3.46286676175131 -1.0569537900436066 0.10491554940981274
600 -0.39976380748168705 -1.6666482007029721 1.8651669359870402 -3.4641637219696624 -1.0576700427844523 0.10379603010508111
601 -0.39963661724225874 -1.6669035139065298 1.8659005504530288 -3.4654472019109104 -1.0583798881422153 0.10267090987210574
602 -0.3995096763802312 -1.6671570656716115 1.8666278439989876 -3.466717167732396 -1.0590833551399446 0.10154026195717997
603 -0.39938301960280553 -1.6674088687989765 1.867348811649003 -3.467973586863399 -1.059780471731868 0.10040415984099609
604 -0.3992566797528047 -1.6676589362612562 1.8680634489961545 -3.4692164279821194 -1.0604712649129633 0.09926267722300683
605 -0.3991306879060059 -1.6679072811933835 1.8687717522330631 -3.4704456609952494 -1.061155760821668 0.0981158880068812
606 -0.3990050734626506 -1.6681539168838233 1.869473718170503 -3.4716612570195777 -1.0618339848361111 0.09696386628685584
607 -0.39887986423350447 -1.6683988567664687 1.8701693442473037 -3.472863188365192 -1.0625059616642398 0.09580668633483012
608 -0.3987550865208119 -1.6686421144131005 1.8708586285339328 -3.4740514285199566 -1.0631717154281815 0.09464442258808865
609 -0.39863076519446294 -1.6688837035263278 1.8715415697315319 -3.4752259521350197 -1.0638312697431749 0.0934771496375609
610 -0.39850692376367136 -1.669123637932945 1.8722181671677187 -3.4763867350111557 -1.0644846477913776 0.09230494221654816
611 -0.3983835844444398 -1.669361931577656 1.872888420790123 -3.4775337540857953 -1.0651318723908438 0.09112787518986262
612 -0.3982607682230713 -1.6695985985171193 1.8735523311583702 -3.478666987420633 -1.0657729660599506 0.08994602354333534
613 -0.39813849491596925 -1.6698336529142863 1.8742098994350322 -3.479786414189713 -1.0664079510775326 0.08875946237365787
614 -0.3980167832259515 -1.6700671090329984 1.874861127375931 -3.480892014667935 -1.0670368495389717 0.08756826687852966
615 -0.3978956507952923 -1.6702989812328237 1.8755060173200675 -3.4819837702199083 -1.0676596834084768 0.08637251234708788
616 -0.3977751142556899 -1.6705292839641106 1.8761445721793772 -3.48306166328912 -1.0682764745677698 0.08517227415060047
617 -0.39765518927534704 -1.670758031763241 1.8767767954284518 -3.484125677387369 -1.0688872448613864 0.08396762773340613
618 -0.3975358906033398 -1.6709852392480697 1.8774026910943251 -3.4851757970844455 -1.0694920161387889 0.08275864860408763
619 -0.39741723211143876 -1.6712109211135358 1.8780222637463946 -3.4862120079980166 -1.0700908102934703 0.08154541232686628
620 -0.39729922683353747 -1.6714350921274317 1.8786355184865169 -3.487234296783703 -1.070683649299228 0.08032799451320724
621 -0.3971818870028333 -1.6716577671263235 1.8792424609393115 -3.4882426511253284 -1.0712705552437671 0.07910647081362637
622 -0.39706522408689676 -1.6718789610116103 1.8798430972426825 -3.489237059725319 -1.0718515503597894 0.07788091690969048
623 -0.3969492488207576 -1.6720986887457139 1.8804374340385712 -3.490217512295241 -1.0724266570537127 0.07665140850620339
624 -0.39683397123812775 -1.6723169653483914 1.8810254784639366 -3.491183999546463 -1.072995897932157 0.07541802132357113
625 -0.3967194007008746 -1.6725338058931636 1.8816072381419604 -3.492136513180932 -1.073559295826328 0.07418083109034015
626 -0.3966055459268506 -1.6727492255038516 1.882182721173474 -3.4930750458820485 -1.0741168738144167 0.07293991353590279
627 -0.39649241501617893 -1.6729632393512164 1.8827519361285947 -3.4939995913056374 -1.0746686552421343 0.0716953443833647
628 -0.3963800154760895 -1.673175862649694 1.883314892038564 -3.494910144070996 -1.0752146637414857 0.07044719934256946
629 -0.3962683542443927 -1.673387110654223 1.8838715983877794 -3.495806699752025 -1.0757549232478867 0.06919555410327587
630 -0.3961574377116749 -1.6735969986571584 1.8844220651060055 -3.4966892548684227 -1.0762894580157203 0.0679404843284833
631 -0.39604727174229204 -1.6738055419852653 1.8849663025607577 -3.497557806876942 -1.0768182926324217 0.06668206564790168
632 -0.3959378616942363 -1.6740127559967928 1.885504321549847 -3.4984123541627024 -1.0773414520311795 0.06542037365156177
633 -0.39582921243794267 -1.6742186560786183 1.886036133294076 -3.4992528960305527 -1.0778589615023304 0.06415548388356268
634 -0.39572132837410173 -1.6744232576434637 1.8865617494300768 -3.500079432696479 -1.0783708467035278 0.0628874718359529
635 -0.3956142134505381 -1.6746265761271757 1.887081182003282 -3.5008919652790533 -1.0788771336687508 0.061616412942741915
636 -0.39550787117821223 -1.6748286269860708 1.8875944434610201 -3.5016904957909176 -1.0793778488162271 0.060342382574039205
637 -0.39540230464639897 -1.6750294256943383 1.888101546645729 -3.502475027130302 -1.0798730189553274 0.059065456030317987
638 -0.3952975165370931 -1.6752289877415019 1.8886025047882768 -3.5032455630725723 -1.080362671292496 0.057785708536800796
639 -0.39519350913868945 -1.675427328629934 1.8890973315013875 -3.504002108261804 -1.0808468334362733 0.056503215237964345
640 -0.3950902843589816 -1.6756244638724234 1.8895860407731595 -3.50474466820238 -1.081325533401462 0.05521805119216126
641 -0.39498784373752116 -1.6758204089897917 1.8900686469606771 -3.5054732492506124 -1.0817987996124894 0.05393029136635622
642 -0.3948861884573769 -1.6760151795085572 1.8905451647837053 -3.5061878586063804 -1.082266660906013 0.05264001063097428
643 -0.3947853193563301 -1.6762087909586447 1.891015609318463 -3.5068885043047886 -1.0827291465328144 0.05134728375485919
644 -0.3946852369375413 -1.6764012588711388 1.8914799959914723 -3.5075751952078424 -1.0831862861590233 0.05005218540033956
645 -0.39458594137972053 -1.6765925987760781 1.8919383405734782 -3.508247940996137 -1.0836381098667138 0.04875479011840093
646 -0.3944874325468313 -1.6767828262002922 1.8923906591734332 -3.5089067521605615 -1.0840846481539075 0.0474551723439617
647 -0.39438970999735756 -1.676971956665274 1.8928369682325468 -3.509551639994017 -1.084525931934022 0.046153406391251095
648 -0.39429277299316023 -1.6771600056850933 1.8932772845183918 -3.5101826165831453 -1.0849619925347989 0.04484956644928728
649 -0.3941966205079483 -1.6773469887643426 1.8937116251190698 -3.5107996948000735 -1.08539286169674 0.043543726577453944
650 -0.3941012512353882 -1.6775329213961219 1.8941400074374277 -3.5114028882941675 -1.085818571571085 0.04223596070117348
651 -0.3940066635968745 -1.677717819060054 1.8945624491853281 -3.511992211483799 -1.0862391547173578 0.04092634260767528
652 -0.39391285574898127 -1.677901697220334 1.8949789683779672 -3.5125676795481238 -1.0866546441005078 0.03961494594185729
653 -0.39381982559061546 -1.6780845713238113 1.8953895833282386 -3.5131293084188724 -1.0870650730876743 0.03830184420223945
654 -0.39372757076988885 -1.678266456798101 1.8957943126411452 -3.5136771147721544 -1.0874704754445934 0.03698711073700726
655 -0.3936360886907275 -1.6784473690497268 1.8961931752082517 -3.5142111160202716 -1.0878708853316745 0.03567081874014413
656 -0.3935453765192337 -1.6786273234622924 1.8965861902021812 -3.5147313303035492 -1.0882663372997663 0.034353041247650894
657 -0.39345543118981585 -1.6788063353946818 1.896973377071151 -3.5152377764821785 -1.0886568662856306 0.03303385113385103
658 -0.393366249411101 -1.6789844201792883 1.89735475553355 -3.515730474128072 -1.0890425076071473 0.031713321107780246
659 -0.3932778276716427 -1.6791615931202695 1.8977303455725538 -3.516209443516739 -1.0894232969582638 0.0303915237096589
660 -0.39319016224543724 -1.6793378694918297 1.8981001674307778 -3.5166747056191707 -1.089799270403711 0.029068531307445942
661 -0.39310324919725936 -1.6795132645365296 1.8984642416049677 -3.5171262820937494 -1.090170464373497 0.027744416093472946
662 -0.3930170843878291 -1.6796877934636198 1.8988225888407273 -3.5175641952781684 -1.0905369156571985 0.02641925008115693
663 -0.39293166347881986 -1.6798614714474018 1.8991752301272813 -3.517988468181377 -1.090898661398061 0.025093105101790594
664 -0.39284698193771683 -1.6800343136256115 1.899522186692275 -3.518399124475541 -1.0912557390869237 0.023766052801408654
665 -0.39276303504253574 -1.6802063350978298 1.8998634799966088 -3.5187961884880274 -1.0916081865559804 0.02243816463772898
666 -0.3926798178864095 -1.6803775509239152 1.900199131729309 -3.5191796851934085 -1.0919560419723904 0.021109511877167256
667 -0.39259732538205133 -1.6805479761224615 1.9005291638024326 -3.5195496402054918 -1.0922993438317488 0.019780165591923846
668 -0.3925155522661016 -1.6807176256692782 1.9008535983460075 -3.519906079769373 -1.0926381309514304 0.01845019665714162
669 -0.39243449310336487 -1.6808865144958947 1.901172457703009 -3.5202490307535155 -1.0929724424638143 0.017119675748133528
670 -0.3923541422909445 -1.6810546574880871 1.9014857644243692 -3.5205785206418563 -1.0933023178094006 0.015788673337678565
671 -0.3922744940622803 -1.6812220694844278 1.9017935412640241 -3.52089457752594 -1.0936277967298285 0.01445725969338501
672 -0.392195542491095 -1.6813887652748571 1.9020958111739936 -3.5211972300970844 -1.0939489192608054 0.013125504875119652
673 -0.3921172814952548 -1.6815547595992781 1.9023925972994993 -3.5214865076385724 -1.094265725724954 0.011793478732501791
674 -0.3920397048405496 -1.6817200671461723 1.9026839229741166 -3.5217624400178806 -1.094578256724584 0.010461250902460827
675 -0.3919628061443966 -1.6818847025512371 1.9029698117149627 -3.5220250576789383 -1.0948865531344014 0.009128890806856211
676 -0.3918865788794723 -1.6820486803960466 1.9032502872179224 -3.522274391634423 -1.0951906560941547 0.007796467650158606
677 -0.3918110163772769 -1.6822120152067312 1.9035253733529087 -3.5225104734580897 -1.0954906070012322 0.006464050417191025
678 -0.3917361118316342 -1.6823747214526812 1.9037950941591615 -3.5227333352771386 -1.095786447503211 0.00513170787092881
679 -0.391661858302132 -1.6825368135452687 1.904059473840582 -3.522943009764621 -1.0960782194903673 0.0037995085503572936
680 -0.3915882487175045 -1.6826983058365932 1.904318536761108 -3.5231395301318824 -1.0963659650881512 0.002467520768385921
681 -0.39151527587896107 -1.682859212618246 1.9045723074401217 -3.5233229301210516 -1.0966497266496344 0.0011358126098177904
682 -0.3914429324634642 -1.6830195481200958 1.9048208105479019 -3.5234932439975664 -1.0969295467479327 -0.00019554807062665581
683 -0.39137121102695815 -1.683179326509096 1.9050640709011102 -3.5236505065427437 -1.0972054681686094 -0.0015264936502328427
684 -0.3913001040075526 -1.68333856188811 1.9053021134583186 -3.5237947530463964 -1.0974775339020655 -0.0028569567401632925
685 -0.39122960372866183 -1.6834972682947598 1.905534963315576 -3.523926019299494 -1.097745787135919 -0.004186870187278079
686 -0.3911597024021029 -1.6836554597002915 1.9057626457020151 -3.524044341586867 -1.0980102712473787 -0.00551616707590555
687 -0.3910903921311541 -1.683813150008464 1.9059851859754982 -3.5241497566799644 -1.0982710297956142 -0.006844780729564403
688 -0.391021664913576 -1.6839703530544556 1.9062026096183047 -3.524242301829655 -1.09852810651413 -0.008172644712638271
689 -0.3909535126445965 -1.6841270826037904 1.9064149422328593 -3.5243220147590812 -1.0987815453031433 -0.00949969283200389
690 -0.39088592711986164 -1.684283352351286 1.906622209537503 -3.524388933656562 -1.09903139022197 -0.01082585913861387
691 -0.39081890003835373 -1.6844391759200184 1.9068244373623022 -3.524443097168549 -1.0992776854814215 -0.012151077929035232
692 -0.390752423005278 -1.6845945668603093 1.9070216516449048 -3.524484544392633 -1.0995204754362176 -0.013475283746944686
693 -0.39068648753491925 -1.6847495386487301 1.9072138784264347 -3.5245133148706067 -1.0997598045774148 -0.014798411384581756
694 -0.3906210850534696 -1.6849041046871267 1.9074011438474319 -3.5245294485815806 -1.0999957175248551 -0.01612039588416078
695 -0.3905562069018286 -1.6850582783016625 1.9075834741438336 -3.524532985935152 -1.1002282590196364 -0.017441172539242798
696 -0.39049184433837614 -1.685212072741882 1.9077608956430014 -3.524523967764634 -1.100457473916608 -0.018760676896068407
697 -0.3904279885417203 -1.685365501179791 1.9079334347597896 -3.5245024353203407 -1.1006834071768925 -0.020078844754852512
698 -0.39036463061341936 -1.6855185767089575 1.90810111799266 -3.5244684302629263 -1.1009061038604366 -0.021395612171042074
699 -0.39030176158068053 -1.6856713123436309 1.9082639719198393 -3.5244219946567865 -1.1011256091185924 -0.02271091545653777
700 -0.39023937239903456 -1.685823721017879 1.9084220231955233 -3.524363170963518 -1.1013419681867311 -0.024024691180880582
701 -0.3901774539549881 -1.6859758155847449 1.908575298546124 -3.5242920020354385 -1.101555226376892 -0.025336876172404307
702 -0.39011599706865374 -1.68612760881542 1.9087238247665623 -3.524208531109163 -1.1017654290704664 -0.026647407519354918
703 -0.3900549924963588 -1.686279113398438 1.9088676287166089 -3.5241128017992476 -1.1019726217109194 -0.027956222570977733
704 -0.3899944309332325 -1.6864303419388853 1.9090067373172666 -3.5240048580918897 -1.102176849796551 -0.029263258938573344
705 -0.3899343030157735 -1.6865813069576292 1.9091411775472023 -3.5238847443386914 -1.1023781588732977 -0.030568454496523255
706 -0.38987459932439655 -1.6867320208905654 1.9092709764392235 -3.5237525052504886 -1.1025765945275747 -0.03187174738328608
707 -0.38981531038596 -1.6868824960878817 1.9093961610768002 -3.523608185891238 -1.102772202379162 -0.0331730760023653
708 -0.38975642667627375 -1.6870327448133402 1.9095167585906359 -3.5234518316719714 -1.1029650280741343 -0.03447237902324938
709 -0.38969793862258806 -1.6871827792435776 1.9096327961552828 -3.523283488344813 -1.103155117277836 -0.035769595382325214
710 -0.38963983660606427 -1.687332611467421 1.9097443009858055 -3.5231032019970607 -1.1033425156679015 -0.0370646642837657
711 -0.38958211096422635 -1.687482253485223 1.9098513003344901 -3.5229110190453303 -1.1035272689273243 -0.03835752520039236
712 -0.3895247519933948 -1.6876317172082123 1.909953821487602 -3.522706986229769 -1.1037094227375728 -0.0396481178745138
713 -0.38946774995110245 -1.6877810144578629 1.9100518917621891 -3.5224911506083285 -1.1038890227717542 -0.04093638231874088
714 -0.3894110950584923 -1.6879301569652785 1.9101455385029347 -3.5222635595511087 -1.10406611468783 -0.04222225881677943
715 -0.3893547775026982 -1.6880791563705946 1.9102347890790539 -3.522024260734763 -1.1042407441218798 -0.04350568792420124
716 -0.38929878743920765 -1.688228024222397 1.9103196708812418 -3.5217733021369724 -1.1044129566814174 -0.04478661046919423
717 -0.38924311499420744 -1.6883767719771572 1.9104002113186649 -3.521510732030982 -1.1045827979387575 -0.0460649675532925
718 -0.3891877502669123 -1.688525410998683 1.9104764378160033 -3.521236598980209 -1.1047503134244352 -0.047340700552087084
719 -0.38913268333187623 -1.6886739525575858 1.9105483778105379 -3.5209509518329103 -1.104915548620678 -0.04861375111591809
720 -0.38907790424128685 -1.6888224078307648 1.9106160587492862 -3.5206538397169234 -1.1050785489549317 -0.049884061170549096
721 -0.389023403027243 -1.6889707879009057 1.9106795080861856 -3.520345312034466 -1.105239359793438 -0.051151572917824385
722 -0.38896916970401507 -1.689119103755996 1.9107387532793234 -3.52002541845701 -1.1053980264348686 -0.05241622883630987
723 -0.38891519427028937 -1.6892673662888555 1.9107938217882139 -3.519694208920213 -1.105554594104013 -0.05367797168191831
724 -0.3888614667113945 -1.6894155862966826 1.9108447410711245 -3.519351733618925 -1.1057091079455208 -0.05493674448851958
725 -0.388807977001512 -1.6895637744806151 1.9108915385824459 -3.5189980430022545 -1.1058616130176995 -0.0561924905685366
726 -0.3887547151058698 -1.6897119414453075 1.9109342417701132 -3.5186331877687036 -1.1060121542863686 -0.057445153513527684
727 -0.3887016709829191 -1.689860097698522 1.9109728780730704 -3.51825721886137 -1.1061607766187678 -0.05869467719475589
728 -0.3886488345864944 -1.6900082536507353 1.9110074749187844 -3.5178701874632115 -1.106307524777524 -0.059941005763745996
729 -0.388596195867957 -1.6901564196147587 1.9110380597208045 -3.51747214499238 -1.1064524434146727 -0.06118408365282978
730 -0.3885437447783216 -1.690304605805375 1.911064659876369 -3.517063143097618 -1.1065955770657365 -0.06242385557568017
731 -0.3884914712703663 -1.6904528223389874 1.9110873027640576 -3.5166432336537223 -1.106736970143861 -0.06366026652783494
732 -0.38843936530072587 -1.6906010792332842 1.9111060157414912 -3.516212468757072 -1.106876666934007 -0.06489326178721032
733 -0.388387416831968 -1.690749386406917 1.9111208261430777 -3.5157709007212214 -1.1070147115872009 -0.06612278691460545
734 -0.3883356158346531 -1.690897753679193 1.9111317612778025 -3.5153185820725574 -1.107151148114841 -0.06734878775419785
735 -0.388283952289377 -1.6910461907697805 1.9111388484270673 -3.514855565546022 -1.107286020383063 -0.06857121043403075
736 -0.38823241618879695 -1.691194707298429 1.9111421148425713 -3.5143819040808975 -1.1074193721071621 -0.06979000136649258
737 -0.3881809975396406 -1.6913433127847022 1.911141587744241 -3.5138976508166553 -1.1075512468460733 -0.0710051072487893
738 -0.3881296863646979 -1.6914920166477239 1.9111372943182035 -3.513402859088871 -1.1076816879969087 -0.07221647506341007
739 -0.3880784727047966 -1.6916408282059376 1.911129261714805 -3.5128975824251962 -1.1078107387895542 -0.07342405207858652
740 -0.38802734662075994 -1.6917897566768794 1.9111175170466743 -3.5123818745414015 -1.107938442281323 -0.07462778584874644
741 -0.3879762981953477 -1.6919388111769627 1.9111020873868305 -3.511855789337473 -1.1080648413516678 -0.07582762421496211
742 -0.3879253175351801 -1.6920880007212764 1.9110829997668355 -3.5113193808937764 -1.1081899786969516 -0.07702351530539381
743 -0.3878743947726446 -1.6922373342233956 1.9110602811749906 -3.51077270346728 -1.1083138968252748 -0.07821540753572886
744 -0.3878235200677851 -1.692386820495204 1.9110339585545757 -3.5102158114878406 -1.108436638051363 -0.07940324960961682
745 -0.38777268361017414 -1.6925364682467288 1.9110040588021338 -3.509648759554545 -1.1085582444915116 -0.08058699051910095
746 -0.387721875620768 -1.6926862860859886 1.910970608765797 -3.5090716024321194 -1.1086787580585893 -0.08176657954504665
747 -0.38767108635374375 -1.6928362825188514 1.910933635243656 -3.5084843950473905 -1.1087982204570992 -0.08294196625756706
748 -0.3876203060983197 -1.6929864659489062 1.9108931649821732 -3.507887192485811 -1.1089166731782996 -0.08411310051644623
749 -0.38756952518055754 -1.6931368446773447 1.9108492246746376 -3.5072800499880405 -1.1090341574953817 -0.08527993247156028
750 -0.3875187339651475 -1.693287426902855 1.9108018409596603 -3.506663022946586 -1.1091507144587072 -0.08644241256329682
751 -0.3874679228571758 -1.6934382207215273 1.910751040419714 -3.5060361669024998 -1.109266384891103 -0.08760049152297307
752 -0.3874170823038741 -1.693589234126769 1.9106968495797123 -3.5053995375421327 -1.109381209383215 -0.08875412037325286
753 -0.3873662027963518 -1.6937404750092329 1.910639294905631 -3.5047531906939478 -1.1094952282889197 -0.08990325042856298
754 -0.38731527487131007 -1.6938919511567543 1.9105784028031696 -3.504097182325384 -1.1096084817207958 -0.09104783329550903
755 -0.3872642891127383 -1.6940436702543002 1.9105141996164539 -3.503431568539781 -1.1097210095456522 -0.09218782087329119
756 -0.3872132361535928 -1.6941956398839284 1.910446711626778 -3.502756405573354 -1.1098328513801157 -0.09332316535412014
757 -0.3871621066774572 -1.6943478675247567 1.9103759650513863 -3.502071749792228 -1.1099440465862764 -0.09445381922363326
758 -0.3871108914201852 -1.694500360552943 1.9103019860422947 -3.5013776576895173 -1.1100546342673925 -0.0955797352613117
759 -0.38705958117152506 -1.6946531262416749 1.9102248006851525 -3.500674185882469 -1.1101646532636522 -0.09670086654089811
760 -0.3870081667767263 -1.69480617176117 1.9101444349981396 -3.499961391109649 -1.1102741421479954 -0.09781716643081577
761 -0.3869566391381278 -1.6949595041786853 1.9100609149309056 -3.4992393302281863 -1.1103831392219923 -0.09892858859458876
762 -0.38690498921672806 -1.6951131304585365 1.909974266363545 -3.4985080602110656 -1.1104916825117814 -0.10003508699126402
763 -0.3868532080337372 -1.6952670574621265 1.9098845151056103 -3.4977676381444702 -1.1105998097640661 -0.10113661587583493
764 -0.38680128667211033 -1.6954212919479843 1.9097916868951628 -3.497018121225177 -1.1107075584421686 -0.10223312979966695
765 -0.38674921627806313 -1.6955758405718118 1.9096958073978594 -3.496259566757999 -1.1108149657221427 -0.10332458361092538
766 -0.3866969880625684 -1.6957307098865408 1.909596902206077 -3.4954920321532765 -1.110922068488946 -0.1044109324550054
