ZJU-PLP/Project_IFAC_2020/src/custom_codes/csv_files/joint_traj_1_smoothed_AAPF.csv
Index Joint1 Joint2 Joint3 Joint4 Joint5 Joint6
0 -0.000744545500242411 -1.5696388460237731 0.020033832476018778 -1.5636862366742197 -1.5741247950334047 -1.5676514152659855
1 -0.0014799812724703798 -1.5685410081708209 0.04152369172322206 -1.5565077463853627 -1.5788439423691583 -1.5643574763255925
2 -0.0022229776057068086 -1.5674469884443656 0.06286233085969811 -1.5493954200341635 -1.5834265621260852 -1.5607522115699919
3 -0.002973705298452979 -1.5663568360661981 0.08404626697705192 -1.5423509864224245 -1.587869862343261 -1.5568426921733212
4 -0.003732335149210174 -1.5652706002581094 0.1050720171668886 -1.5353761743519483 -1.5921710510597626 -1.5526359893097166
5 -0.004499037956479674 -1.5641883302418909 0.12593609852081317 -1.5284727126245377 -1.5963273363146662 -1.5481391741533157
6 -0.005273984518762764 -1.5631100752393325 0.14663502813043072 -1.5216423300419948 -1.6003359261470473 -1.5433593178782563
7 -0.006057345634560723 -1.5620358844722257 0.1671653230873462 -1.5148867554061212 -1.6041940285959817 -1.538303491658674
8 -0.006849292102374834 -1.5609658071623618 0.18752350048316468 -1.5082077175187203 -1.607898851700546 -1.5329787666687067
9 -0.0076499947207063785 -1.5598998925315306 0.20770607740949126 -1.5016069451815939 -1.6114476034998153 -1.5273922140824907
10 -0.008459624288056643 -1.558838189801524 0.22770957095793104 -1.495086167196545 -1.6148374920328676 -1.5215509050741642
11 -0.0092783516029269 -1.557780748194132 0.24753049822008885 -1.488647112365375 -1.6180657253387767 -1.5154619108178626
12 -0.010106347463818442 -1.5567276169311468 0.26716537628757003 -1.4822915094898879 -1.6211295114566204 -1.5091323024877248
13 -0.010943782669232542 -1.5556788452343577 0.28661072225197937 -1.4760210873718842 -1.6240260584254735 -1.5025691512578863
14 -0.011790828017670486 -1.554634482325556 0.3058630532049219 -1.4698375748131667 -1.626752574284412 -1.4957795283024842
15 -0.01264765430763356 -1.5535945774265332 0.32491888623800297 -1.4637427006155392 -1.6293062670725134 -1.488770504795657
16 -0.013514432337623044 -1.5525591797590805 0.34377473844282735 -1.4577381935808031 -1.6316843448288527 -1.4815491519115405
17 -0.014391332906140215 -1.5515283385449878 0.36242712691100026 -1.4518257825107606 -1.6338840155925058 -1.4741225408242717
18 -0.01527852681168635 -1.5505021030060455 0.38087256873412645 -1.4460071962072136 -1.6359024874025483 -1.4664977427079875
19 -0.01617618485276275 -1.5494805223640462 0.39910758100381133 -1.4402841634719654 -1.6377369682980576 -1.4586818287368257
20 -0.017084477827870682 -1.5484636458407792 0.41712868081165966 -1.4346584131068183 -1.6393846663181089 -1.4506818700849229
21 -0.018003576535511438 -1.547451522658037 0.4349323852492768 -1.429131673913575 -1.6408427895017788 -1.4425049379264163
22 -0.018933651774186284 -1.5464442020376088 0.45251521140826745 -1.4237056746940366 -1.6421085458881421 -1.4341581034354423
23 -0.019874874342396518 -1.545441733201287 0.4698736763802369 -1.418382144250007 -1.6431791435162766 -1.4256484377861391
24 -0.02082741503864342 -1.5444441653708614 0.48700429725679006 -1.4131628113832877 -1.644051790425257 -1.4169830121526428
25 -0.02179144466142826 -1.543451547768123 0.503903591129532 -1.4080494048956809 -1.6447236946541592 -1.4081688977090898
26 -0.022767134009252333 -1.5424639296148634 0.5205680750900679 -1.4030436535889896 -1.6451920642420605 -1.3992131656296192
27 -0.023754653880616917 -1.5414813601328727 0.5369942662300026 -1.3981472862650157 -1.6454541072280362 -1.3901228870883657
28 -0.024754175074023287 -1.540503888543942 0.5531786816409411 -1.393362031725562 -1.645507031651162 -1.380905133259468
29 -0.02576586838797274 -1.5395315640698628 0.5691178384144889 -1.388689618772431 -1.645348045550515 -1.3715669753170627
30 -0.026789904620966542 -1.5385644359324246 0.5848082536422505 -1.3841317762074243 -1.6449743569651698 -1.362115484435286
31 -0.02782645457150598 -1.5376025533534192 0.6002464444158311 -1.3796902328323444 -1.644383173934203 -1.3525577317882758
32 -0.028875689038092348 -1.5366459655546385 0.6154289278268361 -1.375366717448995 -1.6435717044966922 -1.3429007885501694
33 -0.029937778819226914 -1.5356947217578716 0.6303522209668702 -1.3711629588591772 -1.642537156691711 -1.3331517258951033
34 -0.03101289471341096 -1.53474887118491 0.6450128409275384 -1.3670806858646936 -1.6412767385583367 -1.323317614997214
35 -0.032101207519145775 -1.5338084630575448 0.6594073048004458 -1.3631216272673465 -1.6397876581356452 -1.3134055270306393
36 -0.03320288803493265 -1.5328735465975674 0.6735321296771979 -1.3592875118689391 -1.6380671234627129 -1.3034225331695164
37 -0.03431810705927284 -1.531944171026767 0.687383832649399 -1.3555800684712724 -1.636112342578615 -1.2933757045879812
38 -0.03544703539066764 -1.5310203855669362 0.7009589308086545 -1.35200102587615 -1.633920523522428 -1.2832721124601716
39 -0.03658984382761834 -1.530102239439865 0.7142539412465694 -1.3485521128853735 -1.6314888743332279 -1.2731188279602246
40 -0.03774670316862622 -1.5291897818673448 0.7272653810547489 -1.3452350583007457 -1.628814603050091 -1.262922922262277
41 -0.03891773819527174 -1.5282831846420366 0.7399876269639711 -1.3420511724223292 -1.6258971284593737 -1.2526913920377165
42 -0.04010288962145212 -1.527383109840088 0.7524064942617078 -1.3390000915432256 -1.622744712336555 -1.24243093594693
43 -0.041302052144143765 -1.5264903421085154 0.7645056578746033 -1.3360810334547977 -1.6193678272043956 -1.2321481781475563
44 -0.042515120460323054 -1.525605666094336 0.7762687927293023 -1.3332932159484063 -1.6157769455856545 -1.221849742797233
45 -0.043741989266966416 -1.5247298664445676 0.7876795737524498 -1.3306358568154153 -1.6119825400030925 -1.2115422540535987
46 -0.044982553261050245 -1.5238637278062277 0.7987216758706903 -1.3281081738471863 -1.6079950829794691 -1.2012323360742911
47 -0.04623670713955092 -1.5230080348263324 0.8093787740106684 -1.3257093848350807 -1.6038250470375437 -1.1909266130169476
48 -0.047504345599444865 -1.5221635721519007 0.8196345430990293 -1.3234387075704614 -1.5994829047000774 -1.1806317090392071
49 -0.04878536333770847 -1.5213311244299481 0.8294726580624172 -1.3212953598446902 -1.594979128489829 -1.1703542482987073
50 -0.050079655051318145 -1.5205114763074936 0.8388767938274768 -1.3192785594491294 -1.5903241909295593 -1.160100854953086
51 -0.051387115437250275 -1.519705412431553 0.8478306253208531 -1.317387524175141 -1.5855285645420272 -1.1498781531599815
52 -0.05270763919248129 -1.5189137174491452 0.8563178274691908 -1.315621471814088 -1.580602721849994 -1.1396927670770323
53 -0.05404112101398753 -1.5181371760072857 0.8643220751991341 -1.3139796201573308 -1.5755571353762177 -1.129551320861875
54 -0.055387455598745465 -1.517376572752993 0.8718270434373283 -1.3124611869962333 -1.5704022776434603 -1.1194604386721492
55 -0.05674653764373146 -1.5166326923332842 0.8788164071104176 -1.3110653901221565 -1.5651486211744803 -1.109426744665492
56 -0.058118261845921906 -1.515906319395176 0.8852738411450473 -1.3097914473264634 -1.5598066384920382 -1.0994568629995418
57 -0.05950252290229325 -1.515198238585687 0.8911830204678617 -1.308638576400516 -1.5543868021188938 -1.0895574178319363
58 -0.06089921550982183 -1.5145092345518332 0.8965276200055052 -1.3076059951356755 -1.5488995845778066 -1.0797350333203137
59 -0.0623082343654841 -1.5138400919406323 0.9012913146846233 -1.3066929213233054 -1.5433554583915372 -1.0699963336223122
60 -0.06372947416625642 -1.5131915953991018 0.9054577794318599 -1.3058985727547667 -1.5377648960828452 -1.0603479428955693
61 -0.06516281749391449 -1.5125641813701207 0.909019649600676 -1.3052211746585627 -1.5321371500344358 -1.0507949781587163
62 -0.06660809846943096 -1.511956893480012 0.9120054022517937 -1.3046549820117572 -1.5264765920687926 -1.0413365278743552
63 -0.06806513909857778 -1.5113684271509624 0.9144524748727516 -1.3041932572285555 -1.520786373868346 -1.0319701733660802
64 -0.0695337613871269 -1.5107974778051556 0.9163983049510872 -1.3038292627231605 -1.5150696471155236 -1.0226934959574858
65 -0.07101378734085026 -1.5102427408647787 0.9178803299743397 -1.3035562609097777 -1.509329563492756 -1.013504076972167
66 -0.07250503896551984 -1.5097029117520167 0.9189359874300467 -1.3033675142026118 -1.5035692746824727 -1.0043994977337187
67 -0.0740073382669075 -1.5091766858890538 0.9196027148057462 -1.3032562850158664 -1.4977919323671014 -0.9953773395657344
68 -0.07552050725078525 -1.5086627586980772 0.919917949588977 -1.3032158357637467 -1.492000688229073 -0.9864351837918098
69 -0.07704436792292502 -1.508159825601271 0.9199191292672768 -1.3032394288604572 -1.4861986939508158 -0.9775706117355388
70 -0.07857874228909872 -1.5076665820208208 0.9196436913281839 -1.3033203267202016 -1.4803891012147599 -0.9687812047205165
71 -0.08012345235507835 -1.5071817233789127 0.9191290732592365 -1.3034517917571855 -1.4745750617033335 -0.9600645440703377
72 -0.08167832012663584 -1.5067039450977315 0.9184127125479734 -1.303627086385613 -1.468759727098967 -0.9514182111085965
73 -0.08324316760954308 -1.5062319425994626 0.9175320466819319 -1.3038394730196878 -1.4629462490840885 -0.9428397871588876
74 -0.08481781680957205 -1.5057644113062916 0.9165245131486506 -1.3040822140736155 -1.4571377793411284 -0.9343268535448057
75 -0.0864020897324947 -1.5053000466404036 0.9154275494356674 -1.3043485719615997 -1.4513374695525147 -0.9258769915899453
76 -0.08799580838408298 -1.5048375440239847 0.9142785930305213 -1.3046318090978457 -1.4455484714006783 -0.9174877826179014
77 -0.08959879477010883 -1.5043755988792196 0.91311508142075 -1.304925187896558 -1.4397739365680473 -0.9091568079522685
78 -0.09121087089634417 -1.503912906628294 0.9119744520938915 -1.3052219707719397 -1.4340170167370512 -0.9008816489166407
79 -0.09283185876856094 -1.503448162693393 0.9108941425374841 -1.3055154201381969 -1.4282808635901194 -0.8926598868346133
80 -0.09446158039253111 -1.5029800624967027 0.9099115902390662 -1.3057987984095332 -1.4225686288096813 -0.8844891030297805
81 -0.09609987370620221 -1.502507556657827 0.909056818270127 -1.3060671380420814 -1.4168826614145604 -0.8763673392309941
82 -0.09774664037622414 -1.502030616586047 0.9083301920379603 -1.306322551659685 -1.411222099769159 -0.8682944787881326
83 -0.09940179800142245 -1.501549468888064 0.9077246625338106 -1.306568921928116 -1.4055852795742734 -0.8602708654563321
84 -0.10106526418062256 -1.5010643401705765 0.9072331807489225 -1.3068101315131453 -1.3999705365306998 -0.8522968429907279
85 -0.10273695651265004 -1.500575457040286 0.9068486976745411 -1.3070500630805455 -1.3943762063392353 -0.8443727551464562
86 -0.10441679259633044 -1.5000830461038928 0.9065641643019111 -1.307292599296088 -1.388800624700677 -0.8364989456786526
87 -0.10610469003048914 -1.4995873339680967 0.9063725316222772 -1.307541622825544 -1.38324212731582 -0.8286757583424523
88 -0.10780056641395176 -1.4990885472395983 0.9062667506268841 -1.3078010163346858 -1.3776990498854618 -0.8209035368929919
89 -0.10950433934554374 -1.4985869125250975 0.9062397723069763 -1.3080746624892845 -1.3721697281103988 -0.8131826250854065
90 -0.11121592642409062 -1.4980826564312943 0.906284547653799 -1.308366443955112 -1.3666524976914276 -0.8055133666748321
91 -0.11293524524841789 -1.4975760055648903 0.9063940276585966 -1.3086802433979403 -1.3611456943293443 -0.7978961054164044
92 -0.11466221341735108 -1.4970671865325846 0.9065611633126143 -1.3090199434835406 -1.3556476537249458 -0.7903311850652591
93 -0.11639674852971565 -1.4965564259410775 0.9067789056070961 -1.3093894268776847 -1.3501567115790287 -0.782818949376532
94 -0.11813876818433718 -1.49604395039707 0.9070402055332875 -1.3097925762461442 -1.34467120359239 -0.7753597421053586
95 -0.11988818998004105 -1.495529986507261 0.9073380140824323 -1.3102332742546905 -1.3391894654658247 -0.7679539070068747
96 -0.12164493151565291 -1.4950147608783526 0.9076652822457764 -1.310715403569096 -1.333709832900131 -0.7606017878362163
97 -0.12340891038999821 -1.4944985001170443 0.908014961014564 -1.3112428468551323 -1.3282306415961047 -0.7533037283485191
98 -0.12518004420190243 -1.4939814308300354 0.9083800013800396 -1.3118194867785702 -1.3227502272545422 -0.7460600722989185
99 -0.1269582505501911 -1.4934637796240273 0.9087533543334484 -1.312449206005182 -1.3172669255762404 -0.7388711634425504
100 -0.12874344703368973 -1.49294577310572 0.9091279708660347 -1.3131358872007393 -1.3117790722619957 -0.7317373455345506
101 -0.13053557194870835 -1.4924275893350119 0.9094983392597653 -1.31388259332112 -1.306285259524759 -0.7246588476179119
102 -0.13233464638149528 -1.4919092121845932 0.9098650969594936 -1.3146891084826249 -1.3007851056260984 -0.7176354398870552
103 -0.13414071211578332 -1.4913905769803517 0.9102304187007951 -1.3155543970916623 -1.2952784853397357 -0.7106667778242586
104 -0.13595381093530523 -1.4908716190481759 0.9105964792192444 -1.316477423554639 -1.2897652734393925 -0.7037525169117997
105 -0.1377739846237939 -1.490352273713954 0.9109654532504172 -1.3174571522779632 -1.2842453446987923 -0.6968923126319571
106 -0.13960127496498217 -1.489832476303575 0.9113395155298888 -1.3184925476680427 -1.2787185738916569 -0.6900858204670086
107 -0.14143572374260274 -1.4893121621429264 0.9117208407932338 -1.3195825741312837 -1.2731848357917075 -0.683332695899232
108 -0.1432773727403886 -1.4887912665578966 0.9121116037760282 -1.3207261960740948 -1.2676440051726676 -0.6766325944109054
109 -0.14512626374207235 -1.4882697248743735 0.9125139792138467 -1.3219223779028828 -1.2620959568082584 -0.6699851714843069
110 -0.146982438531387 -1.4877474724182462 0.9129301418422647 -1.3231700840240563 -1.2565405654722024 -0.6633900826017145
111 -0.14884593889206535 -1.4872244445154021 0.9133622663968575 -1.3244682788440219 -1.250977705938222 -0.6568469832454062
112 -0.15071680660784015 -1.48670057649173 0.9138125276132003 -1.3258159267691874 -1.2454072529800393 -0.6503555288976601
113 -0.15259508346244421 -1.486175803673118 0.9142831002268681 -1.3272119922059602 -1.239829081371376 -0.6439153750407541
114 -0.1544808112396104 -1.4856500613854546 0.9147761589734366 -1.3286554395607484 -1.2342430658859547 -0.6375261771569662
115 -0.1563740317230715 -1.4851232849546272 0.9152938785884804 -1.3301452332399586 -1.2286490812974975 -0.6311875907285743
116 -0.1582747866965604 -1.484595409706525 0.9158384338075753 -1.331680337649999 -1.2230470023797269 -0.6248992712378567
117 -0.16018311794380985 -1.4840663709670363 0.9164119993662964 -1.333259717197277 -1.2174367039063645 -0.6186608741670914
118 -0.16209906724855266 -1.4835361040620483 0.9170167500002187 -1.3348823362881999 -1.2118180606511328 -0.612472054998556
119 -0.16402267639452173 -1.4830045443174502 0.9176548604449175 -1.3365471593291758 -1.206190947387754 -0.6063324692145288
120 -0.1659539871654498 -1.4824716270591303 0.918328505435968 -1.3382531507266113 -1.20055523888995 -0.6002417722972879
121 -0.16789297827787078 -1.4819373000349265 0.9190392888999738 -1.3399991603674448 -1.1949107592234613 -0.5941995557255154
122 -0.16983937617952258 -1.481401560680478 0.9197865315276513 -1.3417835800607332 -1.1892571296220997 -0.5882051549635118
123 -0.1717928442509443 -1.4808644188533744 0.9205689832007448 -1.3436046870960645 -1.1835939206116945 -0.5822578414719809
124 -0.17375304587267484 -1.4803258844112042 0.9213853938009982 -1.3454607587630254 -1.1779207027180758 -0.5763568867116271
125 -0.17571964442525326 -1.4797859672115568 0.922234513210157 -1.347350072351204 -1.1722370464670737 -0.570501562143155
126 -0.17769230328921864 -1.479244677112022 0.9231150913099654 -1.3492709051501877 -1.1665425223845178 -0.5646911392272689
127 -0.17967068584510987 -1.478702023970188 0.9240258779821673 -1.3512215344495633 -1.1608367009962373 -0.5589248894246727
128 -0.18165445547346604 -1.4781580176436449 0.9249656231085078 -1.3532002375389192 -1.1551191528280629 -0.5532020841960712
129 -0.18364327555482604 -1.477612667989981 0.9259330765707311 -1.3552052917078419 -1.1493894484058236 -0.5475219950021686
130 -0.185636809469729 -1.4770659848667866 0.9269269882505818 -1.3572349742459198 -1.1436471582553496 -0.5418838933036693
131 -0.1876347205987139 -1.47651797813165 0.9279461080298045 -1.3592875624427396 -1.1378918529024706 -0.5362870505612776
132 -0.1896366723223198 -1.4759686576421611 0.9289891857901437 -1.3613613335878894 -1.1321231028730163 -0.5307307382356978
133 -0.19164232802108555 -1.4754180332559081 0.9300549714133434 -1.363454564970956 -1.1263404786928168 -0.525214227787634
134 -0.19365135107555026 -1.4748661148304814 0.9311422147811486 -1.3655655338815276 -1.1205435508877015 -0.5197367906777912
135 -0.19566340486625292 -1.4743129122234688 0.9322496657753033 -1.3676925176091905 -1.1147318899835004 -0.514297698366873
136 -0.19767815277373257 -1.473758435292461 0.9333760742775525 -1.3698337934435334 -1.1089050665060431 -0.5088962223155842
137 -0.19969525817852826 -1.4732026938950467 0.9345201901696408 -1.3719876386741436 -1.1030626509811599 -0.503531633984629
138 -0.20171438446117884 -1.4726456978888143 0.935680763333312 -1.3741523305906076 -1.0972042139346798 -0.49820320483471164
139 -0.20373519500222345 -1.4720874571313538 0.936856543650311 -1.3763261464825136 -1.091329325892433 -0.49291020632653665
140 -0.20575735318220106 -1.4715279814802542 0.9380462810023822 -1.3785073636394491 -1.0854375573802493 -0.48765190992080826
141 -0.20778056482497312 -1.4709672685703612 0.9392490765884529 -1.3806948660281984 -1.0795284946780106 -0.48242785590460474
142 -0.2098047055276906 -1.4704052671455456 0.9404654368761793 -1.3828899643243346 -1.0736017870818075 -0.4772386598704998
143 -0.2118296933308271 -1.4698419137269356 0.9416962196504014 -1.3850945758806283 -1.0676570996417831 -0.47208520623744116
144 -0.2138554462748558 -1.469277144835658 0.9429422826959578 -1.3873106180498485 -1.0616940974080795 -0.4669683794243762
145 -0.21588188240025047 -1.4687108969928413 0.9442044837976883 -1.3895400081847664 -1.0557124454308398 -0.46188906385025297
146 -0.21790891974748441 -1.4681431067196131 0.9454836807404325 -1.3917846636381528 -1.049711808760207 -0.45684814393401907
147 -0.21993647635703104 -1.4675737105370998 0.9467807313090291 -1.394046501762776 -1.0436918524463235 -0.4518465040946219
148 -0.2219644702693639 -1.4670026449664302 0.9480964932883176 -1.3963274399114072 -1.0376522415393323 -0.44688502875100916
149 -0.22399281952495634 -1.466429846528731 0.9494318244631372 -1.3986293954368165 -1.0315926410893759 -0.4419646023221286
150 -0.22602144216428197 -1.4658552517451306 0.9507875826183276 -1.400954285691774 -1.0255127161465976 -0.43708610922692787
151 -0.22805025622781414 -1.4652787971367565 0.9521646255387279 -1.40330402802905 -1.0194121317611395 -0.4322504338843547
152 -0.23007917975602635 -1.4647004192247361 0.9535638110091775 -1.4056805398014152 -1.013290552983145 -0.4274584607133565
153 -0.232108130789392 -1.4641200545301964 0.9549859968145156 -1.408085738361638 -1.0071476448627565 -0.42271107413288117
154 -0.2341370273683846 -1.463537639574266 0.9564320407395818 -1.4105215410624905 -1.000983072450117 -0.4180091585618762
155 -0.23616578753347753 -1.4629531108780716 0.9579028005692145 -1.4129898652567414 -0.9947965007953686 -0.41335359841928915
156 -0.23819432932514437 -1.4623664049627416 0.9593991340882542 -1.415492628297162 -0.9885875949486549 -0.40874527812406797
157 -0.2402225707838585 -1.4617774583494036 0.9609218990815397 -1.4180317475365223 -0.9823560199601188 -0.40418508209516024
158 -0.24225042995009335 -1.4611862075591844 0.9624719533339102 -1.4206091403275913 -0.976101440879902 -0.3996738947515133
159 -0.24427782486432242 -1.4605925891132123 0.9640501546302052 -1.4232267240231407 -0.9698235227581482 -0.3952126005120752
160 -0.24630467356701913 -1.4599965395326144 0.9656573607552639 -1.4258864159759397 -0.9635219306449997 -0.3908020837957933
161 -0.24833096697277515 -1.4593979978135219 0.9672941896115449 -1.4285897873208686 -0.9571963991549617 -0.3864431099571457
162 -0.2503569874926545 -1.4587969128520757 0.9689602995719826 -1.4313370243212449 -0.9508469411599859 -0.38213596809273126
163 -0.25238309041183943 -1.458193236019422 0.9706551091271304 -1.434127967022498 -0.9444736390963876 -0.3778808282346793
164 -0.25440963101551217 -1.4575869186867048 0.972378036767542 -1.436962455470054 -0.9380765754004803 -0.37367786041511863
165 -0.256436964588855 -1.4569779122250692 0.9741285009837711 -1.4398403297093418 -0.9316558325085792 -0.3695272346661788
166 -0.2584654464170501 -1.4563661680056608 0.9759059202663712 -1.4427614297857898 -0.9252114928569987 -0.3654291210199891
167 -0.2604954317852797 -1.455751637399623 0.9777097131058957 -1.4457255957448252 -0.9187436388820525 -0.3613836895086784
168 -0.2625272759787261 -1.4551342717781022 0.9795392979928983 -1.448732667631876 -0.9122523530200556 -0.357391110164376
169 -0.2645613342825714 -1.4545140225122422 0.9813940934179325 -1.4517824854923698 -0.905737717707322 -0.35345155301921116
170 -0.266597961981998 -1.4538908409731888 0.9832735178715519 -1.4548748893717351 -0.8991998153801665 -0.349565188105313
171 -0.26863751436218797 -1.453264678532086 0.9851769898443101 -1.4580097193154 -0.8926387284749034 -0.34573218545481094
172 -0.27068034670832375 -1.4526354865600797 0.9871039278267609 -1.4611868153687917 -0.8860545394278473 -0.34195271509983394
173 -0.2727268143055874 -1.452003216428314 0.9890537503094574 -1.4644060175773386 -0.8794473306753121 -0.33822694707251116
174 -0.2747772724391612 -1.4513678195079343 0.9910258757829536 -1.4676671659864686 -0.8728171846536128 -0.33455505140497216
175 -0.2768320763942273 -1.4507292471700848 0.9930197227378027 -1.4709701006416092 -0.8661641837990629 -0.3309371981293456
176 -0.2788915814559681 -1.4500874507859112 0.9950347096645585 -1.4743146615881886 -0.859488410547978 -0.32737355727776096
177 -0.28095614290956583 -1.4494423817265585 0.9970702550537749 -1.4777006888716353 -0.852789947336672 -0.3238642988823477
178 -0.28302611604020256 -1.4487939913631707 0.9991257773960046 -1.4811280225373762 -0.8460688766014589 -0.3204095929752345
179 -0.2851018561330606 -1.4481422310668932 1.0012006951818018 -1.4845965026308399 -0.8393252807786536 -0.31700960958855084
180 -0.28718371847332225 -1.4474870522088712 1.00329442690172 -1.4881059691974539 -0.8325592423045705 -0.31366451875442597
181 -0.28927192291146636 -1.4468285066611721 1.0054066614110886 -1.4916563501500328 -0.825771032319795 -0.3103745642315277
182 -0.29136614755915874 -1.446167048299556 1.007538169024339 -1.495247924870938 -0.8189616767819974 -0.307140284684679
183 -0.2934659350933617 -1.4455032315007055 1.009689990420679 -1.4988810606099163 -0.8121323903531192 -0.3039622925052416
184 -0.2955708281910377 -1.4448376106413034 1.011863166279316 -1.5025561246167145 -0.8052843876951015 -0.300841200084577
185 -0.29768036952914917 -1.4441707400980324 1.014058737279458 -1.506273484141081 -0.7984188834698858 -0.29777761981404693
186 -0.2997941017846587 -1.4435031742475757 1.0162777441003124 -1.5100335064327632 -0.7915370923394137 -0.29477216408501333
187 -0.3019115676345284 -1.4428354674666148 1.0185212274210862 -1.5138365587415077 -0.7846402289656264 -0.2918254452888375
188 -0.3040323097557208 -1.442168174131834 1.0207902279209877 -1.5176830083170623 -0.7777295080104653 -0.2889380758168813
189 -0.3061558708251984 -1.4415018486199151 1.0230857862792238 -1.5215732224091743 -0.7708061441358716 -0.28611066806050633
190 -0.30828179351992363 -1.4408370453075412 1.0254089431750022 -1.525507568267591 -0.763871352003787 -0.2833438344110743
191 -0.31040962051685883 -1.440174318571395 1.0277607392875308 -1.5294864131420598 -0.7569263462761529 -0.28063818725994694
192 -0.3125388944929665 -1.4395142227881597 1.030142215296017 -1.5335101242823284 -0.7499723416149104 -0.2779943389984858
193 -0.31466915812520896 -1.4388573123345172 1.032554411879668 -1.5375790689381434 -0.743010552682001 -0.2754129020180526
194 -0.31679995409054873 -1.4382041415871507 1.0349983697176917 -1.5416936143592535 -0.7360421941393663 -0.2728944887100091
195 -0.3189308250659481 -1.4375552649227425 1.0374751294892954 -1.545854127795404 -0.7290684806489472 -0.27043971146571677
196 -0.3210613137283697 -1.4369112367179764 1.039985731873687 -1.5500609764963444 -0.7220906268726857 -0.26804918267653743
197 -0.3231909627547758 -1.4362726113495348 1.042531217550074 -1.5543145277118213 -0.7151098474725229 -0.2657235147338328
198 -0.32531931482212884 -1.4356399431940994 1.0451126271976634 -1.5586151486915818 -0.7081273571103999 -0.26346332002896444
199 -0.3274459126073912 -1.4350137866283545 1.0477310014956633 -1.5629632066853731 -0.7011443704482585 -0.261269210953294
200 -0.3295702987875254 -1.434394696028982 1.0503873811232811 -1.5673590689429433 -0.69416210214804 -0.2591417998981832
201 -0.33169199859810505 -1.4337830469148265 1.0530823341756546 -1.5718030748821625 -0.6871818731116384 -0.25708166695815227
202 -0.33381046750914867 -1.4331784993733818 1.0558145384116424 -1.5762954525933957 -0.680205429200759 -0.25508926304035523
203 -0.335925143549286 -1.4325805346343023 1.0585821990060338 -1.5808364023351305 -0.6732346225170597 -0.25316500675510467
204 -0.3380354647471466 -1.4319886339272432 1.0613835211336173 -1.5854261243658543 -0.6662713051621981 -0.2513093167127132
205 -0.34014086913136043 -1.4314022784818596 1.0642167099691824 -1.5900648189440556 -0.6593173292378326 -0.2495226115234935
206 -0.3422407947305572 -1.430820949527807 1.0670799706875178 -1.5947526863282222 -0.652374546845621 -0.24780530979775822
207 -0.3443346795733665 -1.4302441282947398 1.0699715084634127 -1.5994899267768412 -0.645444810087221 -0.24615783014581974
208 -0.34642196168841816 -1.4296712960123137 1.072889528471656 -1.6042767405484013 -0.6385299710642904 -0.24458059117799086
209 -0.34850207910434183 -1.4291019339101825 1.0758322358870365 -1.6091133279013894 -0.6316318818784873 -0.24307401150458402
210 -0.35057446984976737 -1.4285355232180028 1.0787978358843433 -1.6139998890942941 -0.6247523946314698 -0.24163850973591197
211 -0.35263857195332443 -1.4279715451654287 1.0817845336383656 -1.6189366243856034 -0.6178933614248957 -0.24027450448228724
212 -0.3546938234436428 -1.427409480982116 1.0847905343238924 -1.6239237340338046 -0.6110566343604229 -0.2389824143540225
213 -0.356739662349352 -1.426848811897719 1.0878140431157122 -1.6289614182973853 -0.604244065539709 -0.23776265796143023
214 -0.3587755266990821 -1.4262890191418933 1.0908532651886145 -1.6340498774348342 -0.5974575070644124 -0.2366156539148232
215 -0.36080085452146243 -1.4257295839442932 1.093906405717388 -1.639189311704638 -0.5906988110361905 -0.23554182082451375
216 -0.3628150838451232 -1.4251699875345747 1.096971669876822 -1.6443799213652854 -0.5839698295567016 -0.2345415773008147
217 -0.36481765269869376 -1.4246097111423923 1.1000472628417053 -1.6496219066752646 -0.5772724147276038 -0.2336153419540387
218 -0.36680799911080403 -1.4240482359974014 1.1031313897868267 -1.6549154678930622 -0.5706084186505544 -0.23276353339449815
219 -0.3687855611100836 -1.4234850433292567 1.1062222558869756 -1.6602608052771668 -0.5639796934272117 -0.23198657023250577
220 -0.37074977672516235 -1.4229196143676135 1.1093180663169409 -1.6656581190860662 -0.5573880911592335 -0.23128487107837414
221 -0.372700523285105 -1.422351495689763 1.1124171113679582 -1.6711074760970595 -0.5508358647005837 -0.23065870303795907
222 -0.37463943532071664 -1.4217804952635424 1.1155180217970522 -1.676608409162692 -0.544326869914449 -0.23010772719928907
223 -0.3765685866632374 -1.4212064864044245 1.1186195134776937 -1.6821603176543205 -0.5378653634163224 -0.2296314531459359
224 -0.37849005114390744 -1.4206293424278817 1.121720302283354 -1.6877626009433004 -0.5314556018216965 -0.22922939046147114
225 -0.38040590259396695 -1.4200489366493878 1.1248191040875042 -1.69341465840099 -0.5251018417460642 -0.22890104872946665
226 -0.38231821484465617 -1.419465142384416 1.1279146347636158 -1.6991158893987448 -0.5188083398049185 -0.2286459375334941
227 -0.38422906172721494 -1.4188778329484388 1.1310056101851593 -1.7048656933079211 -0.5125793526137516 -0.22846356645712518
228 -0.38614051707288377 -1.4182868816569296 1.134090746225607 -1.7106634694998764 -0.5064191367880568 -0.22835344508393163
229 -0.38805465471290257 -1.417692161825361 1.1371687587584285 -1.7165086173459663 -0.5003319489433267 -0.22831508299748512
230 -0.3899735484785115 -1.4170935467692067 1.140238363657096 -1.7224005362175483 -0.49432204569505395 -0.22834798978135745
231 -0.3918992722009509 -1.4164909098039395 1.1432982767950806 -1.7283386254859783 -0.4883936836587316 -0.22845167501912025
232 -0.39383389971146077 -1.4158841242450326 1.1463472140458537 -1.7343222845226132 -0.4825511194498524 -0.22862564829434537
233 -0.3957795048412812 -1.4152730634079584 1.1493838912828855 -1.7403509126988095 -0.4767986096839089 -0.2288694191906043
234 -0.39773816142165264 -1.4146576006081908 1.1524070243796483 -1.746423909385924 -0.47114041097639403 -0.22918249729146897
235 -0.3997119432838147 -1.4140376091612021 1.1554153292096125 -1.752540673955312 -0.4655807799428005 -0.22956439218051095
236 -0.40170292425900805 -1.413412962382466 1.1584075216462495 -1.758700605778332 -0.46012397319862125 -0.23001461344130203
237 -0.40371317817847274 -1.4127835335874555 1.161382317563031 -1.76490310422634 -0.4547742473593489 -0.230532670657414
238 -0.4057447788734486 -1.412149196091643 1.164338432833427 -1.7711475686706915 -0.4495358590404764 -0.23111807341241838
239 -0.40779980017517614 -1.4115098232105026 1.1672745833309097 -1.777433398482744 -0.4444130648574963 -0.23177033128988703
240 -0.4098803159148954 -1.4108652882595063 1.1701894849289496 -1.7837599930338537 -0.4394101214259016 -0.2324889538733916
241 -0.4119877907954827 -1.410215570277782 1.173081737100855 -1.7901264525238287 -0.4345304569425746 -0.23327297683898315
242 -0.41412125300635927 -1.4095610711990751 1.1759494737192784 -1.7965306804662824 -0.4297741859299566 -0.2341195402326295
243 -0.41627912160858266 -1.4089022986807846 1.1787907122567096 -1.8029702812032788 -0.4251405944918783 -0.2350253101927779
244 -0.4184598156632101 -1.40823976038031 1.1816034701856375 -1.8094428590768818 -0.4206289687321703 -0.23598695285787558
245 -0.4206617542312993 -1.407573963955051 1.1843857649785525 -1.8159460184291567 -0.4162385947546638 -0.2370011343663697
246 -0.42288335637390767 -1.4069054170624073 1.187135614107944 -1.822477363602168 -0.41196875866318944 -0.23806452085670748
247 -0.42512304115209243 -1.4062346273597772 1.1898510350463007 -1.8290344989379794 -0.40781874656157785 -0.239173778467336
248 -0.4273792276269112 -1.4055621025045615 1.192530045266113 -1.8356150287786557 -0.40378784455366 -0.24032557333670265
249 -0.4296503348594214 -1.4048883501541582 1.1951706622398695 -1.842216557466261 -0.3998753387432666 -0.24151657160325443
250 -0.43193478191068047 -1.4042138779659685 1.1977709034400608 -1.8488366893428598 -0.39608051523422855 -0.2427434394054387
251 -0.4342309878417459 -1.4035391935973904 1.2003287863391756 -1.8554730287505168 -0.3924026601303767 -0.24400284288170254
252 -0.4365373717136751 -1.4028648047058243 1.2028423284097034 -1.8621231800312965 -0.3888410595355417 -0.24529144817049325
253 -0.43885235258752553 -1.402191218948669 1.2053095471241342 -1.868784747527263 -0.3853949995535544 -0.2466059214102579
254 -0.44117434952435464 -1.4015189439833244 1.2077284599549574 -1.8754553355804808 -0.3820637662882456 -0.2479429287394438
255 -0.4435017815852197 -1.4008484874671892 1.2100970843746615 -1.8821325485330136 -0.3788466458434461 -0.24929913629649797
256 -0.44583306783117854 -1.4001803570576636 1.2124134378557376 -1.888813990726927 -0.37574292432298667 -0.2506712102198678
257 -0.4481666273232884 -1.3995150604121476 1.2146755378706744 -1.8954972665042853 -0.37275188783069835 -0.2520558166480005
258 -0.4505008791226065 -1.3988531051880393 1.2168814018919611 -1.902179980207152 -0.36987282247041153 -0.25344962171934304
259 -0.4528342422901907 -1.3981949990427387 1.219029047392088 -1.9088597361775923 -0.3671050143459574 -0.2548492915723428
260 -0.45516513588709817 -1.3975412496336457 1.2211164918435438 -1.91553413875767 -0.3644477495611665 -0.256251492345447
261 -0.45749138432784675 -1.3968922895784388 1.2231423317951489 -1.9222008326964783 -0.3619003695234625 -0.257653154767693
262 -0.45980843344079525 -1.3962482513359187 1.2251074801010453 -1.9288576243712248 -0.35946243685464024 -0.2590522679304797
263 -0.46211113440776264 -1.395609192325164 1.2270134286917054 -1.9355023605661432 -0.3571335694800872 -0.2604470855157963
264 -0.46439433841056793 -1.3949751699652542 1.2288616694976007 -1.9421328880654685 -0.35491338532519073 -0.2618358612056318
265 -0.4666528966310302 -1.3943462416752688 1.2306536944492048 -1.948747053653437 -0.35280150231533863 -0.2632168486819753
266 -0.46888166025096883 -1.3937224648742879 1.2323909954769903 -1.955342704114284 -0.3507975383759185 -0.2645883016268162
267 -0.4710754804522023 -1.39310389698139 1.2340750645114278 -1.961917686232243 -0.34890111143231756 -0.2659484737221433
268 -0.47322920841655014 -1.392490595415655 1.2357073934829914 -1.9684698467915507 -0.3471118394099235 -0.26729561864994594
269 -0.4753376953258311 -1.3918826175961623 1.2372894743221525 -1.9749970325764408 -0.345429340234124 -0.26862799009221316
270 -0.47739579236186447 -1.3912800209419918 1.2388227989593843 -1.9814970903711497 -0.3438532318303063 -0.2699438417309341
271 -0.47939835070646913 -1.390682862872222 1.2403088593251586 -1.9879678669599121 -0.34238313212385824 -0.27124142724809797
272 -0.48134022154146433 -1.3900912008059336 1.241749147349948 -1.9944072091269633 -0.3410186590401673 -0.2725190003256938
273 -0.4832162560486688 -1.389505092162205 1.2431451549642247 -2.000812963656538 -0.33975943050462076 -0.27377481464571074
274 -0.48502130540990196 -1.3889245943601163 1.2444983740984616 -2.0071829773328718 -0.3386050644426065 -0.27500712389013804
275 -0.4867502208069826 -1.388349764818746 1.2458102966831301 -2.013515096940199 -0.33755517877951174 -0.2762141817409646
276 -0.48839785342172987 -1.3877806609571748 1.2470824146487036 -2.019807169262756 -0.3366093914407243 -0.27739424188017975
277 -0.489959054435963 -1.3872173401944818 1.2483162199256546 -2.026057041084777 -0.33576732035163165 -0.2785455579897726
278 -0.49142867503150073 -1.386659859949746 1.2495132044444541 -2.0322625591904977 -0.3350285834376212 -0.27966638375173214
279 -0.49280156639016226 -1.3861082776420472 1.250674860135576 -2.0384215703641524 -0.3343927986240806 -0.2807549728480476
280 -0.4940725796937666 -1.385562650690465 1.251802678929492 -2.0445319213899773 -0.33385958383639736 -0.2818095789607082
281 -0.49523817415749644 -1.3850230038232039 1.2528978687175731 -2.050591858241083 -0.33342847189607033 -0.28282850236655427
282 -0.4963012411299874 -1.3844892310049712 1.2539605012347852 -2.0566012236460853 -0.33309865520904375 -0.2838102297218322
283 -0.497266279993239 -1.3839611935095988 1.2549903641769922 -2.0625602595224763 -0.3328692410773729 -0.28475329427763946
284 -0.49813779012925025 -1.3834387526109186 1.2559872452400576 -2.0684692077877473 -0.33273933680311324 -0.2856562292850734
285 -0.4989202709200209 -1.3829217695827634 1.2569509321198467 -2.0743283103593915 -0.3327080496883203 -0.286517567995232
286 -0.49961822174754994 -1.382410105698966 1.2578812125122234 -2.0801378091549005 -0.3327744870350497 -0.2873358436592126
287 -0.5002361419938367 -1.381903622233357 1.2587778741130506 -2.0858979460917646 -0.33293775614535653 -0.2881095895281128
288 -0.5007785310408808 -1.38140218045977 1.259640704618194 -2.0916089630874777 -0.33319696432129653 -0.2888373388530302
289 -0.5012498882706811 -1.3809056416520367 1.2604694917235169 -2.09727110205953 -0.333551218864925 -0.2895176248850623
290 -0.5016547130652372 -1.3804138670839892 1.2612640231248837 -2.1028846049254146 -0.33399962707829745 -0.2901489808753067
291 -0.5019975048065484 -1.3799267180294603 1.2620240865181587 -2.108449713602623 -0.3345412962634694 -0.2907299400748611
292 -0.502282762876614 -1.3794440557622822 1.2627494695992056 -2.1139666700086477 -0.3351753337224962 -0.291259035734823
293 -0.5025149866574331 -1.3789657415562864 1.2634399600638888 -2.1194357160609796 -0.33590084675743326 -0.29173480110628974
294 -0.5026986755310053 -1.3784916366853057 1.2640953456080726 -2.124857093677112 -0.33671694267033625 -0.29215576944035926
295 -0.5028383288793297 -1.3780216024231722 1.2647154139276204 -2.1302310447745345 -0.33762272876326027 -0.2925204739881289
296 -0.5029384460844059 -1.377555500043718 1.265299952718397 -2.135557811270741 -0.33861731233826114 -0.2928274480006963
297 -0.503003526528233 -1.377093190820776 1.2658487496762674 -2.1408376350832232 -0.33969980069739414 -0.2930752247291591
298 -0.5030380695928103 -1.3766345360281778 1.2663615924970935 -2.1460707581294725 -0.34086930114271474 -0.2932623374246147
299 -0.5030465746601371 -1.3761793969397558 1.2668382688767414 -2.1512574223269807 -0.34212492097627833 -0.29338731933816087
300 -0.5030335411122129 -1.3757276348293421 1.2672785665110744 -2.1563978695932398 -0.34346576750014046 -0.29344870372089504
301 -0.5030026877638152 -1.375279124044883 1.2676824759529475 -2.1614923943929294 -0.34489078690123076 -0.2934452111378519
302 -0.5029546111608356 -1.3748337912307782 1.2680507991831764 -2.1665415013794775 -0.34639828090597535 -0.2933763114098138
303 -0.5028891272819436 -1.374391576105542 1.2683845410395689 -2.1715457477534996 -0.3479863901256746 -0.29324166167150045
304 -0.5028060521058092 -1.3739524183876877 1.2686847063599305 -2.17650569071561 -0.3496532551716288 -0.29304091905763124
305 -0.5027052016111019 -1.3735162577957294 1.2689522999820688 -2.181421887466425 -0.3513970166551385 -0.2927737407029258
306 -0.502586391776492 -1.373083034048181 1.269188326743791 -2.1862948952065615 -0.35321581518750406 -0.2924397837421038
307 -0.5024494385806486 -1.3726526868635562 1.2693937914829028 -2.1911252711366322 -0.3551077913800255 -0.29203870530988435
308 -0.502294158002242 -1.3722251559603686 1.2695696990372118 -2.1959135724572545 -0.3570710858440036 -0.2915701625409874
309 -0.5021203660199416 -1.371800381057132 1.2697170542445244 -2.2006603563690423 -0.35910383919073846 -0.2910338125701322
310 -0.5019278786124175 -1.3713783018723613 1.2698368619426479 -2.205366180072612 -0.36120419203153054 -0.29042931253203846
311 -0.5017165117583392 -1.3709588581245689 1.2699301269693886 -2.210031600768579 -0.36337028497768015 -0.2897563195614256
312 -0.5014860814363767 -1.3705419895322692 1.2699978541625536 -2.2146571756575595 -0.36560025864048773 -0.2890144907930133
313 -0.5012364036251996 -1.3701276358139756 1.2700410483599491 -2.2192434619401666 -0.3678922536312535 -0.2882034833615209
314 -0.5009672943034779 -1.3697157366882031 1.270060714399383 -2.2237910168170183 -0.37024441056127794 -0.2873229544016681
315 -0.500678569449881 -1.369306231873464 1.270057857118661 -2.228300397488727 -0.37265487004186126 -0.2863725610481742
316 -0.5003700450430789 -1.368899061088273 1.2700334813555902 -2.2327721611559115 -0.375121772684304 -0.285351960435759
317 -0.5000415370617416 -1.368494164051144 1.269988591947978 -2.2372068650191856 -0.3776432590999066 -0.2842608096991419
318 -0.49969286148453834 -1.3680914804805904 1.2699241937336305 -2.241605066279164 -0.3802174698999691 -0.2830987659730424
319 -0.4993238342901393 -1.367690950095126 1.2698412915503547 -2.245967322136463 -0.38284254569579207 -0.2818654863921801
320 -0.49893427145721425 -1.367292512613265 1.2697408902359575 -2.2502941897916986 -0.3855166270986758 -0.28056062809127447
321 -0.49852410224282956 -1.366896107840725 1.269623940397085 -2.254586303049088 -0.38823795329534244 -0.27918396218170244
322 -0.49809370901763933 -1.3665016759320399 1.26949117571574 -2.2588446021272595 -0.3910051577742006 -0.27773571568147015
323 -0.49764358743069437 -1.3661091571289479 1.2693432756427647 -2.2630701038484458 -0.3938169725990807 -0.27621622958524106
324 -0.4971742331310452 -1.365718491673186 1.269180919629001 -2.2672638250348762 -0.39667212983381295 -0.2746258448876786
325 -0.49668614176774273 -1.3653296198064928 1.2690047871252912 -2.2714267825087835 -0.39956936154222794 -0.27296490258344647
326 -0.4961798089898379 -1.3649424817706068 1.268815557582478 -2.2755599930923993 -0.4025073997881562 -0.27123374366720815
327 -0.49565573044638095 -1.3645570178072646 1.2686139104514027 -2.2796644736079537 -0.40548497663542765 -0.26943270913362694
328 -0.4951144017864233 -1.364173168158205 1.2684005251829078 -2.2837412408776787 -0.4085008241478731 -0.26756213997736644
329 -0.49455631865901506 -1.3637908730651653 1.2681760812278355 -2.287791311723805 -0.41155367438932267 -0.26562237719309006
330 -0.49398197671320754 -1.3634100727698841 1.267941258037028 -2.2918157029685644 -0.41464225942360694 -0.26361376177546153
331 -0.4933918715980511 -1.3630307075140988 1.2676967350613273 -2.2958154314341885 -0.41776531131455613 -0.2615366347191442
332 -0.4927864989625968 -1.3626527175395478 1.2674431917515763 -2.299791513942908 -0.42092156212600085 -0.2593913370188015
333 -0.4921663544558951 -1.3622760430879681 1.2671813075586156 -2.3037449673169546 -0.42410974392177114 -0.257178209669097
334 -0.4915319337269971 -1.3619006244010987 1.266911761933289 -2.3076768083785595 -0.4273285887656977 -0.2548975936646942
335 -0.4908837324249532 -1.3615264017206758 1.266635234326437 -2.3115880539499534 -0.4305768287216107 -0.2525498300002566
336 -0.49022224619881444 -1.3611533152884396 1.2663524041889036 -2.3154797208533684 -0.43385319585334053 -0.25013525967044764
337 -0.4895479706976315 -1.3607813053461268 1.2660639509715301 -2.3193528259110354 -0.4371564222247179 -0.24765422366993098
338 -0.48886140157045505 -1.3604103121354751 1.265770554125158 -2.3232083859451857 -0.4404852398995727 -0.24510706299336993
339 -0.4881630344663359 -1.3600402758982226 1.2654728931006305 -2.3270474177780516 -0.4438383809417358 -0.24249411863542808
340 -0.4874533650343248 -1.3596711368761072 1.2651716473487893 -2.330870938231863 -0.44721457741503723 -0.23981573159076885
341 -0.4867328347193875 -1.359302837493665 1.2648674750944175 -2.3346799912088 -0.4506126472376509 -0.2370723121555125
342 -0.48600166815014867 -1.3589353289066213 1.2645609496580639 -2.3384757289308387 -0.45403175174512383 -0.23426454783160547
343 -0.4852600357511482 -1.3585685644535008 1.2642526231342168 -2.3422593306999033 -0.45747113812734674 -0.23139319542245101
344 -0.4845081079469256 -1.3582024974728266 1.2639430476173659 -2.3460319758179162 -0.46093005357420963 -0.22845901173145225
345 -0.483746055162021 -1.357837081303123 1.2636327752020002 -2.3497948435868032 -0.4644077452756036 -0.22546275356201254
346 -0.4829740478209741 -1.3574722692829144 1.2633223579826098 -2.3535491133084876 -0.46790346042141884 -0.22240517771753493
347 -0.4821922563483242 -1.3571080147507235 1.2630123480536826 -2.357295964284893 -0.47141644620154577 -0.21928704100142263
348 -0.4814008511686116 -1.356744271045075 1.2627032975097086 -2.3610365758179435 -0.47494594980587496 -0.21610910021707885
349 -0.4806000027063756 -1.3563809915044922 1.2623957584451764 -2.364772127209563 -0.4784912184242968 -0.21287211216790677
350 -0.4797898813861562 -1.3560181294674991 1.2620902829545761 -2.3685037977616767 -0.48205149924670193 -0.2095768336573096
351 -0.4789706576324931 -1.3556556382726204 1.2617874231323962 -2.3722327667762073 -0.4856260394629808 -0.20622402148869057
352 -0.47814250186992613 -1.355293471258379 1.2614877310731265 -2.37596021355508 -0.48921408626302393 -0.20281443246545286
353 -0.4773055845229949 -1.3549315817632992 1.2611917588712553 -2.3796873174002173 -0.49281488683672164 -0.19934882339099955
354 -0.47646007601623913 -1.3545699231259045 1.2609000586212733 -2.3834152576135446 -0.49642768837396467 -0.19582795106873396
355 -0.47560614677419855 -1.354208448684719 1.2606131824176678 -2.387145213496984 -0.5000517380646432 -0.19225257230205922
356 -0.4747439672214131 -1.3538471117782667 1.2603316823549293 -2.3908783643524614 -0.5036862830986479 -0.18862344389437857
357 -0.47387370778242255 -1.3534858657450717 1.2600561105275474 -2.394615889481901 -0.5073305706658695 -0.1849413226490952
358 -0.4729955388817663 -1.3531246639236567 1.2597870190300102 -2.3983589681872246 -0.5109838479561979 -0.18120696536961226
359 -0.4721096309439844 -1.3527634596525469 1.2595249599568075 -2.402108779770358 -0.5146453621595241 -0.17742112885933295
360 -0.47121615439361647 -1.3524022062702654 1.2592704854024284 -2.4058665035332254 -0.5183143604657383 -0.17358456992166046
361 -0.4703152792244551 -1.3520408590524744 1.2590241196953715 -2.4096333142620834 -0.5219901691992096 -0.16969803246105541
362 -0.46940717370730356 -1.3516793810233858 1.2587862761001747 -2.4134103686805246 -0.5256724312222198 -0.16576220878620782
363 -0.4684920056822179 -1.3513177371443508 1.2585573401153842 -2.4171988189964773 -0.5293608685315297 -0.16177777830686507
364 -0.4675699429892541 -1.3509558923767189 1.2583376972395466 -2.420999817417864 -0.5330552031238993 -0.15774542043277454
365 -0.4666411534684685 -1.3505938116818408 1.2581277329712097 -2.424814516152614 -0.5367551569960896 -0.15366581457368372
366 -0.4657058049599172 -1.3502314600210679 1.2579278328089198 -2.4286440674086527 -0.5404604521448608 -0.1495396401393401
367 -0.46476406530365594 -1.3498688023557486 1.2577383822512234 -2.4324896233939053 -0.5441708105669731 -0.14536757653949092
368 -0.46381610233974113 -1.349505803647235 1.2575597667966676 -2.4363523363163004 -0.5478859542591873 -0.14115030318388375
369 -0.4628620839082286 -1.3491424288568763 1.2573923719437992 -2.440233358383761 -0.5516056052182636 -0.1368884994822659
370 -0.4619021778491747 -1.3487786429460233 1.2572365831911654 -2.4441338418042156 -0.5553294854409628 -0.1325828448443848
371 -0.4609365520026352 -1.348414410876027 1.2570927860373122 -2.4480549387855897 -0.5590573169240453 -0.12823401867998793
372 -0.45996537420866657 -1.348049697608237 1.2569613659807874 -2.45199780153581 -0.5627888216642712 -0.12384270039882267
373 -0.4589888123073245 -1.3476844681040039 1.256842708520137 -2.455963582262802 -0.5665237216584014 -0.11940956941063641
374 -0.45800703413866534 -1.3473186873246785 1.2567371991539085 -2.4599534331744928 -0.570261738903196 -0.11493530512517665
375 -0.45702020754274497 -1.34695232023161 1.2566452233806478 -2.4639685064788077 -0.5740025953954154 -0.11042058695219066
376 -0.45602850035961967 -1.3465853317861498 1.256567166698903 -2.4680099543836738 -0.5777460131318205 -0.10586609430142602
377 -0.4550320804293455 -1.3462176869496485 1.25650341460722 -2.4720789290970173 -0.5814917141091716 -0.10127250658263007
378 -0.45403111559197834 -1.3458493506834555 1.2564543526041458 -2.4761765828267626 -0.5852394203242289 -0.0966405032055502
379 -0.45302577368757446 -1.3454802879489216 1.2564203661882272 -2.4803040677808386 -0.588988853773753 -0.09197076357993386
380 -0.45201622255618984 -1.3451104637073974 1.2564018408580113 -2.48446253616717 -0.5927397364545044 -0.08726396711552849
381 -0.45100260333011416 -1.3447398445622982 1.256399163708082 -2.4886531907326574 -0.5964919730664249 -0.08252095131117759
382 -0.4499849503105708 -1.3443684036852996 1.2564127282171733 -2.492877436380099 -0.6002461991221804 -0.07774318602210926
383 -0.4489632710910168 -1.343996115890143 1.2564429294600559 -2.4971367285512653 -0.6040032328376189 -0.07293229919264772
384 -0.4479375732649089 -1.3436229559905681 1.2564901625114997 -2.5014325226879293 -0.6077638924285873 -0.06808991876711713
385 -0.4469078644257044 -1.3432488988003166 1.256554822446277 -2.505766274231862 -0.6115289961109338 -0.06321767268984174
386 -0.4458741521668601 -1.3428739191331294 1.2566373043391583 -2.510139438624836 -0.6152993621005056 -0.05831718890514578
387 -0.4448364440818328 -1.3424979918027462 1.256738003264914 -2.5145534713086217 -0.6190758086131499 -0.05339009535735339
388 -0.44379474776407973 -1.342121091622909 1.2568573142983153 -2.5190098277249926 -0.6228591538647146 -0.048438019990788825
389 -0.4427490708070575 -1.3417431934073578 1.256995632514133 -2.5235099633157185 -0.626650216071047 -0.04346259074977628
390 -0.4416994208042234 -1.3413642719698342 1.2571533529871384 -2.528055333522573 -0.6304498134479947 -0.038465435578639955
391 -0.4406458053490342 -1.3409843021240784 1.257330870792102 -2.532647393787326 -0.6342587642114051 -0.03344818242170406
392 -0.43958823203494707 -1.3406032586838315 1.2575285810037948 -2.5372875995517523 -0.638077886577126 -0.028412459223292816
393 -0.43852670845541863 -1.3402211164628337 1.2577468786969876 -2.54197740625762 -0.6419079987610045 -0.02335989392773042
394 -0.43746124220390625 -1.3398378502748267 1.2579861589464516 -2.546718269346704 -0.6457499189788884 -0.018292114479341082
395 -0.4363918408738663 -1.3394534349335503 1.258246816826957 -2.551511644260773 -0.649604465446625 -0.013210748822448997
396 -0.4353185120587564 -1.339067845252746 1.2585292474132754 -2.556358986441601 -0.6534724563800619 -0.008117424901378397
397 -0.4342412633520331 -1.338681056046155 1.2588338457801778 -2.56126175133096 -0.6573547099950467 -0.003013770660453479
398 -0.43316010234715346 -1.3382930421275172 1.2591610070024342 -2.5662213943706202 -0.6612520445074268 0.002098585956001566
399 -0.4320750366375745 -1.3379037783105738 1.2595111261548162 -2.571239371002354 -0.6651652781330495 0.0072180170036625045
400 -0.430986073816753 -1.3375132394090654 1.2598845983120948 -2.576317136667934 -0.6690952290877628 0.012342894538205147
401 -0.4298932134408919 -1.3371214032994763 1.260281783195443 -2.5814559144474556 -0.6730424798139188 0.017472040018032424
402 -0.42879642291717635 -1.336728260109261 1.2607028991116442 -2.586655997974311 -0.677006669659891 0.022606072512455874
403 -0.4276956616155379 -1.3363338030286172 1.2611481290138846 -2.59191744852022 -0.6809872022005572 0.027746060493514173
404 -0.4265908889059074 -1.335938025247743 1.2616176558553496 -2.597240327356898 -0.6849834810107956 0.032893072433245976
405 -0.42548206415821627 -1.3355409199568375 1.262111662589226 -2.602624695756064 -0.6889949096654847 0.038048176803689986
406 -0.4243691467423959 -1.3351424803460976 1.2626303321686994 -2.608070614989436 -0.6930208917395025 0.0432124420768849
407 -0.42325209602837693 -1.334742699605721 1.2631738475469547 -2.61357814632873 -0.697060830807727 0.04838693672486932
408 -0.4221308713860911 -1.3343415709259066 1.263742391677179 -2.619147351045665 -0.7011141304450365 0.053572729219682
409 -0.42100543218546926 -1.333939087496851 1.2643361475125579 -2.6247782904119563 -0.7051801942263091 0.05877088803336158
410 -0.41987573779644277 -1.3335352425087539 1.2649552980062768 -2.6304710256993244 -0.7092584257264231 0.06398248163794674
411 -0.4187417475889429 -1.3331300291518116 1.2656000261115223 -2.6362256181794854 -0.7133482285202564 0.06920857850547615
412 -0.41760342093290065 -1.3327234406162232 1.2662705147814803 -2.642042129124157 -0.7174490061826877 0.07445024710798855
413 -0.4164607171982473 -1.332315470092186 1.2669669469693359 -2.6479206198050567 -0.7215601622885945 0.07970855591752252
414 -0.41531359575491417 -1.3319061107698986 1.2676895056282762 -2.6538611514939032 -0.7256811004128556 0.0849845734061168
415 -0.4141620159728321 -1.3314953558395581 1.2684383737114857 -2.6598637854624116 -0.7298112241303485 0.09027936804581002
416 -0.4130059372219327 -1.3310831984913631 1.2692137341721517 -2.6659285829823016 -0.7339499370159519 0.09559400830864091
417 -0.4118453188721471 -1.3306696319155118 1.2700157699634593 -2.672055605325291 -0.738096642644544 0.10092956266664814
418 -0.4106801202934062 -1.3302546493022012 1.2708446640385946 -2.6782449137630957 -0.7422507445910025 0.10628709959187035
419 -0.4095103008556416 -1.32983824384163 1.2717005993507438 -2.6844965695674343 -0.746411646430206 0.11166768755634623
420 -0.4083358199287842 -1.329420408723996 1.272583758853092 -2.690810634010025 -0.7505787517370324 0.11707239503211447
421 -0.40715657723435134 -1.32900113359376 1.273494458161941 -2.697187782039789 -0.7547525870928623 0.12250018254448755
422 -0.4059722339002037 -1.3285803939124325 1.2744335435460497 -2.7036311433144697 -0.7589381711050862 0.12794157883187293
423 -0.40478239140578837 -1.3281581615957878 1.275401993937293 -2.710144461169016 -0.7631416453875964 0.13338500468595202
424 -0.40358665123055193 -1.3277344085595992 1.2764007882675454 -2.716731478938373 -0.7673691515542852 0.13881888089840602
425 -0.40238461485394134 -1.3273091067196412 1.2774309054686812 -2.7233959399574914 -0.7716268312190457 0.1442316282609163
426 -0.4011758837554037 -1.3268822279916872 1.278493324472576 -2.7301415875613175 -0.7759208259957706 0.14961166756516422
427 -0.39996005941438534 -1.3264537442915105 1.279589024211103 -2.736972165084799 -0.7802572774983518 0.15494741960283098
428 -0.3987367433103336 -1.3260236275348858 1.2807189836161375 -2.7438914158628847 -0.7846423273406825 0.16022730516559797
429 -0.3975055369226949 -1.3255918496375858 1.2818841816195534 -2.7509030832305212 -0.7890821171366549 0.16543974504514644
430 -0.3962660417309164 -1.3251583825153852 1.2830855971532265 -2.758010910522657 -0.7935827885001617 0.17057316003315778
431 -0.3950178592144448 -1.324723198084057 1.2843242091490303 -2.76521864107424 -0.7981504830450957 0.17561597092131323
432 -0.39376059085272697 -1.324286268259376 1.28560099653884 -2.772530018220218 -0.8027913423853493 0.18055659850129419
433 -0.39249383812520966 -1.3238475649571149 1.2869169382545291 -2.779948785295538 -0.8075115081348149 0.18538346356478186
434 -0.3912172025113399 -1.3234070600930479 1.2882730132279736 -2.7874786856351492 -0.8123171219073855 0.19008498690345765
435 -0.38993028549056435 -1.3229647255829486 1.2896702003910467 -2.7951234625739976 -0.817214325316953 0.19464958930900272
436 -0.3886326885423299 -1.3225205333425911 1.291109478675624 -2.802886859447032 -0.8222092599774109 0.19906569157309856
437 -0.3873240131460836 -1.3220744552877495 1.2925918270135799 -2.8107726195892018 -0.8273080675026514 0.20332171448742642
438 -0.3860038607812719 -1.3216264633341963 1.2941182243367884 -2.818784486335452 -0.8325168895065668 0.20740607884366757
439 -0.384671832927342 -1.3211765293977065 1.2956896495771244 -2.8269262030207316 -0.8378418676030499 0.21130720543350331
440 -0.38332753106374046 -1.320724625394053 1.2973070816664625 -2.835201512979989 -0.8432891434059934 0.21501351504861504
441 -0.38197071141649463 -1.3202707396817606 1.2989710647959847 -2.843611819831417 -0.8488611600551755 0.21851576608603743
442 -0.3806017491979522 -1.3198149263903538 1.300680404194105 -2.852149168326196 -0.8545455667939179 0.22181406736421888
443 -0.3792211743670415 -1.319357256092109 1.302433470348544 -2.8608032634987506 -0.8603263143914275 0.22491086530696125
444 -0.3778295168826905 -1.3188977993593003 1.3042286337470226 -2.869563810383505 -0.8661873536169116 0.22780860633806635
445 -0.37642730670382746 -1.318436626764204 1.3060642648772625 -2.878420514014886 -0.8721126352395777 0.23050973688133605
446 -0.37501507378938065 -1.3179738088790962 1.307938734226985 -2.8873630794273195 -0.8780861100286331 0.23301670336057223
447 -0.373593348098278 -1.3175094162762508 1.3098504122839105 -2.8963812116552283 -0.8840917287532846 0.23533195219957656
448 -0.3721626595894478 -1.3170435195279442 1.3117976695357607 -2.9054646157330395 -0.8901134421827398 0.237457929822151
449 -0.3707235382218181 -1.3165761892064516 1.3137788764702558 -2.9146029966951774 -0.8961352010862057 0.23939708265209733
450 -0.3692765139543171 -1.3161074958840489 1.315792403575118 -2.923786059576068 -0.9021409562328898 0.24115185711321743
451 -0.36782211674587306 -1.315637510133011 1.317836621338068 -2.9330035094101357 -0.9081146583919993 0.24272469962931312
452 -0.3663608765554141 -1.3151663025256133 1.319909900246827 -2.942245051231807 -0.9140402583327414 0.24411805662418623
453 -0.36489332334186825 -1.3146939436341316 1.3220106107891159 -2.9515003900755064 -0.9199017068243233 0.2453343745216385
454 -0.3634199870641638 -1.3142205040308417 1.3241371234526562 -2.9607592309756594 -0.9256829546359523 0.246376099745472
455 -0.36194139768122874 -1.313746054288018 1.3262878087251684 -2.9700112789666897 -0.9313679525368354 0.24724567871948827
456 -0.3604580851519914 -1.3132706649779367 1.3284610370943741 -2.9792462390830248 -0.9369406512961803 0.24794555786748934
457 -0.3589705794353799 -1.3127944066728734 1.330655179047995 -2.98845381635909 -0.9423850016831943 0.24847818361327703
458 -0.3574794104903223 -1.3123173499451033 1.332868605073751 -2.997623715829308 -0.9476849544670838 0.24884600238065308
459 -0.3559851082757468 -1.3118395653669015 1.3350996856593638 -3.0067456425281067 -0.952824460417057 0.24905146059341937
460 -0.35448820275058157 -1.3113611235105438 1.3373467912925545 -3.0158093014899103 -0.9577874703023206 0.24909700467537776
461 -0.352989536556789 -1.310882085322957 1.339608151358513 -3.0248051496531083 -0.962561751069152 0.24898621457470935
462 -0.35149120306846837 -1.3104024732496724 1.3418814308323048 -3.0337266515719494 -0.9671503343721072 0.2487272043371124
463 -0.3499956083427531 -1.3099223001108724 1.3441641535864641 -3.042568023704646 -0.9715600680428127 0.24832922153266457
464 -0.34850515843677665 -1.309441578726739 1.3464538434935247 -3.051323482509408 -0.9757977999128944 0.24780151373144316
465 -0.3470222594076725 -1.3089603219174561 1.348748024426021 -3.0599872444444505 -0.9798703778139787 0.247153328503526
466 -0.3455493173125744 -1.3084785425032062 1.3510442202564878 -3.0685535259679853 -0.983784649577692 0.24639391341899058
467 -0.34408873820861535 -1.3079962533041702 1.3533399548574578 -3.0770165435382233 -0.9875474630356597 0.24553251604791432
468 -0.3426429281529293 -1.307513467140532 1.3556327521014668 -3.0853705136133787 -0.9911656660195088 0.24457838396037496
469 -0.34121429320264934 -1.307030196832474 1.3579201358610475 -3.093609652651662 -0.9946461063608649 0.24354076472644992
470 -0.3398052394149092 -1.3065464552001789 1.3601996300087353 -3.1017281771112866 -0.9979956318913545 0.24242890591621682
471 -0.33841817284684234 -1.3060622550638288 1.3624687584170636 -3.109720303450464 -1.0012210904426038 0.24125205509975325
472 -0.3370554995555822 -1.3055776092436069 1.3647250449585673 -3.117580248127408 -1.0043293298462388 0.24001945984713677
473 -0.3357196255982622 -1.305092530559695 1.3669660135057793 -3.1253022276003297 -1.0073271979338858 0.2387403677284448
474 -0.3344129570320159 -1.3046070318322769 1.3691891879312352 -3.1328804583274423 -1.010221542537171 0.2374240263137551
475 -0.33313789991397674 -1.3041211258815333 1.3713920921074678 -3.1403091567669557 -1.01301921148772 0.236079683173145
476 -0.3318968603012783 -1.3036348255276484 1.3735722499070127 -3.1475825393770855 -1.01572705261716 0.23471658587669228
477 -0.330692244251054 -1.3031481435908046 1.3757271852024033 -3.154694822616043 -1.0183519137571164 0.23334398199447445
478 -0.3295264578204372 -1.3026610928911835 1.377854421866174 -3.1616402229420393 -1.0209006427392158 0.2319711190965689
479 -0.3284019070665615 -1.3021736862489683 1.3799514837708584 -3.1684129568132873 -1.023380087395084 0.23060724475305336
480 -0.32732099804656045 -1.3016859364843418 1.3820158947889913 -3.175007240688 -1.0257970955563476 0.22926160653400535
481 -0.3262853142273899 -1.3011979053334128 1.3840449414155762 -3.1814178230444274 -1.0281578783497638 0.2279420621167095
482 -0.3252931487152955 -1.300709850195996 1.3860349606354931 -3.1876415804409732 -1.0304661000826154 0.22665090960727866
483 -0.3243419720263457 -1.3002220773878326 1.387982052056093 -3.1936759214560784 -1.032724788357316 0.22538905721903274
484 -0.3234292546766084 -1.2997348932246633 1.3898823152847253 -3.1995182546681833 -1.0349369707762797 0.2241574131652916
485 -0.32255246718215186 -1.2992486040222297 1.3917318499287403 -3.205165988655732 -1.03710567494192 0.2229568856593753
486 -0.3217090800590446 -1.2987635160962736 1.3935267555954882 -3.2106165319971653 -1.0392339284566516 0.22178838291460376
487 -0.32089656382335435 -1.2982799357625345 1.395263131892318 -3.215867293270922 -1.0413247589228876 0.22065281314429672
488 -0.3201123889911496 -1.2977981693367548 1.3969370784265813 -3.2209156810554473 -1.0433811939430417 0.21955108456177436
489 -0.31935402607849833 -1.297318523134675 1.3985446948056268 -3.2257591039291795 -1.0454062611195285 0.21848410538035634
490 -0.3186189456014689 -1.2968413034720372 1.400082080636805 -3.2303949704705626 -1.0474029880547615 0.2174527838133628
491 -0.31790461807612946 -1.2963668166645816 1.4015453355274663 -3.2348206892580373 -1.0493744023511546 0.2164580280741136
492 -0.3172085140185483 -1.2958953690280497 1.4029305590849606 -3.2390336688700447 -1.051323531611122 0.21550074637592867
493 -0.31652810394479347 -1.2954272668781823 1.4042338509166372 -3.2430313178850256 -1.053253403437077 0.21458184693212784
494 -0.31586085837093325 -1.2949628165307212 1.405451310629847 -3.246811044881424 -1.0551670454314341 0.2137022379560312
495 -0.3152042478130357 -1.2945023243014067 1.4065790378319392 -3.2503702584376777 -1.0570674851966064 0.2128628276609585
496 -0.3145557427871691 -1.2940460965059808 1.4076131321302647 -3.253706367132231 -1.0589577503350085 0.21206452426022976
497 -0.31391281380940184 -1.2935944394601844 1.4085496931321735 -3.2568167795435254 -1.0608408684490542 0.211308235967165
498 -0.3132729313958017 -1.2931476594797582 1.4093848204450146 -3.2596989042500004 -1.0627198671411566 0.21059487099508395
499 -0.3126335660624372 -1.2927060628804439 1.4101146136761389 -3.2623501498300995 -1.0645977740137307 0.20992533755730663
500 -0.31199218832537645 -1.2922699559779822 1.4107351724328965 -3.264767924862263 -1.0664776166691894 0.20930054386715297
501 -0.31134677517837916 -1.291839532170314 1.411244399350913 -3.266952508235727 -1.0683617442521811 0.2087207289855365
502 -0.31069732952597173 -1.2914145331841762 1.4116474091789177 -3.268915660082906 -1.0702497920762877 0.208183455363745
503 -0.31004436075037206 -1.2909945878285056 1.4119511196939167 -3.270672010847009 -1.0721407169973256 0.20768561630065988
504 -0.3093883782337978 -1.2905793249122384 1.4121624486729143 -3.2722361909712414 -1.0740334758711108 0.20722410509516243
505 -0.30872989135846696 -1.2901683732443117 1.4122883138929168 -3.273622830898815 -1.0759270255534599 0.20679581504613412
506 -0.3080694095065975 -1.289761361633662 1.4123356331309291 -3.274846561072938 -1.0778203229001888 0.2063976394524564
507 -0.3074074420604071 -1.2893579188892255 1.4123113241639569 -3.2759220119368155 -1.0797123247671134 0.20602647161301052
508 -0.30674449840211376 -1.288957673819939 1.4122223047690052 -3.2768638139336597 -1.0816019880100503 0.205679204826678
509 -0.3060810879139353 -1.2885602552347393 1.4120754927230792 -3.2776865975066767 -1.0834882694848154 0.20535273239234011
510 -0.30541771997808964 -1.2881652919425628 1.4118778058031847 -3.278404993099076 -1.0853701260472248 0.20504394760887834
511 -0.3047549039767946 -1.2877724127523458 1.4116361617863271 -3.279033631154066 -1.0872465145530952 0.20474974377517405
512 -0.30409314929226816 -1.287381246473025 1.411357478449512 -3.2795871421148557 -1.0891163918582425 0.2044670141901086
513 -0.3034329653067279 -1.2869914219135372 1.4110486735697438 -3.2800801564246513 -1.0909787148184826 0.20419265215256335
514 -0.3027748614023921 -1.286602567882819 1.410716664924029 -3.2805273045266636 -1.092832440289632 0.20392355096141987
515 -0.3021193469614783 -1.2862143131898065 1.410368370289372 -3.280943216864099 -1.0946765251275064 0.20365660391555926
516 -0.3014669313662045 -1.2858262866434371 1.4100107074427783 -3.281342523880168 -1.0965099261879228 0.20338870431386316
517 -0.3008181239987886 -1.285438117052647 1.4096505941612547 -3.281739856018078 -1.0983316003266967 0.20311674545521285
518 -0.3001734342414484 -1.2850494332263722 1.4092949482218045 -3.2821498437210375 -1.1001405043996446 0.20283762063848973
519 -0.29953337147640186 -1.28465986397355 1.4089506874014341 -3.282587117432254 -1.1019355952625827 0.20254822316257518
520 -0.29889844508586677 -1.2842690381031165 1.408624729477149 -3.283066307594938 -1.1037158297713268 0.2022454463263506
521 -0.29826905438793927 -1.2838766624263738 1.4083225449876928 -3.283598948701899 -1.1054803987841741 0.20192684261551047
522 -0.29764515844422856 -1.283482755764083 1.4080438155187638 -3.2841841914443624 -1.1072294291693445 0.20159260126300138
523 -0.2970266062522219 -1.2830874149393712 1.4077867754177984 -3.2848180905631543 -1.1089632817975386 0.20124357068858312
524 -0.2964132468094066 -1.2826907367753637 1.4075496590322325 -3.2854967007991025 -1.110682317539456 0.2008805993120153
525 -0.2958049291132703 -1.2822928180951887 1.4073307007095033 -3.286216076893034 -1.1123868972657984 0.20050453555305775
526 -0.29520150216130014 -1.281893755721972 1.4071281347970477 -3.2869722735857776 -1.1140773818472662 0.20011622783147023
527 -0.29460281495098345 -1.2814936464788396 1.4069401956423009 -3.287761345618157 -1.1157541321545594 0.19971652456701225
528 -0.2940087164798078 -1.2810925871889187 1.406765117592701 -3.288579347731002 -1.117417509058379 0.19930627417944372
529 -0.2934190557452603 -1.2806906746753355 1.4066011349956828 -3.289422334665138 -1.119067873429425 0.19888632508852422
530 -0.2928336817448286 -1.280288005761217 1.4064464821986844 -3.290286361161394 -1.1207055861383988 0.19845752571401357
531 -0.2922524434759998 -1.2798846772696892 1.4062993935491417 -3.2911674819605956 -1.122331008056 0.19802072447567143
532 -0.29167518993626157 -1.279480786023879 1.4061581033944912 -3.2920617518035717 -1.1239445000529298 0.19757676979325758
533 -0.291101770123101 -1.279076428846913 1.406020846082169 -3.2929652254311472 -1.125546422999888 0.19712651008653162
534 -0.29053203303400565 -1.2786717025619176 1.4058858559596126 -3.293873957584151 -1.1271371377675763 0.19667079377525343
535 -0.28996582766646267 -1.2782667039920188 1.4057513673742572 -3.2947840030034086 -1.128717005226694 0.1962104692791825
536 -0.2894030030179596 -1.2778615299603442 1.4056156146735408 -3.2956914164297486 -1.1302863862479424 0.19574638501807878
537 -0.2888434080859839 -1.27745627729002 1.4054768322048992 -3.2965922526039986 -1.1318456417020224 0.19527938941170192
538 -0.2882868918680227 -1.2770510428041721 1.4053332543157688 -3.297482566266984 -1.1333951324596332 0.1948103308798115
539 -0.28773330336156355 -1.2766459233259277 1.405183115353586 -3.2983584121595335 -1.1349352193914766 0.1943400578421674
540 -0.2871824915640937 -1.2762410156784134 1.4050246496657877 -3.2992158450224727 -1.1364662633682525 0.19386941871852928
541 -0.2866343375316215 -1.2758364088824505 1.40485648548945 -3.3000517760118853 -1.1379885535160736 0.19339908259485322
542 -0.2860888505542387 -1.2754321607496435 1.404678826620209 -3.300866541944871 -1.139502091982701 0.19292900122188059
543 -0.285546071980558 -1.2750283212892901 1.4044922707433394 -3.3016613360537868 -1.1410068091713081 0.19245894701654928
544 -0.285006043159192 -1.27462494051069 1.4042974155441161 -3.3024373515709886 -1.142502635485067 0.19198869239579697
545 -0.2844688054387535 -1.2742220684231416 1.404094858707815 -3.303195781728832 -1.143989501327151 0.1915180097765615
546 -0.2839344001678553 -1.273819755035945 1.4038851979197118 -3.3039378197596747 -1.1454673371007338 0.19104667157578073
547 -0.28340286869510983 -1.2734180503583972 1.4036690308650808 -3.30466465889587 -1.1469360732089873 0.1905744502103923
548 -0.28287425236912994 -1.2730170043997988 1.403446955229198 -3.3053774923697765 -1.1483956400550857 0.1901011180973341
549 -0.2823485925385282 -1.2726166671694472 1.4032195686973379 -3.3060775134137486 -1.1498459680422006 0.18962644765354386
550 -0.2818259305519174 -1.2722170886766424 1.4029874689547766 -3.306765915260144 -1.1512869875735063 0.1891502112959594
551 -0.2813063077579103 -1.2718183189306829 1.4027512536867892 -3.307443891141317 -1.1527186290521751 0.1886721814415185
552 -0.28078976550511947 -1.271420407940868 1.4025115205786507 -3.3081126342896257 -1.1541408228813808 0.188192130507159
553 -0.28027634514215755 -1.2710234057164957 1.402268867315637 -3.308773337937424 -1.155553499464295 0.18770983090981855
554 -0.2797660880176374 -1.2706273622668658 1.4020238915830228 -3.3094271953170695 -1.156956589204092 0.18722505506643508
555 -0.2792590354801716 -1.2702323276012766 1.401777191066083 -3.3100753996609162 -1.158350022503944 0.18673757539394623
556 -0.2787552288783728 -1.2698383517290273 1.4015293634500938 -3.310719144201323 -1.1597337297670245 0.18624716430928992
557 -0.2782547095608538 -1.2694454846594168 1.4012810064203303 -3.3113596221706447 -1.1611076413965067 0.1857535942294039
558 -0.2777575188762272 -1.2690537764017435 1.4010327176620674 -3.3119980268012377 -1.1624716877955628 0.1852566375712259
559 -0.27726369817310575 -1.268663276965307 1.400785094860581 -3.3126355513254566 -1.1638257993673664 0.1847560667516938
560 -0.2767732888001021 -1.268274036359406 1.4005387357011456 -3.3132733889756594 -1.1651699065150902 0.1842516541877453
561 -0.27628632038784395 -1.267886093624377 1.4002941180821709 -3.313912476735645 -1.1665039679577955 0.18374322250305247
562 -0.2758027756950191 -1.267499443924709 1.4000512407545995 -3.3145527265949886 -1.1678280556780942 0.18323079514822438
563 -0.27532262576233035 -1.2671140714559281 1.3998099826825092 -3.3151937942947085 -1.1691422699744867 0.1827144457806044
564 -0.27484584163048026 -1.2667299604135607 1.3995702228299765 -3.315835335575823 -1.170446711145472 0.1821942480575356
565 -0.27437239434017185 -1.2663470949931332 1.3993318401610784 -3.3164770061793507 -1.1717414794895513 0.18167027563636154
566 -0.2739022549321078 -1.2659654593901728 1.399094713639893 -3.317118461846312 -1.1730266753052243 0.18114260217442546
567 -0.2734353944469907 -1.265585037800205 1.3988587222304953 -3.3177593583177223 -1.1743023988909909 0.1806113013290706
568 -0.2729717839255237 -1.2652058144187568 1.3986237448969643 -3.318399351334603 -1.1755687505453511 0.18007644675764034
569 -0.2725113944084092 -1.264827773441354 1.3983896606033757 -3.319038096637971 -1.1768258305668051 0.1795381121174779
570 -0.2720541969363502 -1.2644508990635237 1.398156348313807 -3.3196752499688453 -1.1780737392538527 0.17899637106592667
571 -0.2716001625500493 -1.2640751754807926 1.3979236869923355 -3.3203104670682446 -1.1793125769049944 0.17845129726032993
572 -0.27114926229020947 -1.2637005868886866 1.3976915556030383 -3.3209434036771888 -1.18054244381873 0.177902964358031
573 -0.27070146719753324 -1.263327117482732 1.3974598331099914 -3.321573715536694 -1.1817634402935593 0.17735144601637315
574 -0.27025674831272356 -1.2629547514584558 1.397228398477273 -3.3222010583877806 -1.1829756666279827 0.17679681589269974
575 -0.26981507667648313 -1.262583473011384 1.3969971306689595 -3.322825087971465 -1.1841792231205 0.17623914764435397
576 -0.2693764233295147 -1.2622132663370436 1.3967659086491282 -3.3234454600287693 -1.1853742100696114 0.17567851492867928
577 -0.26894075931252115 -1.2618441156309605 1.3965346113818562 -3.3240618303007095 -1.1865607277738173 0.17511499140301895
578 -0.26850805566620506 -1.261476005088661 1.39630311783122 -3.3246738545283043 -1.1877388765316168 0.1745486507247162
579 -0.2680782834312694 -1.2611089189056723 1.3960713069612969 -3.325281188452574 -1.1889087566415106 0.1739795665511144
580 -0.26765141364841677 -1.2607428412775203 1.3958390577361641 -3.3258834878145347 -1.1900704684019987 0.17340781253955687
581 -0.26722741949865925 -1.2603777590593523 1.3956062718444968 -3.3264804770858687 -1.191224101924742 0.17283345040377937
582 -0.2668062827242453 -1.2600136697447986 1.3953729418733627 -3.327072155660899 -1.1923697065740453 0.1722564940830877
583 -0.26638798720773277 -1.25965057348711 1.395139083134428 -3.327658591664613 -1.193507321527374 0.17167694557318028
584 -0.2659725168316793 -1.2592884704395362 1.3949047109393582 -3.3282398532219957 -1.1946369859621928 0.1710948068697552
585 -0.2655598554786427 -1.2589273607553295 1.39466984059982 -3.328816008458034 -1.1957587390559683 0.17051007996851092
586 -0.2651499870311808 -1.2585672445877405 1.394434487427479 -3.329387125497715 -1.1968726199861661 0.1699227668651457
587 -0.26474289537185125 -1.258208122090019 1.3941986667340012 -3.3299532724660224 -1.1979786679302507 0.16933286955535773
588 -0.26433856438321185 -1.257849993415417 1.393962393831053 -3.330514517487944 -1.1990769220656883 0.16874039003484548
589 -0.2639369779478203 -1.2574928587171843 1.3937256840302998 -3.331070928688465 -1.200167421569944 0.1681453302993071
590 -0.26353811994823445 -1.2571367181485724 1.3934885526434082 -3.331622574192573 -1.2012502056204837 0.16754769234444092
591 -0.26314197426701197 -1.256781571862832 1.393251014982044 -3.332169522125253 -1.2023253133947727 0.1669474781659453
592 -0.2627485247867107 -1.2564274200132142 1.3930130863578734 -3.3327118406114913 -1.2033927840702767 0.16634468975951852
593 -0.2623577553898882 -1.2560742627529686 1.3927747820825616 -3.3332495977762737 -1.204452656824461 0.16573932912085879
594 -0.26196964995910244 -1.2557221002353474 1.392536117467776 -3.333782861744588 -1.2055049708347914 0.16513139824566453
595 -0.261584192376911 -1.2553709326136002 1.392297107825181 -3.334311700641417 -1.2065497652787327 0.16452089912963389
596 -0.2612013665258718 -1.255020760040979 1.3920577684664437 -3.33483618259175 -1.207587079333751 0.16390783376846532
597 -0.26082115628854247 -1.2546715826707342 1.3918181147032302 -3.335356375720573 -1.208616952177312 0.16329220415785706
598 -0.26044354554748084 -1.2543234006561161 1.3915781618472058 -3.33587234815287 -1.2096394229868808 0.16267401229350734
599 -0.26006851818524457 -1.253976214150376 1.3913379252100375 -3.336384168013628 -1.2106545309399228 0.16205326017111454
600 -0.2596960580843915 -1.2536300233067645 1.39109742010339 -3.3368919034278335 -1.2116623152139039 0.16142994978637695
601 -0.2593261489779635 -1.2532848277989328 1.3908566565371636 -3.337395605024994 -1.2126628160783197 0.16080408705648308
602 -0.2589587740009397 -1.2529406253821311 1.390615623314188 -3.337895253452694 -1.2136560781707892 0.16017569358458264
603 -0.25859391613878296 -1.2525974133320108 1.3903743039355274 -3.3383908118630425 -1.2146421472209612 0.1595447948953156
604 -0.2582315583769565 -1.2522551889242222 1.3901326819022444 -3.3388822434081438 -1.2156210689584843 0.15891141651332177
605 -0.25787168370092345 -1.251913949434417 1.3898907407154033 -3.3393695112401067 -1.2165928891130078 0.15827558396324123
606 -0.257514275096147 -1.2515736921382454 1.389648463876068 -3.33985257851104 -1.2175576534141808 0.1576373227697139
607 -0.2571593155480901 -1.2512344143113576 1.3894058348853007 -3.340331408373046 -1.2185154075916513 0.15699665845737962
608 -0.25680678804221607 -1.250896113229406 1.3891628372441664 -3.340805963978235 -1.2194661973750696 0.15635361655087843
609 -0.2564566755639878 -1.2505587861680398 1.3889194544537276 -3.3412762084787127 -1.220410068494084 0.15570822257485015
610 -0.2561089610988687 -1.2502224304029113 1.3886756700150487 -3.3417421050265865 -1.2213470666783435 0.15506050205393485
611 -0.25576362763232163 -1.2498870432096705 1.3884314674291924 -3.3422036167739635 -1.2222772376574973 0.1544104805127724
612 -0.25542065814980985 -1.2495526218639685 1.388186830197223 -3.3426607068729504 -1.2232006271611942 0.15375818347600279
613 -0.25508003563679643 -1.2492191636414556 1.3879417418202036 -3.3431133384756535 -1.224117280919083 0.15310363646826586
614 -0.25474174307874464 -1.2488866658177835 1.387696185799198 -3.343561474734181 -1.225027244660813 0.1524468650142016
615 -0.2544057634611173 -1.248555125668602 1.3874501456352692 -3.344005078800638 -1.2259305641160325 0.15178789463844994
616 -0.25407207976937773 -1.2482245404695629 1.3872036048294816 -3.3444441138271337 -1.2268272850143913 0.15112675086565083
617 -0.25374067498898917 -1.2478949074963168 1.3869565468828982 -3.344878542965774 -1.2277174530855386 0.15046345922044427
618 -0.2534115321054145 -1.2475662240245144 1.3867089552965826 -3.3453083293686645 -1.228601114059122 0.1497980452274701
619 -0.2530846341041169 -1.2472384873298064 1.3864608135715983 -3.3457334361879147 -1.2294783136647918 0.14913053441136825
620 -0.2527599639705596 -1.246911694687844 1.386212105209009 -3.3461538265756294 -1.2303490976321962 0.14846095229677875
621 -0.2524375052021485 -1.2465858436711885 1.3859628158052346 -3.346569469313371 -1.2312135102992876 0.14778932387475538
622 -0.25211724334406094 -1.2462609330400467 1.3857129393381187 -3.346980355700518 -1.2320715904372284 0.14711567200200773
623 -0.251799164453417 -1.2459369618515352 1.3854624718808615 -3.347386482665904 -1.232923375425485 0.14644001900165926
624 -0.25148325458733684 -1.2456139291627712 1.3852114095066625 -3.34778784713836 -1.2337689026435223 0.1457623871968334
625 -0.25116949980294073 -1.2452918340308723 1.384959748288723 -3.34818444604672 -1.2346082094708075 0.14508279891065368
626 -0.2508578861573488 -1.244970675512956 1.3847074843002425 -3.3485762763198186 -1.235441333286806 0.14440127646624357
627 -0.25054839970768106 -1.244650452666138 1.3844546136144207 -3.3489633348864865 -1.236268311470983 0.14371784218672642
628 -0.2502410265110578 -1.2443311645475361 1.3842011323044585 -3.3493456186755584 -1.2370891814028049 0.14303251839522585
629 -0.24993575262459905 -1.2440128102142678 1.3839470364435547 -3.349723124615866 -1.237903980461737 0.1423453274148652
630 -0.24963256410542514 -1.24369538872345 1.3836923221049109 -3.3500958496362423 -1.2387127460272462 0.14165629156876802
631 -0.24933144701065607 -1.2433788991322001 1.3834369853617263 -3.3504637906655215 -1.2395155154787973 0.14096543318005778
632 -0.24903238739741215 -1.243063340497635 1.3831810222872016 -3.3508269446325367 -1.2403123261958569 0.14027277457185794
633 -0.24873537132281334 -1.2427487118768719 1.382924428954536 -3.3511853084661185 -1.24110321555789 0.13957833806729192
634 -0.24844038484397998 -1.242435012327028 1.3826672014369303 -3.351538879095103 -1.2418882209443636 0.13888214598948323
635 -0.24814741401803203 -1.2421222409052197 1.382409335807584 -3.3518876534483195 -1.2426673797347425 0.13818422066155528
636 -0.2478564449020898 -1.2418103966685656 1.382150828139698 -3.3522316284546054 -1.2434407293084928 0.13748458440663164
637 -0.2475674635532735 -1.2414994786741822 1.3818916745064722 -3.3525708010427917 -1.2442083070450811 0.13678325954783574
638 -0.2472804560287031 -1.2411894859791859 1.381631870981106 -3.35290516814171 -1.2449701503239718 0.136080268408291
639 -0.24699540838549883 -1.2408804176406947 1.3813714136368 -3.3532347266801956 -1.2457262965246325 0.1353756333111209
640 -0.24671230668078084 -1.2405722727158257 1.3811102985467543 -3.353559473587079 -1.2464767830265278 0.134669376579449
641 -0.24643113722208854 -1.240265050297636 1.3808485218020494 -3.3538794052222736 -1.2472216467562396 0.13396152102987563
642 -0.24615188731863802 -1.239958749622944 1.380586079565288 -3.3541945156699953 -1.2479609228288127 0.13325209145290937
643 -0.24587454453006466 -1.2396533699645087 1.3803229680169535 -3.354504798445542 -1.248694645906408 0.13254111313253564
644 -0.2455990964160037 -1.2393489105950877 1.3800591833375282 -3.3548102470642087 -1.2494228506511849 0.1318286113527398
645 -0.24532553053609057 -1.2390453707874405 1.3797947217074957 -3.3551108550412914 -1.2501455717253052 0.13111461139750746
646 -0.24505383444996068 -1.2387427498143257 1.3795295793073399 -3.3554066158920883 -1.250862843790929 0.13039913855082408
647 -0.24478399571724915 -1.2384410469485012 1.3792637523175426 -3.3556975231318926 -1.2515747015102165 0.129682218096675
648 -0.24451600189759148 -1.2381402614627262 1.378997236918588 -3.355983570276002 -1.2522811795453284 0.12896387531904577
649 -0.24424984055062293 -1.2378403926297585 1.3787300292909583 -3.3562647508397117 -1.2529823125584252 0.12824413550192185
650 -0.24398549923597895 -1.2375414397223579 1.3784621256151375 -3.3565410583383186 -1.2536781352116673 0.1275230239292887
651 -0.2437229655132948 -1.237243402013282 1.3781935220716082 -3.3568124862871183 -1.2543686821672153 0.12680056588513172
652 -0.24346222694220587 -1.2369462787752898 1.377924214840854 -3.3570790282014076 -1.2550539880872302 0.12607678665343647
653 -0.24320327108234743 -1.2366500692811397 1.3776542001033572 -3.357340677596481 -1.255734087633872 0.1253517115181883
654 -0.24294608549335486 -1.2363547728035906 1.3773834740396018 -3.3575974279876366 -1.2564090154693013 0.12462536576337283
655 -0.24269065773486342 -1.2360603886154005 1.37711203283007 -3.3578492728901677 -1.2570788062556781 0.12389777467297532
656 -0.2424369753665086 -1.2357669159893283 1.3768398726552462 -3.3580962058193724 -1.257743494655164 0.1231689635309814
657 -0.2421850259479257 -1.2354743541981332 1.3765669896956128 -3.358338220290548 -1.2584031153299189 0.12243895762137648
658 -0.24193479703874993 -1.2351827025145727 1.3762933801316528 -3.358575309818987 -1.259057702942103 0.12170778222814599
659 -0.24168627619861677 -1.234891960211406 1.3760190401438495 -3.3588074679199886 -1.2597072921538774 0.12097546263527542
660 -0.2414394509871615 -1.2346021265613918 1.375743965912686 -3.3590346881088475 -1.2603519176274023 0.12024202412675022
661 -0.24119430919946433 -1.2343132009053124 1.375468154109581 -3.3592569649626474 -1.2609916134911998 0.11950749206247678
662 -0.24095083957238458 -1.234025182856048 1.3751916033696947 -3.3594742973056215 -1.2616264117392377 0.11877189210604502
663 -0.24070903107822664 -1.2337380720945024 1.3749143128191217 -3.359686685023791 -1.2622563438318448 0.11803524999696587
664 -0.24046887268929457 -1.2334518683015796 1.3746362815839575 -3.359894128003174 -1.26288144122935 0.1172975914747501
665 -0.24023035337789275 -1.2331665711581834 1.3743575087902977 -3.3600966261297938 -1.2635017353920828 0.11655894227890863
666 -0.23999346211632544 -1.2328821803452183 1.3740779935642384 -3.360294179289671 -1.2641172577803725 0.11581932814895236
667 -0.2397581878768968 -1.2325986955435875 1.3737977350318733 -3.3604867873688233 -1.2647280398545477 0.11507877482439204
668 -0.23952451963191107 -1.2323161164341958 1.3735167323192992 -3.3606744502532737 -1.2653341130749376 0.11433730804473864
669 -0.23929244635367253 -1.2320344426979466 1.3732349845526104 -3.3608571678290415 -1.2659355089018711 0.11359495354950294
670 -0.23906195701448543 -1.231753674015744 1.372952490857903 -3.361034939982149 -1.2665322587956778 0.11285173707819587
671 -0.23883304058665397 -1.2314738100684919 1.372669250361272 -3.3612077665986146 -1.2671243942166863 0.11210768437032827
672 -0.23860568604248253 -1.2311948505370949 1.3723852621888128 -3.3613756475644614 -1.267711946625226 0.111362821165411
673 -0.23837988235427512 -1.230916795102456 1.372100525466621 -3.361538582765707 -1.2682949474816259 0.11061717320295487
674 -0.23815561849433622 -1.23063964344548 1.3718150393207917 -3.3616965720883747 -1.268873428246215 0.10987076622247084
675 -0.23793288343496985 -1.2303633952470698 1.37152880287742 -3.3618496154184823 -1.2694474203793225 0.1091236259634697
676 -0.2377116661484804 -1.230088050188131 1.3712418152626016 -3.361997712642053 -1.2700169553412775 0.10837577816546234
677 -0.23749195560717215 -1.2298136079495665 1.3709540756024319 -3.362140863645106 -1.270582064592409 0.10762724856795965
678 -0.2372737407833492 -1.2295400682122803 1.3706655830230061 -3.3622790683136614 -1.2711427795930463 0.10687806291047242
679 -0.2370570106493159 -1.2292674306571765 1.3703763366504194 -3.362412326533741 -1.271699131803518 0.10612824693251156
680 -0.23684175417737646 -1.2289956949651593 1.3700863356107678 -3.3625406381913647 -1.272251152684154 0.10537782637358795
681 -0.2366279605534623 -1.2287248608202448 1.3697955793035865 -3.3626640037585673 -1.2727988732774502 0.10462682703989021
682 -0.23641561981801365 -1.228454927918899 1.3695040682221746 -3.362782426051442 -1.2733423229545733 0.10387527500431808
683 -0.23620472222509795 -1.2281858959607002 1.369211803133272 -3.3628959084720957 -1.273881530668858 0.10312319640644922
684 -0.2359952580287825 -1.2279177646452268 1.3689187848036168 -3.3630044544226347 -1.2744165253736373 0.10237061738586112
685 -0.23578721748313478 -1.2276505336720573 1.36862501399995 -3.3631080673051668 -1.2749473360222465 0.10161756408213138
686 -0.23558059084222227 -1.22738420274077 1.3683304914890106 -3.3632067505218 -1.2754739915680198 0.10086406263483758
687 -0.23537536836011222 -1.2271187715509426 1.3680352180375375 -3.36330050747464 -1.2759965209642903 0.10011013918355723
688 -0.23517154029087214 -1.226854239802154 1.3677391944122708 -3.363389341565793 -1.2765149531643927 0.09935581986786796
689 -0.23496909688856932 -1.2265906071939825 1.3674424213799492 -3.3634732561973677 -1.277029317121661 0.09860113082734727
690 -0.23476802840727132 -1.2263278734260066 1.3671448997073126 -3.3635522547714714 -1.2775396417894294 0.09784609820157278
691 -0.23456832510104544 -1.2260660381978041 1.3668466301611004 -3.36362634069021 -1.2780459561210324 0.09709074813012204
692 -0.2343699772239592 -1.225805101208954 1.3665476135080525 -3.363695517355691 -1.2785482890698037 0.09633510675257263
693 -0.23417297503007986 -1.2255450621590336 1.3662478505149072 -3.363759788170021 -1.2790466695890772 0.09557920020850208
694 -0.2339773087734749 -1.2252859207476223 1.3659473419484052 -3.363819156535309 -1.2795411266321879 0.094823054637488
695 -0.23378296870821164 -1.2250276766742978 1.3656460885752848 -3.3638736258536586 -1.2800316891524688 0.09406669617910789
696 -0.23358994508835765 -1.2247703296386387 1.3653440911622863 -3.3639231995271803 -1.280518386103255 0.09331015097293939
697 -0.23339822816798025 -1.2245138793402233 1.365041350476149 -3.36396788095798 -1.2810012464378806 0.09255344515856004
698 -0.23320780820114678 -1.22425832547863 1.3647378672836121 -3.364007673548164 -1.2814802991096788 0.09179660487554737
699 -0.23301867544192476 -1.2240036677534365 1.364433642351415 -3.3640425806998393 -1.2819555730719845 0.091039656263479
700 -0.23283082014438147 -1.223749905864222 1.3641286764462974 -3.3640726058151142 -1.282427097278132 0.09028262546193248
701 -0.2326442326363961 -1.2234970395768887 1.3638229706326004 -3.3640977529198794 -1.2828949003240646 0.08952553856695918
702 -0.23245890354109436 -1.2232450689226375 1.3635165271650709 -3.3641180285351666 -1.2833590093761647 0.08876842150050576
703 -0.23227482355541354 -1.2229939939989922 1.3632093485960581 -3.36413343980579 -1.2838194512434242 0.08801130014099273
704 -0.23209198337629108 -1.2227438149034775 1.3629014374779105 -3.3641439938765623 -1.2842762527348346 0.08725420036684049
705 -0.23191037370066434 -1.2224945317336189 1.3625927963629771 -3.3641496978923024 -1.2847294406593877 0.08649714805646962
706 -0.2317299852254708 -1.2222461445869406 1.3622834278036076 -3.3641505589978253 -1.2851790418260762 0.08574016908830055
707 -0.23155080864764777 -1.2219986535609664 1.3619733343521494 -3.364146584337943 -1.2856250830438907 0.08498328934075375
708 -0.23137283466413264 -1.2217520587532222 1.3616625185609523 -3.364137781057473 -1.2860675911218238 0.08422653469224971
709 -0.23119605397186274 -1.2215063602612317 1.361350982982365 -3.3641241563012287 -1.2865065928688673 0.08346993102120888
710 -0.23102045726777554 -1.2212615581825206 1.361038730168736 -3.3641057172140267 -1.2869421150940126 0.0827135042060518
711 -0.23084603524880842 -1.2210176526146126 1.360725762672415 -3.364082470940681 -1.287374184606252 0.08195728012519889
712 -0.23067277861189878 -1.2207746436550329 1.3604120830457502 -3.364054424626008 -1.287802828214577 0.08120128465707067
713 -0.23050067805398386 -1.2205325314013058 1.3600976938410905 -3.3640215854148208 -1.2882280727279796 0.08044554368008756
714 -0.23032972427200124 -1.220291315950956 1.3597825976107851 -3.3639839604519364 -1.2886499449554516 0.07969008307267011
715 -0.23015990796288816 -1.2200509974015081 1.3594667969071825 -3.363941556882168 -1.2890684717059844 0.07893492871323873
716 -0.22999121982358212 -1.219811575850487 1.359150294282632 -3.3638943818503324 -1.2894836797885705 0.07818010648021397
717 -0.22982365055102047 -1.2195730513954175 1.358833092289482 -3.363842442501245 -1.2898955960122018 0.07742564225201626
718 -0.2296571908421405 -1.2193354241338237 1.3585151934800814 -3.3637857459797185 -1.2903042471858692 0.07667156190706607
719 -0.2294918313938797 -1.2190986941632305 1.3581966004067796 -3.363724299430569 -1.2907096601185652 0.07591789132378393
720 -0.22932756290317546 -1.2188628615811625 1.357877315621925 -3.363658109998613 -1.2911118616192818 0.07516465638059028
721 -0.2291643765617639 -1.2186279262299975 1.3575573417575477 -3.363587185489215 -1.2915108780241957 0.07441188286821081
722 -0.22900226554057607 -1.2183938869315243 1.3572366817644028 -3.3635115363499426 -1.291906733778227 0.07365959622659211
723 -0.22884122350534186 -1.2181607422523855 1.356915338672927 -3.363431173688915 -1.2922994528534806 0.07290782180798598
724 -0.2286812441217911 -1.2179284907592223 1.356593315513555 -3.3633461086142487 -1.2926890592220603 0.07215658496464417
725 -0.22852232105565368 -1.2176971310186775 1.3562706153167243 -3.3632563522340653 -1.2930755768560724 0.07140591104881848
726 -0.22836444797265953 -1.217466661597393 1.355947241112871 -3.363161915656482 -1.2934590297276216 0.07065582541276078
727 -0.22820761853853833 -1.2172370810620103 1.3556231959324305 -3.3630628099896156 -1.293839441808812 0.06990635340872274
728 -0.22805182641902008 -1.2170083879791722 1.3552984828058399 -3.362959046341587 -1.2942168370717497 0.06915752038895623
729 -0.22789706527983453 -1.2167805809155203 1.354973104763534 -3.362850635820512 -1.2945912394885384 0.06840935170571298
730 -0.2277433287867116 -1.216553658437697 1.3546470648359508 -3.362737589534512 -1.2949626730312842 0.06766187271124485
731 -0.22759061060538113 -1.216327619112344 1.3543203660535252 -3.3626199185917036 -1.2953311616720915 0.0669151087578036
732 -0.22743890440157297 -1.2161024615061036 1.3539930114466943 -3.3624976341002064 -1.295696729383065 0.066169085197641
733 -0.22728820384101697 -1.2158781841856174 1.3536650040458929 -3.362370747168137 -1.29605940013631 0.06542382738300886
734 -0.22713850258944304 -1.2156547857175282 1.353336346881559 -3.3622392689036156 -1.2964191979039317 0.06467936066615897
735 -0.2269897943125809 -1.2154322646684772 1.3530070429841266 -3.362103210414759 -1.296776146658034 0.0639357103993431
736 -0.22684207267616052 -1.2152106196051073 1.3526770953840337 -3.3619625828096873 -1.297130270370723 0.06319290193481306
737 -0.22669533134591177 -1.2149898490940605 1.352346507111716 -3.3618173971965195 -1.2974815930141035 0.06245096062482065
738 -0.2265495639875644 -1.2147699517019779 1.3520152811976092 -3.361667664683371 -1.2978301385602795 0.06170991182161764
739 -0.22640476426684836 -1.2145509259955025 1.35168342067215 -3.3615133963783634 -1.2981759309813568 0.060969780877455824
740 -0.22626092584949348 -1.2143327705412759 1.3513509285657745 -3.361354603389614 -1.2985189942494402 0.060230593144586994
741 -0.22611804125117219 -1.2141154847685363 1.3510178085358113 -3.3611912969845124 -1.2988593523692094 0.059492373736650575
742 -0.22597609838732752 -1.2138990715569038 1.3506840667471607 -3.3610234890675343 -1.2991970294756436 0.058755146812836466
743 -0.225835084023345 -1.2136835346485961 1.3503497099916157 -3.3608511917024266 -1.2995320497362985 0.05801893629372224
744 -0.22569498492461018 -1.2134688777858291 1.3500147450609685 -3.360674416952936 -1.2998644373187274 0.057283766099885405
745 -0.22555578785650876 -1.2132551047108193 1.3496791787470126 -3.36049317688281 -1.3001942163904856 0.056549660151903526
746 -0.22541747958442626 -1.2130422191657841 1.3493430178415409 -3.360307483555796 -1.300521411119128 0.05581664237035416
747 -0.22528004687374822 -1.2128302248929395 1.3490062691363447 -3.3601173490356384 -1.3008460456722075 0.05508473667581481
748 -0.22514347648986024 -1.2126191256345022 1.3486689394232187 -3.359922785386087 -1.30116814421728 0.05435396698886306
749 -0.2250077551981479 -1.2124089251326886 1.3483310354939542 -3.359723804670887 -1.3014877309219 0.053624357230076435
750 -0.22487286976399684 -1.2121996271297162 1.3479925641403447 -3.3595204189537857 -1.3018048299536211 0.05289593132003248
751 -0.22473880695279255 -1.2119912353678008 1.3476535321541836 -3.3593126402985307 -1.3021194654799986 0.05216871317930874
752 -0.22460555352992073 -1.2117837535891591 1.3473139463272628 -3.3591004807688694 -1.3024316616685874 0.05144272672848278
753 -0.22447309626076684 -1.2115771855360085 1.3469738134513747 -3.3588839524285463 -1.302741442686941 0.05071799588813211
754 -0.22434142191071652 -1.2113715349505645 1.3466331403183134 -3.3586630673413103 -1.3030488327026146 0.049994544578834295
755 -0.22421051724515528 -1.2111668055750444 1.3462919337198704 -3.358437837570907 -1.3033538558831623 0.04927239672116686
756 -0.22408036902946885 -1.2109630011516648 1.3459502004478396 -3.3582082751810853 -1.3036565363961392 0.04855157623570737
757 -0.22395096402904277 -1.210760125422642 1.3456079472940137 -3.3579743922355907 -1.3039568984090997 0.04783210704303337
758 -0.2238222890092625 -1.2105581821301932 1.3452651810501843 -3.35773620079817 -1.304254966089598 0.04711401306372238
759 -0.22369433073551367 -1.2103571750165343 1.3449219085081454 -3.35749371293257 -1.3045507636051885 0.04639731821835197
760 -0.22356707597318193 -1.2101571078238826 1.3445781364596896 -3.357246940702539 -1.3048443151234264 0.045682046427499665
761 -0.22344051643596483 -1.2099579809287877 1.3442338700932666 -3.3569958979727725 -1.305135642952955 0.04496822162772066
762 -0.22331466363080782 -1.2097597812451346 1.3438891081839577 -3.3567406058117624 -1.3054247619667763 0.04425586781948068
763 -0.22318953401296832 -1.2095624923211403 1.3435438479035007 -3.35648108708895 -1.3057116851789818 0.04354500901922309
764 -0.2230651440377038 -1.2093660977050225 1.3431980864236328 -3.3562173646737765 -1.3059964256036622 0.04283566924339126
765 -0.22294151016027175 -1.209170580945 1.3428518209160933 -3.3559494614356855 -1.3062789962549088 0.04212787250842856
766 -0.22281864883592964 -1.2089759255892896 1.3425050485526198 -3.3556774002441174 -1.3065594101468132 0.04142164283077837
767 -0.22269657651993482 -1.2087821151861096 1.3421577665049498 -3.355401203968513 -1.3068376802934656 0.04071700422688403
768 -0.22257530966754488 -1.2085891332836773 1.3418099719448218 -3.3551208954783145 -1.3071138197089578 0.04001398071318892
769 -0.22245486473401713 -1.208396963430211 1.3414616620439734 -3.3548364976429625 -1.307387841407381 0.03931259630613641
770 -0.22233525817460914 -1.208205589173928 1.3411128339741436 -3.3545480333319 -1.3076597584028262 0.038612875022169875
771 -0.2222165064445783 -1.2080149940630467 1.3407634849070693 -3.354255525414568 -1.3079295837093847 0.037914840877732676
772 -0.22209862599918212 -1.2078251616457847 1.3404136120144894 -3.353958996760409 -1.3081973303411478 0.03721851788926817
773 -0.22198163329367795 -1.207636075470359 1.3400632124681413 -3.353658470238862 -1.308463011312206 0.03652393007321975
774 -0.2218655447833234 -1.2074477190849884 1.3397122834397635 -3.353353968719371 -1.3087266396366515 0.035831101446030765
775 -0.22175037692337568 -1.20726007603789 1.339360822101093 -3.3530455150713756 -1.308988228328574 0.03514005602414458
776 -0.22163614616909252 -1.2070731298772817 1.3390088256238695 -3.352733132164319 -1.3092477904020663 0.034450817824004575
777 -0.22152286897573129 -1.2068868641513821 1.33865629117983 -3.352416842867642 -1.3095053388712188 0.03376341086205412
778 -0.22141056179854932 -1.2067012624084077 1.3383032159407127 -3.352096670050786 -1.3097608867501225 0.033077859154736565
779 -0.2212992410928042 -1.206516308196577 1.3379495970782553 -3.351772636583193 -1.3100144470528685 0.032394186718495296
780 -0.22118892331375326 -1.2063319850641079 1.3375954317641965 -3.351444765334304 -1.3102660327935487 0.031712417569773665
781 -0.22107960708217697 -1.2061482889335569 1.3372407237223516 -3.351113074583906 -1.310515662151281 0.031032574515191366
782 -0.22097121968094702 -1.2059652652248392 1.3368855028848485 -3.3507775642531623 -1.3107633739652949 0.03035467552207332
783 -0.22086367055845813 -1.205782971732208 1.3365298057358919 -3.350438229673584 -1.3110092122398465 0.029678737347920755
784 -0.22075686916310489 -1.2056014662499164 1.336173668759687 -3.3500950661766784 -1.3112532209791916 0.02900477675023491
785 -0.22065072494328206 -1.205420806572219 1.3358171284404394 -3.3497480690939567 -1.3114954441875875 0.028332810486517025
786 -0.22054514734738434 -1.2052410504933695 1.3354602212623545 -3.3493972337569287 -1.3117359258692904 0.027662855314268334
787 -0.22044004582380616 -1.2050622558076207 1.3351029837096366 -3.3490425554971 -1.311974710028556 0.026994927990990063
788 -0.22033532982094242 -1.2048844803092271 1.3347454522664917 -3.3486840296459848 -1.3122118406696417 0.026329045274183456
789 -0.22023090878718762 -1.2047077817924419 1.3343876634171246 -3.348321651535088 -1.312447361796803 0.02566522392134974
790 -0.2201266921709366 -1.204532218051519 1.3340296536457406 -3.347955416495923 -1.3126813174142968 0.025003480689990167
791 -0.2200225894205839 -1.2043578468807123 1.333671459436545 -3.3475853198599963 -1.3129137515263793 0.024343832337605956
792 -0.21991850998452425 -1.2041847260742755 1.3333131172737434 -3.347211356958818 -1.3131447081373073 0.023686295621698352
793 -0.21981436331115223 -1.2040129134264614 1.33295466364154 -3.3468335231238977 -1.313374231251336 0.023030887299768585
794 -0.21971005884886263 -1.2038424667315246 1.3325961350241406 -3.346451813686745 -1.3136023648727235 0.0223776241293179
795 -0.21960550604604992 -1.2036734437837182 1.33223756790575 -3.346066223978868 -1.3138291530057242 0.021726522867847514
796 -0.21950061435110896 -1.2035059023772965 1.3318789987705744 -3.345676749331777 -1.3140546396545965 0.021077600272858675
797 -0.21939529321243437 -1.203339900306513 1.3315204641028184 -3.345283385076983 -1.3142788688235953 0.020430873101852626
798 -0.21928945207842074 -1.2031754953656209 1.331162000386687 -3.3448861265459917 -1.3145018845169778 0.01978635811233058
799 -0.21918300039746275 -1.2030127453488741 1.330803644106386 -3.3444849690703147 -1.3147237307389998 0.019144072061793794
800 -0.21907584761795515 -1.2028517080505265 1.3304454317461198 -3.3440799079814605 -1.3149444514939184 0.01850403170774349
801 -0.21896797036681076 -1.2026923948726704 1.3300873757709688 -3.3436709576241728 -1.315164069689295 0.01786625691589522
802 -0.2188596139850156 -1.202534631648751 1.3297293925695095 -3.343258208396121 -1.315382523845914 0.017230779984821795
803 -0.2187510909920738 -1.2023781978200532 1.3293713745111935 -3.342841769708209 -1.3155997313878656 0.016597636321310314
804 -0.21864271390748946 -1.2022228728278601 1.3290132139654725 -3.342421750971341 -1.315815609739239 0.015966861332147888
805 -0.218534795250767 -1.202068436113457 1.328654803301798 -3.341998261596421 -1.3160300763241244 0.015338490424121639
806 -0.21842764754141042 -1.201914667118128 1.328296034889622 -3.3415714109943546 -1.3162430485666121 0.014712559004018678
807 -0.2183215832989239 -1.2017613452831564 1.3279368010983947 -3.341141308576043 -1.316454443890791 0.014089102478626112
