ZJU-PLP/Project_IFAC_2020/src/custom_codes/csv_files/joint_traj_2_AAPF.csv
Index Joint1 Joint2 Joint3 Joint4 Joint5 Joint6
0 0.0 -1.5707 0.0 -1.5707 -1.5707 -1.5707
1 -0.000744545500242411 -1.5696388460237731 0.020033832476018778 -1.5636862366742197 -1.5741247950334047 -1.5676514152659855
2 -0.001495789604976352 -1.5685767501497403 0.04011227858435803 -1.556709879154552 -1.5784594877860398 -1.5634641870052803
3 -0.002252404428050232 -1.5675138162447004 0.06022842311246687 -1.549773151667656 -1.5826832736876715 -1.5591542306870512
4 -0.003014651343979708 -1.5664502054127372 0.08037405211256786 -1.5428782851880787 -1.5868205581299537 -1.5546882665309831
5 -0.003782755989056038 -1.5653860838011584 0.10054057556578005 -1.5360275800933343 -1.5908723328118033 -1.5500564265495975
6 -0.004556944616090099 -1.5643216243893174 0.12071898403375297 -1.5292234168294763 -1.5948352054510808 -1.5452531418110649
7 -0.005337450926070731 -1.5632570078889647 0.14089982242132693 -1.5224682607428812 -1.598704276327792 -1.5402742618344685
8 -0.006124518407545672 -1.5621924235751299 0.1610731655663185 -1.5157646663908408 -1.6024739230155087 -1.5351162801443754
9 -0.006918401404602502 -1.5611280701556676 0.18122859387301493 -1.5091152817935396 -1.6061380874901956 -1.529776063822328
10 -0.007719365665873357 -1.560064156705912 0.20135516878634346 -1.5025228526542966 -1.609690403600878 -1.5242507475535365
11 -0.008527688603425742 -1.5590009036760346 0.22144140831043982 -1.4959902264815024 -1.6131242633777416 -1.5185376935805064
12 -0.009343659336942926 -1.5579385439713034 0.24147526297420718 -1.4895203565028279 -1.6164328573920015 -1.5126344826742768
13 -0.010167578542816254 -1.5568773241005174 0.2614440928048994 -1.4831163052275282 -1.619609203815358 -1.5065389219757508
14 -0.010999758103901459 -1.555817505383168 0.28133464602968034 -1.4767812474771607 -1.6226461730905481 -1.5002490633757048
15 -0.011840520544137248 -1.5547593652006064 0.3011330403964511 -1.4705184726666876 -1.6255365118823377 -1.4937632293742036
16 -0.01269019822629401 -1.5537031982703613 0.3208247481917644 -1.4643313860765883 -1.628272868500871 -1.4870800448286263
17 -0.01354913228837041 -1.552649317915618 0.34039458623363855 -1.458223508813038 -1.6308478212658526 -1.4801984736736546
18 -0.01441767129374169 -1.551598057293696 0.3598267123252674 -1.4521984761090132 -1.6332539108962774 -1.4731178599840338
19 -0.015296169571913274 -1.5505497705382414 0.3791046298630105 -1.4462600335767928 -1.6354836777802249 -1.4658379728287567
20 -0.01618498523077768 -1.5495048337599937 0.3982112024854388 -1.4404120309851263 -1.6375297048108466 -1.4583590543152696
21 -0.017084477827870682 -1.5484636458407792 0.4171286808116597 -1.4346584131068185 -1.6393846663181086 -1.4506818700849229
22 -0.017995005697552288 -1.5474266289453993 0.435838743423716 -1.4290032071701542 -1.6410413834509585 -1.442807761319074
23 -0.01891692294350659 -1.546394228667165 0.45432255427178586 -1.4234505064570073 -1.6424928861517534 -1.4347386970655227
24 -0.019850576121505828 -1.5453669137160042 0.47256083859062326 -1.4180044496288287 -1.6437324816013572 -1.4264773254134713
25 -0.020796300655804616 -1.5443451750546522 0.4905339791777335 -1.4126691954363242 -1.6447538286927177 -1.418027021751192
26 -0.021754417053254385 -1.5433295243898604 0.5082221344662123 -1.4074488925861368 -1.6455510177130792 -1.4093919320582946
27 -0.02272522700125848 -1.542320491933335 0.5256053792021308 -1.4023476447029481 -1.6461186539882553 -1.400577008943871
28 -0.02370900945755342 -1.541318623362614 0.5426638676940176 -1.3973694705395836 -1.6464519437838 -1.3915880379779029
29 -0.024706016859571356 -1.5403244759363168 0.5593780185452477 -1.3925182598475834 -1.6465467802947307 -1.382431651814063
30 -0.025716471596524057 -1.5393386137515284 0.5757287185389807 -1.3877977256167748 -1.6463998271247369 -1.3731153297045757
31 -0.02674056289590524 -1.5383616021728983 0.5916975419796436 -1.3832113537080961 -1.646008596302609 -1.363647380293059
32 -0.027778444275535528 -1.5373940015116736 0.6072669803961936 -1.3787623512156137 -1.6453715176571568 -1.3540369060578323
33 -0.02883023170079503 -1.536436360085269 0.6224206761999739 -1.3744535951718988 -1.6444879963197594 -1.3442937484658368
34 -0.029896002563447065 -1.5354892068399717 0.6371436528018826 -1.3702875834229915 -1.6433584552845524 -1.3344284137620501
35 -0.030975795563859647 -1.534553043765908 0.6514225329708397 -1.3662663896132599 -1.6419843603519628 -1.3244519803109167
36 -0.032069611534344615 -1.5336283383691371 0.6652457369820718 -1.362391624210432 -1.6403682254101062 -1.314375989450444
37 -0.03317741519104607 -1.532715516485793 0.6786036524447432 -1.3586644033515747 -1.6385135968409839 -1.304212322824079
38 -0.034299137749733415 -1.5318149557239853 0.6914887686416781 -1.3550853270011485 -1.6364250168173298 -1.2939730700215204
39 -0.03543468029197767 -1.5309269797990375 0.703895769718207 -1.351654467498557 -1.634107966301594 -1.283670390995709
40 -0.03658391772736637 -1.53005185398739 0.715821583012154 -1.3483713690668548 -1.6315687895781403 -1.2733163780592478
41 -0.03774670316862621 -1.5291897818673446 0.7272653810547489 -1.345235058300746 -1.628814603050091 -1.262922922262277
42 -0.038922872522284074 -1.5283409034460758 0.73822853808982 -1.342244065101234 -1.6258531917331787 -1.2525015886173134
43 -0.04011224909850197 -1.527505294698539 0.7487145441468043 -1.3393964530258482 -1.6226928973243275 -1.242063504005359
44 -0.04131464805883345 -1.5266829684719831 0.7587288815757992 -1.3366898576189588 -1.6193425018874692 -1.2316192607438186
45 -0.042529880547201734 -1.525873876645941 0.7682788703711814 -1.3341215310048695 -1.6158111110906745 -1.221178837812129
46 -0.043757757383723124 -1.525077913386619 0.7773734894969598 -1.331688390879852 -1.612108040582919 -1.2107515407125244
47 -0.044998092239046175 -1.5242949192993862 0.7860231817694452 -1.329387072025038 -1.6082427085720095 -1.2003459599800692
48 -0.04625070424481965 -1.5235246862644163 0.7942396496957885 -1.3272139785639285 -1.604224537024139 -1.1899699475186574
49 -0.047515420030582727 -1.5227669627374625 0.8020356490978355 -1.325165335380942 -1.6000628632174332 -1.179630609274672
50 -0.048792075206570196 -1.52202145930793 0.8094247864812463 -1.3232372373712744 -1.59576686270636 -1.1693343122887796
51 -0.05008051533442714 -1.5212878543266786 0.8164213250581076 -1.3214256954776988 -1.5913454841376737 -1.1590867038876442
52 -0.05138059644333071 -1.5205657994429345 0.8230400032072231 -1.3197266787604143 -1.5868073958330822 -1.1488927406726326
53 -0.05269218515794046 -1.5193578679951742 0.8435807432794759 -1.3163182288178978 -1.5821280958929922 -1.1387567250020623
54 -0.054023143523154155 -1.5183020284789912 0.8596371511783801 -1.3136631002079675 -1.5771194649633458 -1.1286619174429904
55 -0.0553704072950855 -1.5173672462718957 0.8721417670457735 -1.311591398667727 -1.571861924944139 -1.1186380454657652
56 -0.05673208914669965 -1.5165283069844488 0.8818461414720031 -1.3099728470915526 -1.5664183469867963 -1.1086994854408163
57 -0.05810705164597412 -1.515764972885109 0.8893493933941133 -1.3087077586599074 -1.5608372702533604 -1.0988516414335785
58 -0.05949461461169999 -1.5150611250253263 0.8951260192815838 -1.3077198286026206 -1.5551559728824955 -1.0890950025960728
59 -0.06089436623587474 -1.5144039873232762 0.8995503609921206 -1.3069505574912745 -1.5494030431126338 -1.0794275869608934
60 -0.06230604597127727 -1.5137834645373829 0.9029170730788992 -1.3063550042569942 -1.5436004087446078 -1.0698463475475375
61 -0.06372947416625642 -1.513191595399102 0.9054577794318599 -1.3058985727547667 -1.5377648960828454 -1.0603479428955693
62 -0.06516451104730868 -1.5126221093642591 0.9073544192503187 -1.305554582953426 -1.531909414446689 -1.0509291320691188
63 -0.0666110336516878 -1.512070071453412 0.9087498447779655 -1.305302431611226 -1.5260438542583983 -1.041586954950062
64 -0.06806892349864084 -1.5115315996887195 0.9097561930925917 -1.3051261945658374 -1.5201757696700224 -1.032318794331128
65 -0.06953806053882068 -1.5110036412882168 0.9104614797339888 -1.3050135603366546 -1.514310899875922 -1.0231223763388824
66 -0.07101832067014319 -1.5104837959011046 0.9109347830540397 -1.304955013214973 -1.5084535694331567 -1.0139957414965823
67 -0.07250957519753297 -1.5099701762512066 0.9112303166889266 -1.3049432051214094 -1.5026069973617033 -1.0049372043417717
68 -0.07401169128280857 -1.5094612984025852 0.9113906270403466 -1.3049724710058523 -1.4967735370111543 -0.9959453111033387
69 -0.07552453283682263 -1.5089559954184701 0.9114491031623021 -1.305038453926846 -1.4909548630129583 -0.9870188001221836
70 -0.07704796154936547 -1.508453349462079 0.9114319467248735 -1.3051378143031798 -1.4851521175214408 -0.9781565670048543
71 -0.07858183789625992 -1.5079526384191935 0.9113597181712576 -1.3052680040100386 -1.4793660249459017 -0.9693576350476436
72 -0.08012602204660176 -1.5074532939468637 0.9112485502659888 -1.3054270905930558 -1.4735969821712105 -0.9606211307323261
73 -0.0816803746402949 -1.5069548685078575 0.911111100619165 -1.305613620323527 -1.467845129629025 -0.9519462637617332
74 -0.083244757431617 -1.5064570094691616 0.9109572993615469 -1.305826511422529 -1.4621104073567803 -0.9433323109906958
75 -0.08481903380748268 -1.505959438752443 0.9107949360489191 -1.3060649707602874 -1.4563925992551148 -0.9347786036096675
76 -0.08640306919475306 -1.5054619368472877 0.910630120382674 -1.3063284288485892 -1.450691368047482 -0.9262845169944052
77 -0.08799673137260369 -1.504964330252316 0.9104676438873461 -1.306616489104197 -1.4450062829021402 -0.917849462712178
78 -0.08959989070551659 -1.504466481609377 0.9103860003570382 -1.3063309961524479 -1.439386738410601 -0.909414845069551
79 -0.09121180076824353 -1.5039701828645182 0.910255817975761 -1.3061010080569593 -1.4337735241997482 -0.9010438227041843
80 -0.09283238877328118 -1.5034748599520986 0.9100934231991257 -1.305924205463586 -1.4281673486378674 -0.8927355068368901
81 -0.09446158039253111 -1.5029800624967027 0.9099115902390663 -1.3057987984095332 -1.4225686288096813 -0.8844891030297806
82 -0.09609930056720688 -1.502485436949716 0.9097203151932463 -1.3057234059102694 -1.4169775542660492 -0.8763038938416187
83 -0.09774547415747731 -1.5019907055793649 0.9095274209577505 -1.3056969625224095 -1.4113941371059366 -0.8681792248580724
84 -0.09940002645332749 -1.5014956500356147 0.9093390300456766 -1.305718645792029 -1.405818251353567 -0.8601144935007585
85 -0.10106288356864225 -1.50100009849119 0.9091599342552977 -1.3057878198970323 -1.4002496639369078 -0.8521091400945926
86 -0.10273397273894719 -1.5005039155785032 0.9089938837639117 -1.3059039918609974 -1.3946880590677935 -0.8441626407535093
87 -0.10441322254079281 -1.5000069945129144 0.9088438132636487 -1.3060667775355568 -1.3891330574324914 -0.83627450172054
88 -0.10610056304809536 -1.4995092509259813 0.9087120188902944 -1.3062758751790025 -1.3835842312972801 -0.8284442548654286
89 -0.10779592593818924 -1.4990106180363982 0.9086002966826641 -1.3065310449452632 -1.378041116396428 -0.8206714541002534
90 -0.10949924455805267 -1.4985110428675938 0.908510050959565 -1.306832092973505 -1.3725032212845518 -0.8129556725211905
91 -0.11121045395919224 -1.4980104832844343 0.9084423791673375 -1.307178859059885 -1.3669700346900984 -0.8052965001235826
92 -0.11292949090801216 -1.4975089056710782 0.9083981383193712 -1.3075712071189116 -1.3614410312927216 -0.7976935419690598
93 -0.11465629387712381 -1.4970062831107889 0.9083779970311863 -1.3080090178173096 -1.355915676257786 -0.7901464167088085
94 -0.11639080302193354 -1.496502593958809 0.9083824762815836 -1.3084921828996519 -1.3503934287907764 -0.7826547553873081
95 -0.11813296014594317 -1.4959978207230842 0.9084119813482519 -1.30902060083112 -1.344873744918945 -0.7752182004669238
96 -0.11988270865747251 -1.495491949186145 0.9084668268331416 -1.3095941734653398 -1.339356079663824 -0.767836405026455
97 -0.12163999351993349 -1.494984967715944 0.9085472562762151 -1.3102128035095693 -1.3338398887337914 -0.7605090320967867
98 -0.12340476119732398 -1.4944768667247736 0.908653457530372 -1.3108763926096483 -1.3283246298387117 -0.7532357541047036
99 -0.1251769595962435 -1.4939676382442588 0.908785574815543 -1.3115848399162031 -1.322809763707234 -0.7460162524021605
100 -0.1269565380054427 -1.4934572755913558 0.9089437181706314 -1.3123380410240777 -1.3172947548704177 -0.7388502168631991
101 -0.12874344703368973 -1.4929457731057203 0.9091279708660348 -1.3131358872007395 -1.311779072261996 -0.7317373455345506
102 -0.13053763854655512 -1.4924331259430623 0.9093383952174501 -1.3139782648379634 -1.3062621896750406 -0.7246773443289872
103 -0.13233906560257502 -1.4919193299124285 0.9095750371461441 -1.3148650550755727 -1.3007435861064662 -0.7176699267528518
104 -0.1341476823891398 -1.4914043813479663 0.9098379297561037 -1.315796133557322 -1.295222746014227 -0.7107148136610596
105 -0.13596344415836703 -1.4908882770077643 0.9101270961399287 -1.316771370287826 -1.2896991595068623 -0.7038117330343189
106 -0.13778630716314857 -1.4903710139939614 0.9104425515794873 -1.3177906295663326 -1.2841723224809412 -0.6969604197744628
107 -0.139616228593507 -1.489852589689574 0.9107843052714402 -1.3188537699785097 -1.2786417367187095 -0.6901606155146766
108 -0.1414531665133542 -1.4893330017084703 0.9111523616796144 -1.319960644431623 -1.2731069099556784 -0.6834120684421072
109 -0.14329707979771159 -1.4888122478556929 0.9115467215941654 -1.3211111002217553 -1.2675673559258664 -0.676714533130888
110 -0.14514792807042506 -1.4882903260959344 0.9119673829601995 -1.3223049791242782 -1.262022594390806 -0.6700677703840409
111 -0.14700567164238845 -1.4877672345284396 0.9124143415249946 -1.3235421175007915 -1.2564721511571622 -0.6634715470830529
112 -0.14887027145027226 -1.4872429713669872 0.9128875913423499 -1.3248223464172943 -1.2509155580868057 -0.6569256360441861
113 -0.15074168899574364 -1.486717534923886 0.9133871251642822 -1.3261454917695825 -1.245352353102401 -0.6504298158807823
114 -0.1526198862851531 -1.4861909235971549 0.9139129347437649 -1.3275113744128029 -1.2397820801909405 -0.6439838708709849
115 -0.1545048257696572 -1.4856631358602335 0.9144650110670965 -1.3289198102928452 -1.2342042894071643 -0.6375875908304217
116 -0.15639647028574027 -1.4851341702537082 0.9150433445304799 -1.3303706105778217 -1.228618536878423 -0.6312407709894922
117 -0.15829478299609465 -1.4846040253786523 0.9156479250722429 -1.3318635817883395 -1.2230243848122277 -0.624943211874973
118 -0.16019972733081614 -1.484072699891263 0.9162787422696753 -1.3333985259256125 -1.2174214015074936 -0.6186947191957173
119 -0.16211126692886832 -1.4835401924985463 0.9169357854075125 -1.3349752405967399 -1.2118091613702946 -0.612495103732266
120 -0.16402936557976894 -1.4830065019548557 0.9176190435235864 -1.336593519136679 -1.2061872449348017 -0.606344181230225
121 -0.1659539871654498 -1.4824716270591303 0.9183285054359679 -1.3382531507266113 -1.20055523888995 -0.6002417722972878
122 -0.16788509560224155 -1.481935566652711 0.9190641597549932 -1.3399539205085205 -1.1949127361123046 -0.5941877023038049
123 -0.16982265478293412 -1.4813983196176423 0.9198259948828288 -1.3416956096959003 -1.1892593357055095 -0.5881818012868163
124 -0.17176662851886362 -1.4808598848753836 0.9206139990026562 -1.3434779956805867 -1.1835946430466626 -0.5822239038574752
125 -0.17371698048197695 -1.4803202613858715 0.9214281600591016 -1.345300852135758 -1.1779182698399113 -0.5763138491118015
126 -0.17567367414682536 -1.4797794481468896 0.92226846573118 -1.3471639491152012 -1.172229834177528 -0.5704514805447092
127 -0.17763667273243872 -1.4792374441937066 0.9231349033987446 -1.3490670531489644 -1.1665289606087135 -0.5646366459672584
128 -0.17960593914403303 -1.4786942485989591 0.9240274601032045 -1.3510099273355445 -1.1608152802163476 -0.5588691974270863
129 -0.18158143591450404 -1.478149860472753 0.9249461225031095 -1.352992331430777 -1.155088430701899 -0.5531489911319741
130 -0.1835631251456607 -1.47760427896297 0.9258908768250537 -1.3550140219336093 -1.1493480564786978 -0.5474758873765103
131 -0.18555096844915275 -1.4770575032557656 0.9268617088102454 -1.3570747521689406 -1.1435938087737711 -0.5418497504718114
132 -0.1875449268870478 -1.4765095325762485 0.9278586036570032 -1.3591742723677278 -1.1378253457384366 -0.5362704486782631
133 -0.1895449609120138 -1.4759603661893346 0.9288815459593676 -1.361312329744554 -1.1320423325678488 -0.5307378541412472
134 -0.191551030307064 -1.4754100034007707 0.9299305196419653 -1.3634886685728596 -1.126244441629698 -0.5252518428298169
135 -0.19356309412482178 -1.4748584435583254 0.931005507891216 -1.3657030302580382 -1.1204313526022591 -0.5198122944782883
136 -0.19558111062626465 -1.4743056860531438 0.9321064930829378 -1.3679551534085992 -1.1146027526219962 -0.5144190925307124
137 -0.19760503721890668 -1.4737517303212655 0.933233456706375 -1.3702447739055978 -1.1087583364409266 -0.5090721240881945
138 -0.19963483039438037 -1.4731965758453078 0.9343863792846533 -1.372571624970532 -1.1028978065939605 -0.5037712798590278
139 -0.2016704456653799 -1.4726402221563133 0.9356177498328715 -1.374515360902066 -1.097100985454476 -0.49835233454031164
140 -0.20371129462783144 -1.4720841259325816 0.9368348885494284 -1.3764942297499354 -1.0912806400653023 -0.4929792672249479
141 -0.2057573531822011 -1.4715279814802542 0.9380462810023824 -1.3785073636394491 -1.0854375573802493 -0.48765190992080826
142 -0.20780859366309448 -1.4709715489363722 0.9392585648414591 -1.3805541281158011 -1.0795722802344754 -0.48237015336943756
143 -0.20986498542935075 -1.4704146397508628 0.9404769379291797 -1.3826340710242055 -1.0736851616359833 -0.47713393657883535
144 -0.21192649532468108 -1.4698571053553884 0.9417054766683013 -1.3847468828233682 -1.0677764074330358 -0.4719432385623536
145 -0.21399308803114342 -1.4692988283226123 0.9429473842114539 -1.3868923657759926 -1.0618461098635519 -0.46679807184039207
146 -0.21606472633501764 -1.4687397154709092 0.9442051839380581 -1.389070410034871 -1.0558942739522854 -0.4616984773438018
147 -0.21814137132168726 -1.4681796924882857 0.9454808702188328 -1.391280975087107 -1.0499208382985903 -0.45664452042773973
148 -0.22022298251331085 -1.4676186997422893 0.9467760258566723 -1.3935240753625964 -1.043925691466026 -0.45163628776272186
149 -0.22230951796054624 -1.4670566890154997 0.9480919135352397 -1.3957997690791784 -1.0379086849250174 -0.4466738849170686
150 -0.2237753573293411 -1.466370412143349 0.9488775593411677 -1.3982265959293545 -1.0317579466343056 -0.4417574344833265
151 -0.22524813558282294 -1.4656817501089094 0.9497794094912322 -1.4006791985174862 -1.0256116198564935 -0.43688578483093105
152 -0.2267277549476096 -1.4649915608812745 0.9507772219069338 -1.4031600588836324 -1.0194665099708133 -0.43205965680196173
153 -0.2282141477634035 -1.4643005221794312 0.951855349712223 -1.4056711148562795 -1.013320104220974 -0.4272796437611809
154 -0.22970727057051826 -1.4636091717390558 0.9530017058244142 -1.408213882902842 -1.0071704253714797 -0.42254624268011143
155 -0.23120709941308917 -1.4629179385074875 0.9542069597381548 -1.4107895537340986 -1.001015917110461 -0.41785987779183226
156 -0.23271362611035448 -1.4622271668082814 0.955463914612885 -1.4133990665972502 -0.9948553544195318 -0.4132209186601353
157 -0.234226855295365 -1.4615371350554107 0.9567670243247439 -1.4160431669401041 -0.988687773547975 -0.4086296940203103
158 -0.2357468020597488 -1.460848070241127 0.9581120191349772 -1.4187224511249115 -0.9825124173614446 -0.40408650240124777
159 -0.23727349007539558 -1.4601601591462356 0.959495615621866 -1.4214374010721142 -0.9763286927362145 -0.39959162028662176
160 -0.23880695009008374 -1.4594735570085242 0.9609152919629618 -1.4241884110834262 -0.9701361373834451 -0.3951453083879801
161 -0.24034721871512907 -1.4587883942200783 0.962369113883341 -1.4269758085974573 -0.963934394051278 -0.39074781646530765
162 -0.2418943374399865 -1.458104781496284 0.9638555998722383 -1.429799870242122 -0.9577231904963563 -0.3863993870277925
163 -0.2434483518221722 -1.4574228138601173 0.9653736168240348 -1.432660834244005 -0.951502323965377 -0.3821002581698855
164 -0.24500931081155397 -1.4567425737083435 0.9669222992431113 -1.435558910017649 -0.9452716492013505 -0.3778506657387563
165 -0.24657726617652867 -1.4560641331665296 0.9685009866923736 -1.438494285573006 -0.9390310692042337 -0.373650844984206
166 -0.24815227200631412 -1.4553875558934164 0.9701091753610319 -1.4414671332356206 -0.9327805281440918 -0.36950103180757304
167 -0.24973438426889188 -1.4547128984592457 0.9717464805552525 -1.4444776140624902 -0.9265200059568759 -0.36540146369961846
168 -0.2513236604083352 -1.4540402113947215 0.9734126076353539 -1.4475258812499316 -0.9202495142561559 -0.3613523804369163
169 -0.25292015896857584 -1.4533695399856539 0.975107329481704 -1.450612082762568 -0.9139690932748934 -0.3573540245904796
170 -0.2553397382749059 -1.4527142460687532 0.977546725062104 -1.4535995510315785 -0.9078171137531325 -0.3534066418881382
171 -0.257759176577031 -1.4520622878247191 0.979854599786002 -1.4566399940280772 -0.9016071472102757 -0.34951085874242294
172 -0.26017872727425506 -1.4514124396203654 0.9820675248802381 -1.4597295539855675 -0.8953454869117414 -0.34566609618307964
173 -0.2625985743635176 -1.4507637555721447 0.9842136977934498 -1.46286537656705 -0.889037032445014 -0.34187201006408807
174 -0.2650188446995903 -1.4501155064889557 0.9863148533322039 -1.4660453779285947 -0.8826856093396585 -0.33812844399635317
175 -0.26743961837469654 -1.4494671308742337 0.9883877415501915 -1.4692680665211562 -0.8762942173963413 -0.3344353914973243
176 -0.26986093727172666 -1.4488181969117804 0.9904452695345441 -1.472532406622872 -0.8698652236997408 -0.33079296588483104
177 -0.2722828119787676 -1.4481683730127712 0.9924973827909354 -1.4758377137484564 -0.8634005127108682 -0.3272013765216576
178 -0.2747052272988502 -1.4475174050231174 0.9945517450951187 -1.4791835744450141 -0.8569016030588501 -0.32366091018156845
179 -0.2771281465897626 -1.4468650986043352 0.9966142625122753 -1.4825697847633885 -0.8503697385000367 -0.3201719164958755
180 -0.27955151514836374 -1.4462113056277828 0.9986894870167015 -1.485996303041246 -0.8438059588427456 -0.3167347966219237
181 -0.28197526282520147 -1.44555591367887 1.0007809271524855 -1.4894632136576453 -0.8372111553401853 -0.3133499944376328
182 -0.284399306025302 -1.4448988379689396 1.0028912869665125 -1.4929706991989706 -0.8305861140479578 -0.3100179897050507
183 -0.2868235492231124 -1.4442400151096058 1.0050226496273855 -1.4965190190720963 -0.8239315498610055 -0.3067392927608964
184 -0.28924788609513646 -1.4435793983267775 1.0071766184100326 -1.5001084930568347 -0.8172481333376368 -0.3035144403855408
185 -0.29167220035316255 -1.4429169537868651 1.0093544248348227 -1.503739488639298 -0.8105365119463812 -0.30034399257679817
186 -0.2940963663439494 -1.4422526577816888 1.0115570115135375 -1.5074124112359757 -0.8037973270046791 -0.2972285300143628
187 -0.2965202494674308 -1.4415864945760521 1.0137850955256853 -1.5111276966241487 -0.7970312272933703 -0.29416865204756454
188 -0.2989437064544259 -1.44091845476646 1.016039216813118 -1.514885805052292 -0.79023888010939 -0.29116497507579736
189 -0.30136658553604984 -1.4402485340339501 1.0183197750498623 -1.5186872166254546 -0.7834209803468584 -0.28821813121956585
190 -0.3037887265300746 -1.4395767322006818 1.0206270576485896 -1.522532427653773 -0.776578258062863 -0.28532876720229594
191 -0.3062099608640448 -1.4389030525205628 1.022961260951759 -1.526421947723797 -0.7697114848801166 -0.2824975433802287
192 -0.30863011155068826 -1.438227501150133 1.0253225061827729 -1.5303562973071774 -0.7628214794976721 -0.2797251328709633
193 -0.31104899312784806 -1.4375500867582314 1.027710851368393 -1.5343360057633713 -0.755909112517812 -0.27701222074139464
194 -0.31346641157258137 -1.4368708202424796 1.0301263001634438 -1.538361609625279 -0.7489753107480838 -0.2743595032235894
195 -0.3158821641970802 -1.4361897145279328 1.032568808293233 -1.5424336510814531 -0.742021061099079 -0.2717676869330935
196 -0.31829603953252833 -1.435506784428902 1.0350382881634146 -1.5465526765874504 -0.735047414168539 -0.26923748806868486
197 -0.32070781720582536 -1.4348220465593005 1.0375346120596953 -1.5507192355533754 -0.728055487578807 -0.26676963157599815
198 -0.3231172678132035 -1.434135519280208 1.0400576142621005 -1.554933879065749 -0.7210464691160804 -0.2643648502600175
199 -0.3255241527940708 -1.433447222675937 1.042607092323583 -1.559197158610311 -0.7140216197052006 -0.2620238838333443
200 -0.3279282243078914 -1.4327571785518498 1.0451828077053866 -1.5635096247688496 -0.7069822762419826 -0.2597474778885686
201 -0.33032922511651985 -1.4320654104487032 1.0477844859177083 -1.567871825868135 -0.6999298542956349 -0.2575363827841135
202 -0.33272688847411364 -1.4313719436694599 1.0504118162807072 -1.5722843065628667 -0.692865850686142 -0.2553913524336893
203 -0.3351209380265356 -1.4306768053154029 1.05306445139541 -1.57674760633753 -0.6857918459351685 -0.25331314299005453
204 -0.3375110877220015 -1.4299800243290666 1.0557420063947 -1.5812622579143973 -0.6787095065837839 -0.2513025114142021
205 -0.3401722684987068 -1.429265439670555 1.0586795565583997 -1.58579465559337 -0.6716600963376067 -0.24936021392141855
206 -0.3428249435798497 -1.4285494745906036 1.0615821311084608 -1.5903854856679105 -0.6645837281594464 -0.2474869364638202
207 -0.3454687978100099 -1.42783168908387 1.064463583723538 -1.59503384773475 -0.6574855367359924 -0.2456832216291762
208 -0.34810350091863496 -1.4271117646770652 1.067334301973734 -1.5997392042902547 -0.6503700230632051 -0.24394970320751844
209 -0.35072870791582905 -1.426389476403175 1.0702020225457538 -1.6045012877228317 -0.6432412289360521 -0.24228708197539944
210 -0.3533440595711052 -1.4256646713967243 1.0730724526618485 -1.60932002904178 -0.6361028711371849 -0.24069610640206887
211 -0.3559491829019991 -1.4249372525650335 1.0759497433735792 -1.614195503023934 -0.6289584445765051 -0.23917755712816757
212 -0.3585436916410464 -1.424207166145487 1.0788368497452296 -1.6191278857601523 -0.6218113014820844 -0.23773223430220466
213 -0.3611271866720586 -1.4234743922340214 1.0817358047375751 -1.6241174215613663 -0.6146647120897745 -0.23636094705542554
214 -0.36369925643816126 -1.4227389375826742 1.0846479273026521 -1.629164396921326 -0.6075219110081371 -0.23506450455425326
215 -0.36625947732948644 -1.4220008301278617 1.0875739803686475 -1.6342691197909192 -0.6003861324584062 -0.23384370819611772
216 -0.36880741406050405 -1.421260114837118 1.090514290692931 -1.6394319028418387 -0.5932606368381736 -0.232699344614537
217 -0.3713426200473142 -1.4205168505587666 1.0934688397287804 -1.6446530497186502 -0.5861487304803307 -0.23163217923784826
218 -0.37386463779468887 -1.4197711076332196 1.0964373324854968 -1.649932843522887 -0.5790537800355577 -0.23064295020743647
219 -0.3763729993017254 -1.419022966081421 1.099419249706697 -1.6552715369593551 -0.5719792225666512 -0.22973236250939344
220 -0.37886722649392285 -1.4182725142294446 1.1024138874279177 -1.660669343717451 -0.5649285721826283 -0.22890108221127786
221 -0.3813468316884279 -1.417519847661497 1.1054203870103056 -1.6661264307696089 -0.557905423841711 -0.2281497307254556
222 -0.38381131809818814 -1.4167650684189863 1.1084377580115943 -1.6716429113530673 -0.5509134548010239 -0.2274788790442764
223 -0.3862601803798045 -1.4160082843827027 1.111464895694679 -1.6772188384660178 -0.5439564240763715 -0.226889041911566
224 -0.38869290522899413 -1.415249608789978 1.1145005945465352 -1.6828541987595436 -0.537038170189551 -0.22638067191071384
225 -0.3911089720267443 -1.414489159849986 1.1175435588542828 -1.6885489067459682 -0.5301626074168934 -0.22595415346287914
226 -0.3935078535384496 -1.4137270604289816 1.1205924111366483 -1.6943027992749908 -0.5233337207061836 -0.22560979674016177
227 -0.3958890166675577 -1.4129634377838736 1.1236456990394414 -1.700115630253217 -0.5165555593959739 -0.2253478315084595
228 -0.39825192326449316 -1.4121984233275706 1.1267019011587733 -1.705987065601871 -0.5098322298485695 -0.22516840092348914
229 -0.4005960309908794 -1.4114321524134212 1.1297594321448547 -1.7119166784626616 -0.5031678870933202 -0.22507155531130557
230 -0.4029207942383214 -1.4106647641290428 1.1328166473540953 -1.717903944673785 -0.49656672556840975 -0.22505724597174237
231 -0.4052256651002503 -1.4098964010921515 1.1358718472516176 -1.7239482385474145 -0.4900329690456477 -0.2251253190495828
232 -0.40751009439455993 -1.409127209242798 1.138923281715491 -1.73004882898717 -0.4835708598225872 -0.22527550952395584
233 -0.4097735327339882 -1.408357337627837 1.1419691543543244 -1.7362048759892523 -0.4771846472686552 -0.22550743537140527
234 -0.4120154316404208 -1.4075869381745882 1.14500762691868 -1.7424154275743473 -0.4708785758160215 -0.22582059196223342
235 -0.4142352446985246 -1.4068161654515488 1.1480368238619703 -1.748679417199182 -0.46465687249095106 -0.22621434675298546
236 -0.416432428743365 -1.406045176414786 1.1510548370865952 -1.7549956616968312 -0.45852373408676433 -0.22668793434022105
237 -0.41860644507593664 -1.4052741301392462 1.1540597308948914 -1.7613628597936044 -0.45248331408473785 -0.2272404519419109
238 -0.4207567606998511 -1.404503187534764 1.1570495471511868 -1.767779591247625 -0.4465397094338671 -0.22787085537280616
239 -0.4228828495717977 -1.4037325110470134 1.1600223106502434 -1.7742443166501318 -0.4406969473039965 -0.22857795557887736
240 -0.4249841938578319 -1.4029622643440343 1.1629760346782256 -1.7807553779251568 -0.4349589719290872 -0.22936041579334773
241 -0.42706028518706624 -1.4021926119893395 1.1659087267446764 -1.7873109995566547 -0.42932963165809734 -0.23021674937292702
242 -0.42911062589396287 -1.401423719102906 1.1688183944576869 -1.7939092905645295 -0.4238126663299187 -0.23114531836758825
243 -0.4311347302401537 -1.4006557510116355 1.1717030515092812 -1.8005482472424355 -0.4184116950859536 -0.23214433287066666
244 -0.43582418160745384 -1.3997307265129348 1.1750330036548395 -1.8073709911993283 -0.4141473288963548 -0.2332118511882789
245 -0.44024989069008236 -1.3988260153079473 1.1780829493449851 -1.8142376269415483 -0.4097888000544364 -0.2343189966363487
246 -0.4444282026953008 -1.397938551973947 1.1809304085311494 -1.8211379057884636 -0.40537491128273495 -0.2354662508085717
247 -0.44837419165423387 -1.3970660241738384 1.1836312571467091 -1.8280639921641808 -0.4009374174804134 -0.23665406721342896
248 -0.45210178261211226 -1.3962066839113774 1.1862253894585588 -1.8350097886352663 -0.3965025600298249 -0.23788276760971844
249 -0.455623861929273 -1.3953592049974899 1.188740932622568 -1.8419704449962762 -0.39209223271375493 -0.2391524719265999
250 -0.4589523755050029 -1.3945225758428583 1.1911973772014206 -1.848942000547596 -0.3877248686553669 -0.24046305351197278
251 -0.4620984156038395 -1.3936960191011185 1.1936078985103853 -1.855921123389196 -0.38341611654801677 -0.24181411327124325
252 -0.4650722973803785 -1.3928789316197583 1.1959810753836841 -1.8629049207791075 -0.37917935798612185 -0.2432049677631074
253 -0.4678836263377328 -1.3920708396841743 1.1983221610341332 -1.8698908017877407 -0.37502610507486 -0.24463464751328937
254 -0.470541357934997 -1.391271365735257 1.200634021463914 -1.8768763785716327 -0.3709663078699404 -0.24610190273114121
255 -0.47305385045746595 -1.3904802036663715 1.2029178274125363 -1.8838593962345778 -0.3670085938957231 -0.2476052143170234
256 -0.4754289121276428 -1.389697100516867 1.2051735637616572 -1.890837683874444 -0.3631604564658445 -0.24914280857750254
257 -0.4776738432930501 -1.3889218429222867 1.2074004038428632 -1.8978091213268853 -0.3594284043610312 -0.25071267446096146
258 -0.4800296039193549 -1.3880842963589257 1.2097863259970119 -1.904753983470012 -0.3558409728608344 -0.25231258242088056
259 -0.4822550063485413 -1.387255431939322 1.2120788756534633 -1.9116951813714016 -0.3523528855934542 -0.2539411983325391
260 -0.48435696316357835 -1.3864345970707537 1.214292230701975 -1.9186288389505952 -0.34897398985511174 -0.25559594107922406
261 -0.4863419019733898 -1.3856212951080689 1.2164363226326884 -1.9255515718667386 -0.345712213411774 -0.2572741130499572
262 -0.48821581305444756 -1.3848151446914485 1.2185179859172468 -1.9324603617945728 -0.34257394605094976 -0.2589729036579375
263 -0.48998428970383917 -1.3840158495630357 1.2205418082172854 -1.9393524658465024 -0.3395643315160615 -0.2606893971488765
264 -0.49165256277347275 -1.3832231761882727 1.2225107587765223 -1.9462253517157881 -0.3366874922811683 -0.2624205832207508
265 -0.49322553052950413 -1.3824369371828455 1.2244266523916263 -1.953076651648808 -0.3339467039216148 -0.2641633693810309
266 -0.4947077847289585 -1.3816569790535942 1.2262904915240402 -1.959904130183568 -0.33134453157877075 -0.2659145942619852
267 -0.4961036336103498 -1.380883173141996 1.2281027181050386 -1.966705661922617 -0.3288829378404094 -0.2676710413295668
268 -0.49741712234408275 -1.3801154089431138 1.2298633984204526 -1.9734792165830608 -0.3265633689894297 -0.2694294525787701
269 -0.49865205137162677 -1.3793535891850381 1.2315723584082734 -1.9802228492836051 -0.32438682480812603 -0.2711865419241416
270 -0.4998119929721365 -1.3785976262119333 1.2332292822166584 -1.986934694558709 -0.32235391581008416 -0.27293900807980676
271 -0.5009003063253475 -1.3778474393314777 1.2348337835464172 -1.9936129629831414 -0.32046491079266887 -0.274683546787141
272 -0.5019201512855108 -1.3771029528750058 1.2363854568398889 -2.000255939582723 -0.31871977687446634 -0.27641686229595136
273 -0.5028745010392253 -1.3763640947837075 1.2378839135539472 -2.0068619834250727 -0.31711821364010795 -0.2781356780409614
274 -0.5037661537874567 -1.3756307955825513 1.2393288074032196 -2.0134295279470016 -0.31565968261193683 -0.27983674648254575
275 -0.5045977435666507 -1.3749029876394723 1.2407198514578703 -2.019957081696922 -0.31434343296842276 -0.28151685810122473
276 -0.5053717503039651 -1.3741806046339797 1.2420568292376846 -2.026443229261675 -0.3131685242065527 -0.2831728495510057
277 -0.5060905091860051 -1.3734635811790898 1.2433396013934659 -2.032886632215249 -0.3121338462798608 -0.2848016109884042
278 -0.5067562194080412 -1.3727518525551201 1.244568109158178 -2.039286029977689 -0.31123813762060076 -0.28640009260275967
279 -0.5073709523608012 -1.3720453545247462 1.245742375446971 -2.0456402405103535 -0.31048000136285314 -0.28796531037991785
280 -0.5079366593039587 -1.371344023206751 1.2468625042599564 -2.051948160801771 -0.3098579200149619 -0.289494351135975
281 -0.5084551785689747 -1.3706477949918556 1.2479286788741748 -2.0582087671190314 -0.309370268778568 -0.29098437686093864
282 -0.508928242328642 -1.369956606488428 1.2489411591866515 -2.0644211150147735 -0.3090153276731589 -0.2924326284141474
283 -0.5093574829662882 -1.3692703944891282 1.2499002784777187 -2.0705843390907086 -0.3087912925961616 -0.2938364286143391
284 -0.5097444390739213 -1.3685890959519567 1.2508064397946763 -2.076697652526317 -0.3086962854267037 -0.29519318476754725
285 -0.5100905611054906 -1.367912647990959 1.2516601121043163 -2.0827603463866136 -0.3087283632644371 -0.2965003906756896
286 -0.5103972167087947 -1.3672409878731497 1.2524618263243181 -2.0887717887263 -0.3088855268819038 -0.29775562816791534
287 -0.5106656957572873 -1.366574053019194 1.2532121713147213 -2.094731423509706 -0.3091657284588393 -0.2989565681955984
288 -0.5108972151010593 -1.3659117810060981 1.2539117898891012 -2.1006387693669284 -0.30956687865881827 -0.3001009715303973
289 -0.5110929230545526 -1.3652541095706827 1.2545613748888904 -2.1064934182068544 -0.3100868531022126 -0.3011866891031071
290 -0.511253903637044 -1.3646009766130056 1.2551616653521296 -2.1122950337074533 -0.3107234982841526 -0.3022116620191819
291 -0.5113811805806029 -1.3639523201991763 1.2557134427987808 -2.1180433497030293 -0.31147463698177724 -0.30317392128484477
292 -0.5114757211190306 -1.3633080785632126 1.2562175276478469 -2.1237381684871632 -0.31233807319130674 -0.3040715872756792
293 -0.5115384395702366 -1.3626681901077433 1.2566747757763457 -2.1293793590488854 -0.31331159663221847 -0.3049028689775429
294 -0.511570200723549 -1.362032593403462 1.2570860752262658 -2.1349668552583694 -0.31439298685294575 -0.30566606302759114
295 -0.5115718230426112 -1.3614012271873182 1.2574523430626734 -2.140500654017072 -0.31558001696995724 -0.30635955258116904
296 -0.5115440816937408 -1.360774030359488 1.2577745223839212 -2.1459808133859206 -0.31687045706976036 -0.3069818060283497
297 -0.5114877114089356 -1.3601509419791973 1.2580535794832177 -2.1514074507037657 -0.318262077301256 -0.3075313755819713
298 -0.5114034091920842 -1.3595319012595033 1.258290501159586 -2.156780740707038 -0.31975265068392184 -0.30800689575717716
299 -0.511291836876365 -1.3589168475611528 1.2584862921752948 -2.1621009136602667 -0.3213399556554988 -0.3084070817606924
300 -0.5111536235402975 -1.3583057203856421 1.2586419728561753 -2.1673682535059373 -0.3230217783811734 -0.30873072780639227
301 -0.510989367789439 -1.3576984593676165 1.2587585768307354 -2.17258309604103 -0.3247959148446827 -0.30897670537212696
302 -0.5107996399102888 -1.3570950042667371 1.2588371489036518 -2.1777458271265346 -0.32666017274030273 -0.3091439614112771
303 -0.510584983902561 -1.3564952949591516 1.258878743058987 -2.1828568809352613 -0.32861237318331027 -0.3092315165311133
304 -0.5103459193956309 -1.3558992714286946 1.2588844205883294 -2.1879167382423854 -0.33065035225522166 -0.3092384631487338
305 -0.5100829434546232 -1.355306873757942 1.258855248339003 -2.192925924762325 -0.33277196239891077 -0.3091639636341433
306 -0.5097965322813056 -1.354718042119237 1.2587922970774557 -2.197885009534826 -0.33497507367758117 -0.3090072484489198
307 -0.5094871428146689 -1.3541327167658008 1.2586966399629764 -2.2027946033624506 -0.337257574910513 -0.3087676142878879
308 -0.5091552142358154 -1.3535508380230272 1.258569351126936 -2.207655357301065 -0.33961737469751896 -0.30844442223027074
309 -0.5088011693815333 -1.3529723462800658 1.2584115043528339 -2.2124679612043847 -0.34205240234312406 -0.3080370959059319
310 -0.508425416070715 -1.3523971819817782 1.2582241718525318 -2.2172331423231553 -0.34456060869062205 -0.307545119681531
311 -0.5080283483475679 -1.3518252856211521 1.258008423134177 -2.2219516639591363 -0.3471399668753609 -0.30696803687070234
312 -0.5076103476453746 -1.3512565977322477 1.2577653239574247 -2.226624324173684 -0.3497884730058616 -0.3063054479717224
313 -0.5071717838743788 -1.3506910588837486 1.2574959353717234 -2.231251954550407 -0.3525041467806782 -0.30555700893554705
314 -0.5067130164372072 -1.3501286096731708 1.2572013128335504 -2.2358354190111025 -0.35528503204826184 -0.3047224294665799
315 -0.5062343951750815 -1.349569190721793 1.2568825053986237 -2.2403756126839487 -0.3581291973164879 -0.3038014713580642
316 -0.5057362612479257 -1.3490127426703462 1.2565405549852695 -2.2448734608227303 -0.3610347362179487 -0.3027939468635757
317 -0.5052189479513405 -1.3484592061755138 1.256176495705252 -2.2493299177757136 -0.363999767936595 -0.3016997171057256
318 -0.5046827814732842 -1.3479085219072675 1.25579135325852 -2.253745966002664 -0.3670224376008307 -0.30051869052285624
319 -0.5041280815931835 -1.3473606305470716 1.255386144388462 -2.2581226151383906 -0.3701009166477186 -0.29925082135422965
320 -0.5035551623260769 -1.3468154727869772 1.2549618763943926 -2.2624609011011243 -0.3732334031625448 -0.2978961081639575
321 -0.5029643325142933 -1.346272989329624 1.2545195466981376 -2.266761885243988 -0.3764181221976072 -0.296454592403709
322 -0.5023558963690621 -1.3457331208891556 1.2540601424616953 -2.2710266535477754 -0.3796533260737424 -0.2949263570140468
323 -0.5017301539643566 -1.3451958081930624 1.2535846402530977 -2.2752563158532375 -0.38293729466777826 -0.2933115250640843
324 -0.5010874016851852 -1.344660991984942 1.2530940057577091 -2.279452005131075 -0.3862683356887996 -0.29161025842902794
325 -0.500427932632452 -1.3441286130281824 1.2525891935323077 -2.2836148767878477 -0.38964478494583743 -0.289822756505056
326 -0.49975203698643517 -1.3435986121105497 1.2520711467994374 -2.2877461080060253 -0.3930650066093343 -0.2879492549609005
327 -0.49906000233084674 -1.3430709300496733 1.2515407972795944 -2.2918468971164487 -0.39652739346850163 -0.28599002452542666
328 -0.4983521139393683 -1.3425455076994102 1.2509990650589526 -2.2959184630015015 -0.4000303671864701 -0.28394536981045215
329 -0.49762865502648435 -1.342022285957059 1.250446858490414 -2.2999620445273457 -0.40357237855492756 -0.2818156281680117
330 -0.4968899069643691 -1.341501205771409 1.2498850741258776 -2.303978900003625 -0.4071519077497579 -0.27960116858124584
331 -0.4961361494675171 -1.3409822081515883 1.2493145966777242 -2.3079703066691017 -0.4107674645890208 -0.27730239058808265
332 -0.49536766074674776 -1.3404652341766774 1.2487362990075945 -2.3119375602017618 -0.4144175887944546 -0.27491972323687863
333 -0.4945847176341528 -1.3399502250060595 1.2481510421406459 -2.3158819742519667 -0.4181008502575402 -0.27245362407319407
334 -0.4937875956805011 -1.3394371218904622 1.2475596753035436 -2.319804879997332 -0.42181584931102717 -0.26990457815689495
335 -0.49297656922656 -1.3389258661836558 1.2469630359845465 -2.323707625718052 -0.42556121700670224 -0.26727309710879854
336 -0.492151911449737 -1.3384163993547626 1.2463619500141103 -2.3275915763914803 -0.4293356154000627 -0.2645597181861125
337 -0.49131389438740036 -1.3379086630011294 1.245757231664533 -2.3314581133048344 -0.43313773784245513 -0.2617650033859547
338 -0.49046278893818257 -1.3374025988617255 1.2451496837672245 -2.335308633684972 -0.43696630928113805 -0.25888953857628566
339 -0.4895988648425256 -1.3368981488310079 1.2445400978462786 -2.3391445503442485 -0.44082008656764066 -0.25593393265363495
340 -0.48872239064368206 -1.3363952549732119 1.2439292542670841 -2.3429672913415414 -0.44469785877470375 -0.25289881672705594
341 -0.4878336336303393 -1.3358938595370127 1.2433179223987894 -2.3467782996575837 -0.44859844752201083 -0.24978484332780168
342 -0.4869328597619917 -1.335393904970512 1.242706860789514 -2.350579032883822 -0.452520707310849 -0.2465926856442773
343 -0.4860203335781442 -1.334895333936488 1.2420968173532523 -2.3543709629240746 -0.45646352586776684 -0.24332303678188852
344 -0.4850963180923903 -1.3343980893278717 1.241488529567496 -2.358155575708317 -0.46042582449723923 -0.2399766090474757
345 -0.48416107467236547 -1.3339021142833836 1.2408827246806626 -2.3619343709179907 -0.4644065584432871 -0.23655413325809468
346 -0.4832148629065418 -1.3334073522032885 1.2402801199284768 -2.3657088617222746 -0.46840471725994676 -0.2330563580739798
347 -0.4822579404587902 -1.3329137467652141 1.2396814227585229 -2.3694805745248093 -0.4724193251904323 -0.22948404935560335
348 -0.4812905629116004 -1.3324212419399815 1.2390873310622434 -2.373251048720409 -0.4764494415547848 -0.22583798954482512
349 -0.4803129835988149 -1.3319297820073996 1.2384985334137077 -2.377021836461346 -0.4804941611457567 -0.22211897707020978
350 -0.479325453428697 -1.3314393115719758 1.2379157093145534 -2.3807945024328165 -0.48455261463263455 -0.21832782577667512
351 -0.47832822069812164 -1.3309497755784885 1.2373395294445433 -2.384570623637231 -0.48862396897266164 -0.2144653643797231
352 -0.4773215308986447 -1.3304611193273865 1.2367706559172371 -2.388351789187012 -0.49270742782967974 -0.21053243594459703
353 -0.4763056265151752 -1.329973288489958 1.2362097425403389 -2.3921396001055886 -0.4968022319995693 -0.20652989739080208
354 -0.47528074681794574 -1.329486229123234 1.2356574350803209 -2.3959356691363003 -0.5009076598420268 -0.20245861902252396
355 -0.47424712764844695 -1.328999887684582 1.2351143715309834 -2.399741620558937 -0.5050230277181781 -0.19831948408558026
356 -0.4732050011999637 -1.3285142110459476 1.2345811823856512 -2.4035590900136405 -0.5091476904334873 -0.1941133883516424
357 -0.4721545957933261 -1.328029146507711 1.23405849091276 -2.4073897243318907 -0.5132810416853761 -0.18984123973057315
358 -0.4710961356484599 -1.3275446418121188 1.2335469134346186 -2.4112351813743023 -0.5174225145149317 -0.18550395791183433
359 -0.4700298406523003 -1.3270606451562565 1.2330470596091898 -2.4150971298749266 -0.5215715817620293 -0.18110247403603355
360 -0.46895592612360704 -1.3265771052045345 1.232559532714754 -2.4189772492917396 -0.5257277565231577 -0.17663773039779665
361 -0.46787460257520036 -1.3260939711006536 1.2320849299373762 -2.4228772296629626 -0.5298905926111785 -0.17211068018127426
362 -0.4667860754741149 -1.3256111924790266 1.2316238426611086 -2.426798771468826 -0.534059685016201 -0.1675222872297177
363 -0.4656905450001513 -1.3251287194756274 1.2311768567609178 -2.430743585498327 -0.5382346703666988 -0.1628735258506899
364 -0.46458820580328863 -1.324646502738252 1.2307445528983303 -2.434713392720483 -0.5424152273899274 -0.15816538065861352
365 -0.46347924676040425 -1.3241644934361634 1.2303275068198332 -2.43870992415951 -0.5466010773706398 -0.15339884645649912
366 -0.4623638507317357 -1.323682643269113 1.229926289658078 -2.442734920773261 -0.5507919846070193 -0.14857492815884296
367 -0.4612421943175053 -1.3232009044757136 1.2295414682359616 -2.446790133334194 -0.5549877568626707 -0.1436946407578358
368 -0.4601144476151216 -1.3227192298411652 1.2291736053736642 -2.450877322311994 -0.5591882458134183 -0.13875900933518268
369 -0.4589807739773596 -1.322237572704312 1.2288232601987479 -2.4549982577568885 -0.5633933474875652 -0.13376906912199693
370 -0.45784132977192027 -1.3217558869640347 1.2284909884594093 -2.459154719182526 -0.5676030026981542 -0.12872586560940288
371 -0.4566962641427645 -1.3212741270849697 1.2281773428409934 -2.463348495447158 -0.571817197465656 -0.12363045471265778
372 -0.45554571877361405 -1.3207922481025614 1.2278828732858693 -2.467581384631682 -0.5760359634293711 -0.11848390299178718
373 -0.45438982765401803 -1.3203102056274407 1.227608127316751 -2.471855193912909 -0.580259378245692 -0.11328728793191736
374 -0.45322871684838306 -1.3198279558491515 1.2273536503635394 -2.476171739430203 -0.5844875659712009 -0.10804169828668476
375 -0.4520625042683765 -1.3193454555392234 1.22711998609374 -2.4805328461434204 -0.588720697428407 -0.10274823448830452
376 -0.4508912994491194 -1.318862662053609 1.226907676746469 -2.4849403476797893 -0.59295899055172 -0.09740800912808853
377 -0.44971520332960196 -1.3183795333345065 1.2267172634700347 -2.489396086167109 -0.5972027107110431 -0.09202214751141695
378 -0.44853430803777056 -1.3178960279115863 1.2265492866630316 -2.4939019120503048 -0.6014521710101236 -0.0865917882913854
379 -0.4473486966807565 -1.3174121049026501 1.2264042863188207 -2.4984596838880386 -0.6057077325565302 -0.08111808418557237
380 -0.44615844314074304 -1.3169277240137507 1.2262828023732188 -2.5030712681257015 -0.6099698046998361 -0.07560220278059589
381 -0.4449636118769951 -1.3164428455388149 1.2261853750551215 -2.507738538840663 -0.6142388452342588 -0.07004532742935456
382 -0.44376425773461303 -1.315957430358802 1.2261125452397124 -2.512463377455229 -0.6185153605616553 -0.06444865824607318
383 -0.44256042576060817 -1.3154714399404528 1.2260648548037971 -2.5172476724122363 -0.6227999058103805 -0.058813413204495096
384 -0.4413521510279467 -1.3149848363346754 1.2260428469826823 -2.522093318807668 -0.6270930849050885 -0.053140829344779594
385 -0.4401394584682551 -1.3144975821746288 1.2260470667278915 -2.5270022179740885 -0.6313955505820957 -0.04743216409486962
386 -0.4389223627139396 -1.314009640673573 1.2260780610648476 -2.531976277008047 -0.6357080043444066 -0.04168869671228782
387 -0.43770086795053664 -1.3135209756225517 1.2261363794494855 -2.5370174082338957 -0.640031196349962 -0.03591172985249482
388 -0.4364749677801775 -1.313031551387992 1.2262225741225674 -2.542127528595729 -0.6443659252260574 -0.030102591270093113
389 -0.4352446450971343 -1.312541332909306 1.2263372004602469 -2.5473085589683198 -0.6487130378022357 -0.02426263565928084
390 -0.4340098719764942 -1.312050285696595 1.2264808173192012 -2.552562423377074 -0.6530734287532516 -0.018393246640039787
391 -0.4327706095771092 -1.3115583758285518 1.2266539873743727 -2.5578910481160833 -0.6574480401429502 -0.012495838896574688
392 -0.4315268080600654 -1.3110655699506857 1.2268572774470634 -2.563296360752359 -0.6618378608590871 -0.006571860474494454
393 -0.4302784065240332 -1.3105718352739837 1.2270912588208074 -2.5687802890032767 -0.6662439259282507 -0.0006227952431279741
394 -0.42902533295897965 -1.3100771395741444 1.2273565075420778 -2.5743447594731457 -0.6706673156991205 0.005349834470815985
395 -0.4277675042198539 -1.309581451191528 1.2276536047024837 -2.579991696233632 -0.6751091548813162 0.011344465072320294
396 -0.42650482602200135 -1.3090847390319693 1.22798313669869 -2.585723019231554 -0.679570611426056 0.01735948870434273
397 -0.42523719296021306 -1.3085869725686192 1.228345695465803 -2.5915406425062804 -0.6840528952337669 0.023393250066336337
398 -0.42396448855347607 -1.3080881218449836 1.2287418786794604 -2.5974464721976567 -0.6885572566726568 0.029444043040740765
399 -0.422686585317668 -1.307588157479336 1.2291722899212951 -2.6034424043240585 -0.6930849848911089 0.035510107124075846
400 -0.42140334486861475 -1.3070870506706973 1.229637538801841 -2.6095303223088226 -0.6976374059055692 0.041589623660383004
401 -0.4201146180581256 -1.306584773206569 1.2301382410342994 -2.6157120942319927 -0.702215880444416 0.04768071187612197
402 -0.41882024514581445 -1.3060812974726248 1.2306750184518847 -2.621989569783014 -0.7068218015271169 0.053781424717273825
403 -0.41752005600972475 -1.3055765964645614 1.2312484989607333 -2.628364576888819 -0.7114565917568397 0.05988974449136049
404 -0.4162138703989824 -1.3050706438023072 1.2318593164195726 -2.634838917990628 -0.7161217003035989 0.06600357831940516
405 -0.4149014982319146 -1.3045634137467994 1.2325081104365265 -2.6414143659418436 -0.7208185995540431 0.07212075340556567
406 -0.41358273994328426 -1.3040548812195183 1.2331955260725826 -2.64809265949868 -0.7255487814031434 0.07823901213531273
407 -0.4122573868844966 -1.303545021824965 1.233922213440361 -2.654875498374706 -0.7303137531623916 0.08435600701663898
408 -0.4109252217808325 -1.3030338118762583 1.2346888271859262 -2.66176453783035 -0.7351150330587128 0.09046929548290857
409 -0.4095860192499486 -1.3025212284239962 1.2354960258404875 -2.668761382768704 -0.7399541452982031 0.09657633458062627
410 -0.40823954638604637 -1.302007249288508 1.2363444710279343 -2.675867581309809 -0.744832614669098 0.10267447557064989
411 -0.40688556341424914 -1.3014918530955872 1.2372348265133049 -2.6830846178169994 -0.7497519606591445 0.10876095847720844
412 -0.4055238244198223 -1.300975019315748 1.2381677570764782 -2.6904139053510594 -0.7547136910638812 0.11483290662553484
413 -0.4041540781569243 -1.300456728307006 1.239143927194655 -2.697856777530935 -0.7597192950643253 0.12088732121596774
414 -0.40277606894156837 -1.2999369613611143 1.2401639995166105 -2.7054144797836996 -0.7647702357553361 0.12692107598999966
415 -0.4013895376333977 -1.2994157007531222 1.2412286331112412 -2.713088159971518 -0.7698679421095772 0.132930912051902
416 -0.3999942227107113 -1.2988929297940435 1.2423384814727008 -2.7208788583895993 -0.7750138003666502 0.13891343291816224
417 -0.39858986144291786 -1.2983686328863313 1.2434941902644276 -2.7287874971366968 -0.7802091448427294 0.1448650998759174
418 -0.39717619116421704 -1.2978427955817586 1.2446963947846998 -2.736814868868702 -0.7854552481629961 0.15078222774070982
419 -0.39575295065179517 -1.2973154046412025 1.245945717137041 -2.74496162495635 -0.7907533109274353 0.15666098111303364
420 -0.39431988161117143 -1.2967864480957187 1.2472427630899408 -2.753228263080057 -0.7961044508301828 0.16249737124203914
421 -0.3928767302705037 -1.2962559153081774 1.2485881186119963 -2.761615114308459 -0.8015096912636307 0.16828725361312666
422 -0.391423249084669 -1.2957237970346298 1.2499823460707893 -2.770122329722222 -0.8069699494509086 0.1740263263836434
423 -0.3899591985487442 -1.2951900854844538 1.2514259800866772 -2.7787498666610517 -0.8124860241640818 0.17971012979710022
424 -0.3884843491191229 -1.29465477437825 1.2529195230362375 -2.7874974746893235 -0.8180585831003396 0.18533404671080747
425 -0.38699848323891317 -1.2941178590023608 1.254463440204419 -2.7963646813940963 -0.8236881500043681 0.19089330437411006
426 -0.3855013974624645 -1.2935793362588475 1.2560581545895673 -2.8053507781480493 -0.8293750916417351 0.19638297759397927
427 -0.3839929046718778 -1.2930392047097188 1.2577040413714133 -2.814454805988625 -0.8351196047450903 0.2017979934210871
428 -0.3824728363761828 -1.2924974646142295 1.2594014220588488 -2.8236755417827366 -0.8409217030718231 0.20713313748216045
429 -0.3809410450815349 -1.2919541179581178 1.2611505583418001 -2.833011484863124 -0.846781204727969 0.21238306207295657
430 -0.3793974067183391 -1.291409168473751 1.2629516456797176 -2.842460844337072 -0.8526977199279765 0.217542296110266
431 -0.37783628661741653 -1.2908346453421808 1.2649053352643147 -2.8519947455018073 -0.8587173731312588 0.22260525702071246
432 -0.3762623412676073 -1.2902637259604322 1.2668577073042102 -2.861650186872194 -0.8647796162869027 0.22757297984664976
433 -0.37467611442150656 -1.2896954907697407 1.268827384723723 -2.8714209937714323 -0.8708870998112184 0.23243708854266756
434 -0.37307798614133997 -1.2891292750864782 1.2708269857824408 -2.8813016722267952 -0.8770410620200885 0.23718989604756255
435 -0.3714682369109283 -1.2885645892771078 1.2728649664737568 -2.891287083112159 -0.8832416871524512 0.24182420252096634
436 -0.36984709227743356 -1.2880010639857813 1.274946884569069 -2.9013722211121227 -0.8894883517730522 0.24633316390298288
437 -0.36821475408273513 -1.287438412590161 1.2768119233765383 -2.9136668084212825 -0.8970083027644292 0.24525019017629482
438 -0.3665495990453956 -1.2868668130899792 1.2790198997512 -2.9256784745813014 -0.9045413635548869 0.24420754395486896
439 -0.3648524922363752 -1.2862909625769083 1.281451375807631 -2.937443090614686 -0.9120671485856101 0.24320043579241557
440 -0.363125108018562 -1.2857139211243638 1.284025790719682 -2.9489866326912395 -0.9195713542817094 0.24222442607515735
441 -0.361369603337591 -1.2851376453538892 1.28668891255089 -2.960327886740707 -0.9270434242522203 0.2412754269892074
442 -0.359588404999902 -1.2845633518031492 1.2894042596752613 -2.9714805742753314 -0.934475202353943 0.24034965998125954
443 -0.3577840711313681 -1.2839917629253683 1.2921472806356058 -2.982454905783227 -0.9418601334076633 0.23944361336214345
444 -0.3559592011606712 -1.283423272988012 1.2949014247270383 -2.993258672908641 -0.9491927753693231 0.2385540104851401
445 -0.35411637768386006 -1.2828580596583983 1.2976554976414099 -3.003897999391333 -0.9564684932504796 0.23767778805209475
446 -0.3522581293487837 -1.2822961589144737 1.3004018858443962 -3.0143778504410417 -0.963683261717378 0.2368120815886959
447 -0.3503869076358498 -1.2817375152579111 1.303135366185513 -3.0247023754564575 -0.9708335341622697 0.23595421529301214
448 -0.34850507284319193 -1.281182015324866 1.305852308841787 -3.0348751376291667 -0.9779161533047321 0.23510169424606223
449 -0.346614886174435 -1.280629510349385 1.3085501442048755 -3.044899267621627 -0.9849282882828786 0.23425219771734232
450 -0.3447185058713661 -1.280079831147831 1.3112270066950729 -3.054777566697699 -0.9918673890032684 0.2334035728444536
451 -0.3428179860218055 -1.2795327980878948 1.3138814970855197 -3.064512576422267 -0.9927033408738961 0.23195586483661365
452 -0.3410506766063676 -1.2789782373607232 1.3165754975596664 -3.0741452423594815 -0.9936955817109787 0.23046186011753148
453 -0.33940306097513867 -1.2784177393427971 1.319283804105585 -3.083659695862384 -1.001145114076702 0.22948832466575608
454 -0.3377210213625989 -1.2778628781956036 1.3219242874675408 -3.093017720872317 -1.0022428377336359 0.2280065961690917
455 -0.3361500751821951 -1.2773028230535721 1.3245681898108153 -3.102249176366888 -1.0097769636011011 0.22698590918956185
456 -0.3345369598490656 -1.276748687523119 1.3271408970331344 -3.111321553806217 -1.0109556369821258 0.22552178498410153
457 -0.33302804460317864 -1.2761898944340209 1.3297095301980235 -3.120262101990944 -1.0122524593366813 0.2240283574689034
458 -0.33161280528654435 -1.2756274582383744 1.3322596388953611 -3.1290614714602816 -1.0136559639815999 0.22251140985542392
459 -0.3302817662753924 -1.2750622005703136 1.3347803887486904 -3.1377121995611756 -1.0215702969417233 0.22135302367972243
460 -0.32888162443844476 -1.2745044874867872 1.337211969671988 -3.1462005885863955 -1.0229881509678327 0.2198730891076963
461 -0.327564253130384 -1.2739437059868075 1.339620522967891 -3.154541691744227 -1.0244964353488446 0.21837431361899556
462 -0.3263212985888443 -1.2733805962466263 1.3419961317418643 -3.1627309585793384 -1.0260857553479499 0.2168605499497874
463 -0.3251452451815452 -1.2728157536956282 1.3443315840518304 -3.1707650342492046 -1.0277475230263204 0.215335032652174
464 -0.324029329305329 -1.2722496624516968 1.3466216623666554 -3.178641636003819 -1.0294738766659328 0.21380046200940606
465 -0.32296746380792585 -1.2716827196894767 1.34886263755258 -3.1863594186928115 -1.031257613491897 0.21225907879549064
466 -0.3219541710333535 -1.271115253706017 1.3510519035891464 -3.19391784137393 -1.0395091905171236 0.2108912431433143
467 -0.32083917864406625 -1.2705565218398627 1.3531479270128317 -3.2013259549032713 -1.0412199311383463 0.20939991472095476
468 -0.31977825982469876 -1.2699963909884735 1.355207950340292 -3.208581579413298 -1.0429828173825928 0.20790010856300928
469 -0.31876598783498006 -1.2694353311750513 1.3572260047581022 -3.215685245511806 -1.0447914876774602 0.206393571352276
470 -0.31779749225864334 -1.268873709675113 1.3591981099309163 -3.222637783295116 -1.0466401648664672 0.20488174167858916
471 -0.3168683996179402 -1.2683118177762636 1.3618761417052934 -3.223404704722373 -1.0485420140623474 0.20466774319176712
472 -0.31595377526709606 -1.2677888993058746 1.3628982790902329 -3.2304330434806294 -1.0504044744064271 0.20315859477536452
473 -0.315077177243188 -1.2672533459714521 1.3649180867184436 -3.231242571877962 -1.0523179791761372 0.20292389687006845
474 -0.31421295320716924 -1.2667483297554487 1.3662519302357796 -3.2321359612444565 -1.0542167500725967 0.20270805601070843
475 -0.31336272516076136 -1.266264708600181 1.3671139712429856 -3.2330863789477373 -1.0561044827581367 0.20250357035963729
476 -0.3125271839467422 -1.2657962066969193 1.3676516171007995 -3.234075339012897 -1.0579835128802517 0.20230528277710338
477 -0.31170643730116004 -1.2653385158596464 1.3679663242890345 -3.235090110470379 -1.0598552294104158 0.20210964935886747
478 -0.31090023491540947 -1.2648886790016876 1.3681279212307818 -3.236121927611852 -1.0617203787590639 0.20191423617650944
479 -0.3101081146334571 -1.2644446668743807 1.3681844681533764 -3.2371647552988425 -1.0635792815538156 0.20171737293721054
480 -0.30932949744142163 -1.2640050873493425 1.3681690440075007 -3.238214437814129 -1.0654319838851771 0.20151791459823473
481 -0.30856374888786736 -1.2635689856822387 1.368104417758399 -3.239268112440823 -1.0672783611277974 0.20131507728058684
482 -0.3078102183574705 -1.2631357072686158 1.3680062632574148 -3.2403238056138424 -1.0691181882101466 0.20110832533298703
483 -0.30706826368740614 -1.262704803341606 1.3678853715889439 -3.2413801549094177 -1.070951186507879 0.20089729361497988
484 -0.3063372660826409 -1.2622759661848602 1.3677491733977816 -3.2424362177283728 -1.0727770546320707 0.20068173403089098
485 -0.3056166386311434 -1.261848984634504 1.3676027863375668 -3.24349133968307 -1.0745954882222755 0.2004614787613548
486 -0.3049058306263288 -1.261423713528023 1.367449735737315 -3.2445450640875007 -1.0764061922951718 0.20023641499025435
487 -0.30420432917532547 -1.2610000527396499 1.3672924504209223 -3.2455970697368954 -1.0782088885962349 0.20000646754411358
488 -0.30351165908323424 -1.2605779328040172 1.3671326038330578 -3.2466471281525675 -1.0800033196308378 0.19977158697632388
489 -0.3028273816749212 -1.2601573050664787 1.3669713487464392 -3.2476950742167614 -1.0817892505169537 0.19953174139691376
490 -0.30215109299427206 -1.2597381349426164 1.3668094787661544 -3.2487407860159276 -1.0835664694337042 0.19928691087785003
491 -0.30148242167126044 -1.2593203973124445 1.3666475394823652 -3.2497841710149316 -1.0853347871877428 0.19903708362844036
492 -0.3008210266462726 -1.2589040733794747 1.366485904990604 -3.2508251565825033 -1.0870940362471448 0.19878225338651456
493 -0.30016659487317365 -1.2584891485343126 1.3663248305916074 -3.2518636835062362 -1.0888440694751376 0.19852241764398926
494 -0.29951883907697197 -1.258075610906522 1.3661644891066005 -3.252899701560709 -1.0905847587163704 0.19825757644448977
495 -0.2988774956114613 -1.2576634503875492 1.3660049959216845 -3.2539331664849094 -1.0923159933345565 0.19798773157267094
496 -0.298242322442007 -1.2572526579755745 1.3658464262777268 -3.2549640379264466 -1.0940376787640431 0.19771288601129552
497 -0.29761309726537666 -1.2568432253399704 1.3656888272237304 -3.2559922780484354 -1.0957497351135557 0.19743304358094818
498 -0.29698961576995014 -1.2564351445351918 1.3655322258963132 -3.2570178505901857 -1.0974520958441993 0.19714820870396843
499 -0.2963716900342295 -1.2560284078160229 1.3653766352685968 -3.258040720238236 -1.099144706533142 0.1968583862525493
500 -0.2957591470582822 -1.2556230075212624 1.3652220581547443 -3.2590608522092728 -1.1008275237274798 0.19656358145357347
501 -0.2951518274208674 -1.2552189360033579 1.3650684900109122 -3.260078211977401 -1.1025005138883723 0.19626379983143205
502 -0.29454958405403936 -1.2548161855886335 1.3649159209046495 -3.261092765099456 -1.104163652422802 0.1959590471760286
503 -0.29395228112667887 -1.254414748557658 1.3647643369087645 -3.262104477106642 -1.1058169227987091 0.19564932952725822
504 -0.2933597930284327 -1.2540146171386624 1.3646137210959384 -3.2631133134408037 -1.107460315738385 0.19533465317005488
505 -0.2927720034458185 -1.2536157835092077 1.3644640542555415 -3.264119239420503 -1.109093828484621 0.1950150246360201
506 -0.29218880452266505 -1.253218239802881 1.3643153154164072 -3.2651222202267953 -1.1107174641340425 0.1946904507089581
507 -0.29161009609753996 -1.2528219781188634 1.3641674822333976 -3.2661222209018317 -1.1123312310321778 0.1943609384325401
508 -0.29103578501134225 -1.252426990532951 1.3640205312777527 -3.2671192063556247 -1.1139351422250476 0.19402649511892997
509 -0.2904657844787532 -1.252033269109105 1.363874438258944 -3.268113141377837 -1.1155292149623632 0.19368712835761814
510 -0.289900013517754 -1.2516408059109363 1.3637291781973009 -3.269103990652484 -1.1171134702477565 0.19334284602399082
511 -0.28933839643190157 -1.251249593012769 1.3635847255608444 -3.27009171877415 -1.1186879324318066 0.1929936562873496
512 -0.2887808623405166 -1.2508596225100623 1.3634410543757494 -3.2710762902647956 -1.1202526288439651 0.1926395676182223
513 -0.2882273447523626 -1.2504708865290863 1.3632981383170701 -3.2720576695905703 -1.1218075894598054 0.19228058879488832
514 -0.28767778117879067 -1.2500833772358004 1.363155950784448 -3.2730358211782504 -1.1233528466003322 0.19191672890909575
515 -0.2871321127826899 -1.2496970868439354 1.363014464966177 -3.2740107094310846 -1.124888434660372 0.19154799737098108
516 -0.286590284059916 -1.2493120076222937 1.362873653894074 -3.2749822987439177 -1.1264143898633325 0.19117440391322388
517 -0.2860522425501753 -1.248928131901314 1.3627334904909516 -3.2759505535175393 -1.1279307500398632 0.19079595859448
518 -0.2855179385746226 -1.2485454520789385 1.3625939476120295 -3.276915438172239 -1.1294375544281778 0.19041267180214344
519 -0.2849873249976808 -1.248163960625839 1.3624549980813014 -3.277876917160573 -1.1309348434939992 0.1900245542544889
520 -0.28446035701082617 -1.247783650090047 1.362316614723636 -3.2788349549793794 -1.1324226587682824 0.18963161700224748
521 -0.28393699193628713 -1.247404513101042 1.3621787703932269 -3.279789516181073 -1.1339010427010394 0.1892338714296656
522 -0.2834171890488006 -1.2470265423733444 1.362041437998882 -3.2807405653842636 -1.135370038529742 0.18883132925509494
523 -0.2829009094137398 -1.246649730709654 1.3619045905265585 -3.281688067283736 -1.1368296901609278 0.18842400253115849
524 -0.2823881157400852 -1.2462740710035836 1.3617682010594652 -3.2826319866598466 -1.1382800420637569 0.18801190364453405
525 -0.2818787722468534 -1.2458995562420176 1.3616322427960241 -3.2835722883873695 -1.1397211391743878 0.1875950453153933
526 -0.28137284454172845 -1.245526179507138 1.3614966890659215 -3.2845089374438383 -1.1411530268101435 0.18717344059653188
527 -0.2808702995107554 -1.2451539339781443 1.3613615133444579 -3.2854418989174197 -1.1425757505925394 0.18674710287222196
528 -0.2803711052180654 -1.2447828129327032 1.3612266892653768 -3.286371138014351 -1.1439893563783263 0.18631604585681702
529 -0.27987523081469556 -1.2444128097481475 1.3610921906323277 -3.287296620065986 -1.1453938901977871 0.18588028359313485
530 -0.2793826464556558 -1.2440439179024563 1.3609579914291026 -3.2882183105354663 -1.1467893981995927 0.18543983045064294
531 -0.27889332322447347 -1.2436761309750304 1.360824065828775 -3.2891361750240553 -1.14817592660159 0.184994701123468
532 -0.27840723306451903 -1.2433094426472915 1.3606903882018426 -3.290050179277157 -1.1495535216469532 0.18454491062824918
533 -0.2779243487164807 -1.242943846703114 1.3605569331234797 -3.2909602891900462 -1.150922229565183 0.1840904743018529
534 -0.2774446436614159 -1.2425793370291154 1.3604236753799839 -3.2918664708133267 -1.1522820965374876 0.18363140779896514
535 -0.2769680920688604 -1.2422159076148116 1.360290589974497 -3.2927686903581432 -1.153633168666122 0.18316772708957577
536 -0.2764946687495239 -1.2418535525526542 1.3601576521320715 -3.2936669142011614 -1.1549754919473032 0.18269944845636796
537 -0.2760243491121474 -1.241492266037964 1.3600248373041464 -3.294561108889333 -1.1563091122473526 0.18222658849202444
538 -0.2755571091241343 -1.2411320423687664 1.3598921211724888 -3.2954512411444616 -1.1576340752817547 0.18174916409646127
539 -0.2750929252756052 -1.2407728759455436 1.3597594796526566 -3.2963372778675843 -1.158950426596844 0.1812671924739984
540 -0.27463177454655996 -1.2404147612709073 1.3596268888970267 -3.2972191861431805 -1.1602582115538647 0.18078069113047593
541 -0.2741736343768584 -1.240057692949205 1.3594943252974283 -3.298096933243214 -1.1615574753151676 0.18028967787032377
542 -0.2737184826387585 -1.2397016656860638 1.3593617654874257 -3.2989704866310317 -1.1628482628323351 0.17979417079359136
543 -0.27326629761177695 -1.2393466742878787 1.3592291863442791 -3.2998398139651153 -1.164130618836041 0.179294188292944
544 -0.2728170579596571 -1.2389927136612522 1.3590965649906166 -3.3007048831027035 -1.1654045878274732 0.17878974905063116
545 -0.27237074270924944 -1.2386397788123906 1.3589638787958465 -3.301565662103283 -1.166670214071161 0.1782808720354321
546 -0.2719273312311302 -1.2382878648464586 1.3588311053773339 -3.3024221192319687 -1.1679275415890653 0.17776757649958297
547 -0.2714868032217972 -1.2379369669669016 1.3586982226013613 -3.3032742229627705 -1.1691766141558049 0.1772498819756896
548 -0.27104913868729896 -1.237587080474736 1.3585652085838997 -3.304121941981751 -1.1704174752948986 0.17672780827362983
549 -0.27061431792816626 -1.2372382007678113 1.358432041691205 -3.3049652451900897 -1.171650168275922 0.17620137547744796
550 -0.2701823215255266 -1.2368903233400486 1.358298700540255 -3.305804101707045 -1.1728747361124798 0.1756706039422451
551 -0.2697531303282947 -1.2365434437806573 1.3581651639990462 -3.306638480872835 -1.1740912215609118 0.17513551429106722
552 -0.26932672544134073 -1.2361975577733313 1.3580314111867602 -3.307468352251422 -1.175299667119649 0.1745961274117937
553 -0.2689030882145488 -1.2358526610954303 1.3578974214738144 -3.308293685633224 -1.1765001150291536 0.17405246445402828
554 -0.26848220023268404 -1.2355087496171469 1.3577631744818046 -3.30911445103774 -1.1776926072723772 0.17350454682599414
555 -0.2680640433059973 -1.2351658193006563 1.3576286500833545 -3.3099306187161073 -1.17887718557568 0.17295239619143496
556 -0.2676485994614999 -1.234823866199263 1.3574938284018763 -3.3107421591535755 -1.180053891410158 0.1723960344665232
557 -0.26723585093485047 -1.234482886456528 1.3573586898112542 -3.3115490430719237 -1.1812227659933308 0.17183548381677702
558 -0.2668257801627975 -1.2341428763053952 1.3572232149354544 -3.3123512414317977 -1.1823838502911492 0.17127076665398683
559 -0.2664183697761307 -1.2338038320673081 1.3570873846480718 -3.313148725434991 -1.183537185020282 0.17070190563315268
560 -0.2660136025930954 -1.2334657501513195 1.3569511800718148 -3.3139414665266576 -1.1846828106506475 0.17012892364943322
561 -0.2656114616132296 -1.2331286270531971 1.35681458257794 -3.314729436397465 -1.1858207674081587 0.1695518438351069
562 -0.2652119300115876 -1.2327924593545254 1.356677573785634 -3.315512606985687 -1.1869510952776552 0.1689706895565464
563 -0.2648149911333166 -1.2324572437218042 1.3565401355613529 -3.31629095047924 -1.1880738340059915 0.16838548441120654
564 -0.2644206284885561 -1.2321229769055428 1.3564022500181199 -3.317064439317662 -1.189189023105264 0.16779625222462657
565 -0.2640288257476335 -1.2317896557393553 1.356263899514786 -3.317833046194033 -1.1902967018561526 0.16720301704744678
566 -0.26363956673652955 -1.23145727713905 1.356125066655255 -3.3185967440568493 -1.1913969093113586 0.16660580315244033
567 -0.2632528354325937 -1.2311258381017243 1.355985734287678 -3.319355506111839 -1.1924896842991222 0.1660046350315603
568 -0.2628686159604852 -1.230795335704852 1.3558458855036208 -3.320109305823725 -1.1935750654268056 0.1653995373930023
569 -0.26248689258832597 -1.2304657671053763 1.3557055036372 -3.3208581169179445 -1.1946530910845237 0.1647905351582831
570 -0.2621076497240442 -1.2301371295388002 1.355564572264199 -3.3216019133823105 -1.1957237994488157 0.16417765345933502
571 -0.2617308719118963 -1.2298094203182781 1.3554230752011576 -3.322340669468631 -1.196787228486343 0.16356091763561684
572 -0.2613565438291524 -1.2294826368337095 1.3552809965044454 -3.3230743596942744 -1.1978434159576021 0.16294035323124076
573 -0.2609846502829321 -1.2291567765508324 1.3551383204693102 -3.323802958843696 -1.1988923994206486 0.16231598599211605
574 -0.26061517620717983 -1.2288318370103206 1.35499503162891 -3.324526441969909 -1.199934216234818 0.16168784186310906
575 -0.26024810665976983 -1.2285078158268796 1.3548511147533309 -3.3252447843959168 -1.2009689035644429 0.1610559469852199
576 -0.25988342681973037 -1.228184710688346 1.3547065548485844 -3.3259579617160933 -1.2019964983825515 0.1604203276927758
577 -0.2595211219845784 -1.2278625193547907 1.3545613371555938 -3.3266659497975297 -1.203017037474552 0.15978101051064103
578 -0.25916117756775875 -1.227541239657622 1.3544154471491638 -3.327368724781326 -1.204030557441887 0.1591380221514436
579 -0.25880357909617835 -1.2272208694986912 1.3542688705369388 -3.328066263083844 -1.205037094705664 0.1584913895128186
580 -0.2584483122078307 -1.2269014068494033 1.3541215932583468 -3.3287585413979195 -1.2060366855102478 0.15784113967466826
581 -0.2580953626495035 -1.2265828497498266 1.3539736014835329 -3.3294455366940308 -1.2070293659268188 0.1571872998964386
582 -0.25774471627456547 -1.226265196307808 1.353824881612281 -3.330127226221423 -1.2080151718568901 0.15652989761441277
583 -0.2573963590408259 -1.2259484446980917 1.3536754202729249 -3.330803587509196 -1.2089941390357828 0.15586896043902104
584 -0.2570502770084642 -1.2256325931614367 1.3535252043212502 -3.331474598367346 -1.2099663030360537 0.15520451615216715
585 -0.2567064563380234 -1.2253176400037424 1.3533742208393837 -3.332140236887773 -1.2109316992708776 0.15453659270457146
586 -0.2563648832884656 -1.2250035835951738 1.3532224571346758 -3.332800481445244 -1.2118903629973792 0.15386521821313026
587 -0.25602554421528506 -1.2246904223692914 1.3530699007385736 -3.333455310698318 -1.212842329319913 0.15319042095829183
588 -0.2556884255686765 -1.224378154822184 1.3529165394054854 -3.3341047035902327 -1.213787633193293 0.15251222938144854
589 -0.2553535138917544 -1.2240667795116051 1.3527623611116342 -3.3347486393497516 -1.2147263094259655 0.15183067208234555
590 -0.25502079581882325 -1.2237562950561118 1.3526073540539079 -3.3353870974919744 -1.2156583926831301 0.1511457778165055
591 -0.25469025807369255 -1.2234467001342075 1.3524515066486982 -3.336020057819109 -1.2165839174898039 0.15045757549266955
592 -0.2543618874680391 -1.2231379934834887 1.352294807530732 -3.336647500421204 -1.2175029182338286 0.14976609417025444
593 -0.25403567089981016 -1.2228301738997946 1.3521372455518974 -3.33726940567685 -1.2184154291688223 0.14907136305682575
594 -0.2537115953516685 -1.222523240236359 1.3519788097800616 -3.337885754253837 -1.2193214844170723 0.14837341150558703
595 -0.2533896478894763 -1.2222171914029687 1.351819489497881 -3.338496527109783 -1.2202211179723725 0.14767226901288483
596 -0.2530698156608173 -1.2219120263651222 1.3516592742016063 -3.3391017054927197 -1.2211143637028008 0.1469679652157298
597 -0.2527520858935546 -1.2216077441431952 1.351498153599879 -3.339701270941649 -1.2220012553534396 0.14626052988933336
598 -0.2524364458944236 -1.2213043438116056 1.351336117612525 -3.34029520528706 -1.2228818265490382 0.14554999294466028
599 -0.25212288304765884 -1.2210018244979863 1.3511731563693368 -3.3408834906514153 -1.223756110796617 0.14483638442599686
600 -0.2518113848136529 -1.2207001853823587 1.3510092602088548 -3.3414661094495997 -1.224624141488015 0.14411973450853469
601 -0.2515019387276475 -1.220399425696312 1.35084441967714 -3.3420430443893365 -1.2254859519023769 0.1434000734959701
602 -0.2511945323984543 -1.2200995447221836 1.3506786255265406 -3.3426142784715713 -1.2263415752085853 0.14267743181811887
603 -0.25088915350720625 -1.219800541792247 1.3505118687144542 -3.3431797949908195 -1.2271910444676346 0.14195184002854666
604 -0.25058578980613666 -1.2195024162878993 1.3503441404020862 -3.343739577535485 -1.2280343926349475 0.1412233288022145
605 -0.2502844291173868 -1.2192051676388551 1.3501754319531984 -3.3442936099881453 -1.228871652562636 0.14049192893313978
606 -0.24998505933184076 -1.218908795322343 1.3500057349328567 -3.344841876525801 -1.2297028570017041 0.13975767133207234
607 -0.24968766840798637 -1.2186132988623062 1.3498350411061706 -3.3453843616200998 -1.2305280386041975 0.13902058702418593
608 -0.24939224437080246 -1.2183186778286075 1.3496633424370315 -3.345921050037526 -1.231347229925295 0.1382807071467846
609 -0.24909877531067087 -1.2180249318362384 1.349490631086841 -3.3464519268395576 -1.2321604634253474 0.13753806294702414
610 -0.24880724938231324 -1.2177320605445292 1.3493168994132418 -3.3469769773827966 -1.2329677714718592 0.1367926857796487
611 -0.24851765480375215 -1.2174400636563663 1.3491421399688368 -3.347496187319067 -1.2337691863414193 0.13604460710474217
612 -0.24822997985529524 -1.217148940917412 1.3489663454999077 -3.3480095425954812 -1.2345647402215751 0.13529385848549444
613 -0.24794421287854287 -1.2168586921153284 1.3487895089451296 -3.3485170294544844 -1.235354465212657 0.13454047158598262
614 -0.2476603422754182 -1.2165693170790046 1.348611623434281 -3.349018634433861 -1.2361383933295464 0.1337844781689668
615 -0.24737835650721918 -1.216280815677788 1.3484326822869488 -3.349514344366716 -1.2369165565033964 0.1330259100937007
616 -0.24709824409369244 -1.2159931878207215 1.34825267901123 -3.350004146381432 -1.2376889865832972 0.1322647993137569
617 -0.24681999361212847 -1.215706433455781 1.3480716073024317 -3.350488027901593 -1.2384557153378928 0.13150117787486645
618 -0.24654359369647752 -1.215420552569121 1.3478894610417653 -3.3509659766458837 -1.239216774456947 0.1307350779127734
619 -0.2462690330364861 -1.2151355451843207 1.3477062342950388 -3.3514379806279595 -1.2399721955528606 0.1299665316511033
620 -0.24599630037685344 -1.2148514113616353 1.347521921311344 -3.351904028156293 -1.2407220101621381 0.12919557139924656
621 -0.24572538451640794 -1.2145681511972533 1.3473365165217424 -3.352364107833993 -1.2414662497468074 0.12842222955025576
622 -0.2454562743073029 -1.214285764822554 1.347150014537949 -3.352818208558594 -1.2422049456957915 0.12764653857875746
623 -0.2451889586542314 -1.2140042524033736 1.3469624101510094 -3.3532663195218273 -1.2429381293262312 0.12686853103887824
624 -0.24492342651365986 -1.2137236141392709 1.34677369832998 -3.3537084302093607 -1.243665831884765 0.12608823956218462
625 -0.24465966689308008 -1.2134438502628 1.3465838742206007 -3.3541445304005166 -1.2443880845487587 0.12530569685563744
626 -0.2443976688502796 -1.213164961038787 1.3463929331439668 -3.3545746101679654 -1.2451049184274927 0.12452093569955999
627 -0.24413742149262962 -1.212886946763609 1.3462008705952018 -3.3549986598773938 -1.245816364563304 0.12373398894562022
628 -0.24387891397639075 -1.2126098077644798 1.3460076822421239 -3.3554166701871497 -1.246522453932682 0.12294488951482686
629 -0.24362213550603587 -1.2123335443987378 1.3458133639239103 -3.355828632047867 -1.2472232174473243 0.12215367039553932
630 -0.24336707533359017 -1.2120581570531375 1.3456179116497662 -3.356234536702063 -1.2479186859551465 0.12136036464149137
631 -0.2431137227579877 -1.2117836461431495 1.3454213215975839 -3.356634375683716 -1.2486088902412509 0.12056500536982862
632 -0.2428620671244447 -1.2115100121122593 1.3452235901126077 -3.35702814081782 -1.249293861028854 0.11976762575915946
633 -0.24261209782384874 -1.2112372554312727 1.3450247137060922 -3.3574158242199204 -1.2499736289801717 0.11896825904761976
634 -0.24236380429216425 -1.2109653765976274 1.344824689053962 -3.3577974182956214 -1.250648224697265 0.118166938530951
635 -0.24211717600985355 -1.2106943761347053 1.3446235129954707 -3.3581729157400826 -1.2513176787228455 0.1173636975605918
636 -0.2418722025013134 -1.2104242545911512 1.3444211825318584 -3.3585423095374862 -1.2519820215410415 0.11655856954178286
637 -0.2416288733343267 -1.210155012540196 1.344217694825008 -3.358905592960489 -1.2526412835781249 0.11575158793168519
638 -0.24138717811952928 -1.2098866505789838 1.344013047196103 -3.3592627595696536 -1.2532954952032012 0.11494278623751163
639 -0.24114710650989135 -1.2096191693279021 1.343807237124283 -3.359613803212858 -1.2539446867288608 0.1141321980146714
640 -0.2409086482002138 -1.2093525694299183 1.3436002622453005 -3.3599587180246906 -1.2545888884117946 0.11331985686492785
641 -0.2406717929266382 -1.20908685154992 1.3433921203501746 -3.360297498425822 -1.2552281304533712 0.11250579643456918
642 -0.24043653046617153 -1.2088220163740593 1.3431828093838514 -3.360630139122362 -1.2558624430001806 0.11169005041259206
643 -0.24020285063622435 -1.2085580646091019 1.3429723274438574 -3.3609566351051976 -1.2564918561445415 0.11087265252889819
644 -0.23997074329416285 -1.2082949969817796 1.3427606727789576 -3.3612769816493104 -1.2571163999249737 0.11005363655250355
645 -0.239740198336874 -1.2080328142381493 1.3425478437878136 -3.3615911743130837 -1.2577361043266377 0.1092330362897605
646 -0.23951120570034437 -1.2077715171429542 1.3423338390176411 -3.361899208937587 -1.2583509992817388 0.10841088558259233
647 -0.23928375535925173 -1.2075111064789916 1.342118657162871 -3.362201081645845 -1.2589611146699005 0.10758721830674052
648 -0.23905783732656932 -1.2072515830464843 1.3419022970638084 -3.3624967888420922 -1.2595664803185043 0.10676206837002436
649 -0.23883344165318288 -1.206992947662454 1.341684757705295 -3.3627863272110123 -1.2601671260029974 0.10593546971061303
650 -0.23861055842752016 -1.2067352011601051 1.3414660382153736 -3.3630696937169593 -1.2607630814471695 0.10510745629530999
651 -0.23838917777519242 -1.2064783443882068 1.3412461378639504 -3.3633468856031667 -1.2613543763233992 0.10427806211784953
652 -0.23816928985864796 -1.2062223782104842 1.3410250560614636 -3.3636179003909397 -1.2619410402528697 0.10344732119720554
653 -0.2379508848768376 -1.20596730350501 1.3408027923575512 -3.3638827358788355 -1.262523102805755 0.10261526757591227
654 -0.23773395306489176 -1.2057131211636058 1.34057934643972 -3.364141390141828 -1.2631005935013775 0.10178193531839715
655 -0.23751848469380868 -1.2054598320912435 1.3403547181320212 -3.364393861530459 -1.2636735418083354 0.10094735850932535
656 -0.23730447007015418 -1.2052074372054529 1.340128907393723 -3.364640148669977 -1.2642419771446034 0.10011157125195631
657 -0.23709189953577228 -1.2049559374357348 1.3399019143179878 -3.364880250459463 -1.2648059288776063 0.09927460766651189
658 -0.23688076346750686 -1.2047053337229778 1.3396737391305538 -3.3651141660709425 -1.2653654263242637 0.09843650188855607
659 -0.23667105227693364 -1.204455627018879 1.3394443821884159 -3.365341894948488 -1.2659204987510098 0.09759728806738638
660 -0.23646275641010314 -1.2042068182853716 1.339213843978513 -3.365563436807306 -1.2664711753737856 0.0967570003644365
661 -0.23625586634729348 -1.2039589084940538 1.3389821251164158 -3.3657787916328163 -1.2670174853580078 0.09591567295169048
662 -0.23605037260277353 -1.2037118986256263 1.3387492263450187 -3.3659879596797158 -1.2675594578185094 0.095073340010108
663 -0.23584626572457618 -1.203465789669331 1.3385151485332338 -3.3661909414710376 -1.2680971218194597 0.09423003572806095
664 -0.235643536294281 -1.2032205826223967 1.3382798926746928 -3.366387737797193 -1.2686305063742567 0.0933857942997809
665 -0.23544217492680683 -1.2029762784894877 1.3380434598864455 -3.3665783497150064 -1.2691596404453978 0.09254064992381773
666 -0.2352421722702136 -1.2027328782821596 1.337805851407668 -3.366762778546741 -1.2696845529443268 0.09169463680150901
667 -0.2350435190055136 -1.2024903830183162 1.3375670685983716 -3.366941025879113 -1.270205272731258 0.09084778913546016
668 -0.23484620584649182 -1.202248793721675 1.3373271129381168 -3.367113093562298 -1.270721828614979 0.0900001411280354
669 -0.23465022353953494 -1.2020081114212335 1.3370859860247322 -3.3672789837089296 -1.2712342493526305 0.0891517269798591
670 -0.23445556286346955 -1.2017683371507446 1.3368436895730347 -3.3674386986930833 -1.2717425636494664 0.0883025808883278
671 -0.23426221462940855 -1.2015294719481922 1.3366002254135578 -3.367592241149261 -1.2722468001585912 0.08745273704613252
672 -0.23407016968060645 -1.201291516855275 1.336355595491282 -3.36773961397136 -1.2727469874806783 0.08660222963979126
673 -0.2338794188923224 -1.2010544729168933 1.3361098018643704 -3.3678808203116373 -1.2732431541636686 0.08575109284819193
674 -0.23368995317169186 -1.2008183411806403 1.3358628467029103 -3.3680158635796666 -1.2737353287024484 0.08489936084114509
675 -0.2335017634576059 -1.2005831226963004 1.335614732287657 -3.3681447474412893 -1.2742235395385095 0.08404706777794685
676 -0.23331484072059858 -1.200348818515349 1.335365461008785 -3.3682674758175537 -1.2747078150595892 0.0831942478059516
677 -0.23312917596274182 -1.2001154296904593 1.3351150353646437 -3.368384052883653 -1.2751881835992938 0.08234093505915444
678 -0.23294476021754779 -1.1998829572750132 1.3348634579605168 -3.3684944830678543 -1.275664673436703 0.0814871636567834
679 -0.23276158454987886 -1.1996514023226168 1.3346107315073907 -3.3685987710504217 -1.276137312795958 0.08063296770190115
680 -0.2325796400558644 -1.1994207658866214 1.3343568588207233 -3.3686969217625333 -1.2766061298458313 0.07977838128001613
681 -0.2323989178628251 -1.1991910490196478 1.3341018428192228 -3.3687889403851945 -1.2770711526992813 0.07892343845770318
682 -0.23221940912920397 -1.1989622527731165 1.3338456865236303 -3.3688748323481446 -1.2775324094129892 0.07806817328123328
683 -0.23204110504450398 -1.1987343781967823 1.3335883930555077 -3.3689546033287563 -1.2779899279868825 0.07721261977521249
684 -0.23186399682923273 -1.1985074263382742 1.3333299656360318 -3.3690282592509355 -1.2784437363636403 0.07635681194122997
685 -0.23168807573485337 -1.198281398242639 1.3330704075847954 -3.3690958062840126 -1.2788938624281865 0.07550078375651485
686 -0.23151333304374178 -1.1980562949518898 1.332809722318613 -3.3691572508416288 -1.2793403340071656 0.07464456917260201
687 -0.23133976006915033 -1.1978321175045605 1.332547913350335 -3.3692125995806226 -1.2797831788684064 0.07378820211400651
688 -0.2311673481551775 -1.1976088669352636 1.3322849842876638 -3.36926185939991 -1.2802224247203713 0.07293171647690672
689 -0.23099608867674334 -1.197386544274253 1.3320209388319806 -3.369305037439359 -1.280658099211591 0.07207514612783583
690 -0.23082597303957098 -1.1971651505469934 1.3317557807771774 -3.369342141078664 -1.2810902299300884 0.07121852490238197
691 -0.2306569926801738 -1.1969446867737303 1.3314895140084946 -3.3693731779362177 -1.281518844402787 0.07036188660389635
692 -0.23048913906584825 -1.196725153969069 1.3312221425013655 -3.369398155867975 -1.28194397009491 0.06950526500220985
693 -0.23032240369467155 -1.1965065531415562 1.3309536703202678 -3.3694170829663213 -1.2823656344093646 0.06864869383235755
694 -0.2301567780955057 -1.1962888852932663 1.3306841016175823 -3.369429967558931 -1.2827838646861156 0.06779220679331123
695 -0.22999225382800562 -1.196072151419394 1.330413440632457 -3.369436818207631 -1.2831986882015491 0.06693583754671979
696 -0.22982882248263314 -1.1958563525078485 1.3301416916896804 -3.369437643707256 -1.2836101321678233 0.06607961971565743
697 -0.2296664756806755 -1.1956414895388565 1.3298688591985601 -3.369432453084506 -1.284018223732209 0.06522358688337944
698 -0.22950520507426872 -1.1954275634845648 1.3295949476518092 -3.3694212555968006 -1.2844229899764206 0.06436777259208556
699 -0.22934500234642594 -1.195214575308653 1.3293199616244382 -3.3694040607311306 -1.284824457915937 0.06351221034169086
700 -0.22918585921106993 -1.1950025259659478 1.3290439057726564 -3.3693808782029118 -1.285222654499312 0.06265693358860375
701 -0.2290277674130704 -1.1947914164020412 1.328766784832781 -3.3693517179548333 -1.2856176066074758 0.061801975744511455
702 -0.22887071872828535 -1.1945812475529163 1.3284886036201504 -3.36931659015571 -1.2860093410530284 0.06094737017517249
703 -0.228714704963607 -1.1943720203445747 1.3282093670280475 -3.369275505199329 -1.2863978845795232 0.06009315019921615
704 -0.22855971795701166 -1.1941637356926709 1.3279290800266295 -3.3692284737033007 -1.286783263860742 0.059239349086948966
705 -0.22840574957761345 -1.1939563945021492 1.3276477476618664 -3.3691755065079043 -1.2871655054999636 0.05838600005916791
706 -0.22825279172572224 -1.1937499976668875 1.3273653750544852 -3.369116614674937 -1.287544636029222 0.05753313628598037
707 -0.22810083633290495 -1.1935445460693435 1.3270819673989223 -3.3690518094865634 -1.2879206819085605 0.05668079088563071
708 -0.2279498753620511 -1.1933400405802077 1.326797529962286 -3.36898110244416 -1.2882936695252756 0.055828996923333256
709 -0.22779990080744136 -1.1931364820580583 1.3265120680833224 -3.368904505267168 -1.2886636251931556 0.0549777874101118
710 -0.22765090469482002 -1.1929338713490245 1.3262255871713924 -3.3688220298919385 -1.2890305751517117 0.054127195301645295
711 -0.2275028790814704 -1.1927322092864487 1.3259380927054563 -3.368733688470583 -1.2893945455654043 0.053277253497119766
712 -0.22735581605629404 -1.1925314966905591 1.3256495902330652 -3.3686394933698245 -1.2897555625228618 0.05242799483808638
713 -0.2272097077398925 -1.1923317343681448 1.32536008536936 -3.368539457169846 -1.290113652036094 0.0515794521073254
714 -0.22622779111892766 -1.1925323200852054 1.3242460620822254 -3.3684543912860865 -1.2903755015163334 0.05073165802771612
715 -0.22535326621281004 -1.1926966677355597 1.3235575169377312 -3.368305365159296 -1.2906884239985534 0.04987155324350404
716 -0.22456396656043595 -1.1928371520332395 1.3231409176635842 -3.3681116313264092 -1.291044174223579 0.049004446444953755
717 -0.22384415433563173 -1.1929617618364348 1.3228972483481438 -3.367885730899889 -1.2914363168135028 0.048133799829578536
718 -0.22318238775264795 -1.1930756566104588 1.3227627068955263 -3.367635865906771 -1.2918596795645512 0.047261880361875896
719 -0.22257012150643393 -1.1931821705472574 1.3226962231749289 -3.3673674301056646 -1.292309997275313 0.04639018080588906
720 -0.22200078867910555 -1.1932834601386475 1.322671393777793 -3.367083997380996 -1.2927836757936342 0.04551969190266281
721 -0.2214691970303904 -1.1933809217716025 1.3226712733248835 -3.3667879602631037 -1.2932776328597548 0.04465107834151333
722 -0.2209711300268608 -1.1934754610244125 1.3226850119690161 -3.36648094265657 -1.2937891885463575 0.04378479256441019
723 -0.22050308112934236 -1.193567666342152 1.3227056855033044 -3.3661640667993145 -1.2943159880697201 0.042921148402530404
724 -0.22006207490625193 -1.1936579210593539 1.3227288955810481 -3.3658381260866745 -1.2948559459685118 0.04206036875924734
725 -0.21964554486608676 -1.193746475671479 1.322751867074849 -3.3655036970880605 -1.2954072045713307 0.04120261652227745
726 -0.2192512484993935 -1.1938334944762314 1.3227728662728728 -3.365161212271964 -1.2959681021690836 0.04034801463649343
727 -0.21887720688312268 -1.1939190856890076 1.3227908260787786 -3.3648110073313444 -1.2965371479038315 0.03949665916850993
728 -0.21852166063873218 -1.1940033209020966 1.3228051047341174 -3.364453352079992 -1.2971130014107524 0.03864862783745043
729 -0.21818303690447416 -1.1940862476716736 1.322815330640392 -3.364088470713196 -1.297694455911063 0.03780398561011559
730 -0.2178599238369486 -1.1941678976720407 1.3228213026817046 -3.3637165551747668 -1.298280423881899 0.0369627883929818
731 -0.21755105035655384 -1.1942482919897017 1.322822926308353 -3.3633377740481363 -1.29886992470769 0.03612508548813762
732 -0.2172552696281402 -1.1943274445710659 1.3228201726499842 -3.36295227853426 -1.2994620738997167 0.03529092124439647
733 -0.21697154527192034 -1.1944053644773438 1.3228130524489723 -3.362560206526986 -1.3000560735905098 0.03446033618253502
734 -0.21669893962724354 -1.1944820573680306 1.3228015995220286 -3.362161685440138 -1.30065120408948 0.033633367775272635
735 -0.2164366036055967 -1.194557526484715 1.322785860339798 -3.3617568342103445 -1.3012468163397792 0.032810050999101587
736 -0.21618376780939097 -1.1946317733105016 1.322765887527754 -3.3613457647509732 -1.3018423251529985 0.03199041873405151
737 -0.21593973468567457 -1.1947047980181753 1.3227417358741689 -3.3609285830364 -1.3024372031237592 0.031174502060954186
738 -0.2157038715456199 -1.1947765997801638 1.3227134599353438 -3.3605053899337265 -1.303030975144375 0.030362330488622993
739 -0.21547560432226526 -1.1948471769875375 1.3226811126533402 -3.3600762818588255 -1.3036232134529742 0.029553932132254653
740 -0.2152544119675222 -1.1949165274086297 1.3226447446108835 -3.359641351307517 -1.3042135331584206 0.028749333857158044
741 -0.21503982140939654 -1.1949846483071271 1.3226044036829732 -3.3592006872957545 -1.3048015881930386 0.0279485613972333
742 -0.2148314030046286 -1.195051536532553 1.3225601349315204 -3.358754375731672 -1.3053870676502741 0.02715163945457253
743 -0.21462876643243198 -1.195117188591598 1.3225119806451744 -3.3583024997351427 -1.3059696924694133 0.02635859178455569
744 -0.21443155698292368 -1.1951816007058609 1.3224599804623653 -3.3578451399157547 -1.3065492124336644 0.025569441269499785
745 -0.2142394522000003 -1.1952447688596841 1.322404171538598 -3.357382374616991 -1.3071254034514619 0.02478420998304765
746 -0.2140521588433475 -1.1953066888405746 1.322344588733784 -3.3569142801323006 -1.3076980650939467 0.02400291924689789
747 -0.21386941013832333 -1.1953673562738893 1.3222812648048081 -3.356440930897342 -1.3082670183642675 0.02322558968108144
748 -0.21369096328586074 -1.1954267666529645 1.3222142305945155 -3.3559623996617027 -1.3088321036767472 0.022452241248716875
749 -0.2135165972074495 -1.1954849153655225 1.322143515212106 -3.355478757642731 -1.309393179026078 0.021682893295984457
750 -0.21334611050278962 -1.1955417977169627 1.3220691462022898 -3.3549900746636196 -1.3099501183286208 0.020917564587920927
751 -0.21317931959993155 -1.1955974089509964 1.3219911497020544 -3.3544964192775333 -1.3105028099195857 0.020156273340535172
752 -0.21301605707968996 -1.1956517442679828 1.3219095505847802 -3.353997858879301 -1.3110511551914181 0.01939903724966778
753 -0.21285617015787522 -1.195704798841244 1.3218243725919816 -3.353494459805984 -1.3115950673601013 0.01864587351695737
754 -0.21269951931046086 -1.195756567831597 1.3217356384532566 -3.3529862874274636 -1.3121344703473374 0.017896798873228675
755 -0.21254597702822203 -1.1958070464002963 1.3216433699951813 -3.3524734062280634 -1.3126692977677095 0.017151829599578148
756 -0.21239542668865438 -1.1958562297205546 1.3215475882399497 -3.3519558798800952 -1.3131994920109515 0.01641098154639998
757 -0.2122477615341354 -1.1959041129877854 1.3214483134945854 -3.3514337713101323 -1.3137250034103802 0.01567427015056776
758 -0.2121028837463307 -1.1959506914286997 1.3213455654315092 -3.350907142758722 -1.3142457894893882 0.014941710450963
759 -0.21196070360778851 -1.195995960309368 1.321239363161228 -3.3503760558341806 -1.3147618142786561 0.01421331710252094
760 -0.21182113874251873 -1.19603991494235 1.3211297252978542 -3.349840571561046 -1.315273047697436 0.013489104388945822
761 -0.2116841134281244 -1.196082550692984 1.3210166700181103 -3.3493007504237116 -1.3157794649928802 0.012769086234231675
762 -0.21154955797275107 -1.1961238629849162 1.3209002151144271 -3.348756652405704 -1.3162810462319572 0.012053276213110394
763 -0.21141740815075322 -1.1961638473049505 1.3207803780426883 -3.348208337025032 -1.316777775841009 0.011341687560536254
764 -0.2112876046915514 -1.1962024992072766 1.320657175965127 -3.3476558633659845 -1.3172696421884749 0.010634333180304548
765 -0.2111600928166715 -1.196239814317146 1.320530625788841 -3.347099290107729 -1.317756637206717 0.00993122565289202
766 -0.21103482182042937 -1.1962757883340465 1.3204007442003343 -3.346538675550007 -1.3182387560492779 0.009232377242597713
767 -0.21091174469015075 -1.1963104170344259 1.3202675476964794 -3.3459740776362263 -1.3187159967802324 0.008537799904054753
768 -0.21079081776220204 -1.196343696274012 1.320131052612231 -3.3454055539741896 -1.3191883600926242 0.00784750528817626
769 -0.21067200041045933 -1.1963756219897663 1.3199912751454157 -3.344833161854693 -1.3196558490532473 0.007161504747592125
770 -0.21055525476415837 -1.196406190201512 1.319848231378875 -3.3442569582682053 -1.320118468871302 0.006479809341627645
771 -0.21044054545235738 -1.1964353970132706 1.3197019373002181 -3.3436769999198086 -1.3205762266886767 0.005802429840869654
772 -0.2103278393725043 -1.1964632386143323 1.3195524088194204 -3.343093343242577 -1.3210291313898301 0.005129376731361095
773 -0.21021710548083627 -1.1964897112800936 1.3193996617844743 -3.3425060444095394 -1.3214771934294267 0.004460660218460919
774 -0.21010831460255328 -1.1965148113726851 1.3192437119952847 -3.341915159344369 -1.3219204246760639 0.003796290230402294
775 -0.2100014392599011 -1.1965385353414104 1.3190845752159797 -3.3413207437309222 -1.322358838270577 0.003136276421578695
776 -0.20989645351647482 -1.1965608797230205 1.3189222671857974 -3.3407228530217408 -1.3227924484975548 0.00248062817558457
777 -0.20979333283621274 -1.196581841141837 1.3187568036286812 -3.3401215424456194 -1.3232212706688264 0.0018293546080344033
778 -0.20969205395569523 -1.196601416309746 1.3185882002617204 -3.3395168670143285 -1.323645321017799 0.001182464569181588
779 -0.2095925947684925 -1.1966196020260755 1.3184164728025443 -3.3389088815285777 -1.324064616603623 0.0005399666463564326
780 -0.20949493422042517 -1.1966363951773695 1.3182416369757777 -3.338297640583295 -1.3244791752242733 -9.813083375950044e-05
781 -0.20939905221470664 -1.1966517927370703 1.3180637085186544 -3.337683198572289 -1.3248890153377029 -0.0007318198030072072
782 -0.20930492952603508 -1.1966657917651253 1.317882703185866 -3.3370656096923517 -1.3252941559903184 -0.0013610924497581577
783 -0.20921254772279 -1.1966783894075212 1.3176986367537316 -3.336444927946869 -1.3256946167520915 -0.0019859412170439295
784 -0.20912188909656756 -1.1966895828957615 1.3175115250237552 -3.3358212071489715 -1.3260904176576849 -0.002606358800796262
785 -0.2090329365983622 -1.1966993695462895 1.3173213838256328 -3.3351945009242856 -1.3264815791530329 -0.003222338148187369
786 -0.2089456737807659 -1.1967077467598677 1.3171282290197655 -3.3345648627133193 -1.3268681220468665 -0.0038338724560614637
787 -0.20886008474561693 -1.1967147120209212 1.3169320764993333 -3.3339323457735177 -1.3272500674667222 -0.004440955169449303
788 -0.20877615409658315 -1.1967202628968472 1.3167329421919738 -3.3332970031810274 -1.327627436819016 -0.005043579980158391
789 -0.20869386689621264 -1.1967243970373007 1.3165308420611086 -3.3326588878321943 -1.3280002517528058 -0.00564174082543224
790 -0.2086132086270304 -1.1967271121734548 1.3163257921069527 -3.332018052444822 -1.3283685341268996 -0.006235431886672654
791 -0.20853416515629725 -1.196728406117249 1.316117808367248 -3.331374549559221 -1.3287323059799965 -0.006824647588219731
792 -0.20845672270408544 -1.1967282767606204 1.315906906917742 -3.3307284315390655 -1.3290915895035824 -0.007409382596184679
793 -0.20838086781435625 -1.196726722074727 1.3156931038724493 -3.330079750572075 -1.3294464070173229 -0.007989631817331116
794 -0.2083065873287563 -1.1967237401091637 1.3154764153837155 -3.3294285586705485 -1.3297967809467244 -0.008565390398000859
795 -0.20823386836287405 -1.1967193289911753 1.3152568576421049 -3.3287749076717557 -1.3301427338028535 -0.00913665372308061
796 -0.20816269828472472 -1.1967134869248686 1.3150344468761377 -3.328118849238211 -1.3304842881639252 -0.009703417415006403
797 -0.2080930646952516 -1.1967062121904224 1.3148091993518929 -3.3274604348578314 -1.330821466658588 -0.01026567733280277
798 -0.2080249554106525 -1.1966975031433063 1.3145811313724913 -3.326799715844003 -1.331154291950751 -0.010823429571154002
799 -0.20795835844635926 -1.1966873582134983 1.3143502592774754 -3.326136743335555 -1.3314827867258108 -0.011376670459505142
800 -0.20789326200251243 -1.196675775904712 1.3141165994421002 -3.325471568296659 -1.3318069736781522 -0.01192539656119045
801 -0.20782965445078982 -1.1966627547936313 1.3138801682765486 -3.324804241516659 -1.3321268754998041 -0.012469604672587365
802 -0.20776752432246026 -1.196648293529152 1.3136409822250767 -3.324134813609837 -1.3324425148701515 -0.013009291822294159
803 -0.20770686029754595 -1.196632390831636 1.3133990577651038 -3.3234633350151306 -1.3327539144465987 -0.013544455270329549
804 -0.20764765119498846 -1.196615045492175 1.3131544114062552 -3.322789855995794 -1.3330610968561085 -0.014075092507352857
805 -0.20758988596372246 -1.1965962563718653 1.312907059689364 -3.322114426639024 -1.333364084687531 -0.014601201253903191
806 -0.2075335536745713 -1.1965760224010964 1.3126570191854403 -3.3214370968555453 -1.3336629004846552 -0.015122779459656453
807 -0.2074786435128857 -1.196554342578852 1.3124043064946145 -3.3207579163791623 -1.3339575667399186 -0.01563982530269892
808 -0.20742514477185522 -1.196531215972024 1.3121489382450582 -3.320076934766282 -1.334248105888715 -0.01615233718881639
